( Profile 1 )
( USBCNC Postprocessor )
N20G00G21G17G90G40G49
N30G80
N40G00G43Z20.000H5
N50S8000M03
N60G94
N70X0.000Y0.000F200.0
N80G00X13.600Y16.000Z6.000
N90G01Z-0.025F30.0
N100G3X13.500Y16.100I-0.100J0.000F200.0
N110G3X13.400Y16.000I0.000J-0.100
N120G3X13.500Y15.900I0.100J0.000
N130G3X13.600Y16.000I0.000J0.100
N140G01Z-0.050F30.0
N150G3X13.500Y16.100I-0.100J0.000F200.0
N160G3X13.400Y16.000I0.000J-0.100
N170G3X13.500Y15.900I0.100J0.000
N180G3X13.600Y16.000I0.000J0.100
N190G01Z-0.075F30.0
N200G3X13.500Y16.100I-0.100J0.000F200.0
N210G3X13.400Y16.000I0.000J-0.100
N220G3X13.500Y15.900I0.100J0.000
N230G3X13.600Y16.000I0.000J0.100
N240G01Z-0.100F30.0
N250G3X13.500Y16.100I-0.100J0.000F200.0
N260G3X13.400Y16.000I0.000J-0.100
N270G3X13.500Y15.900I0.100J0.000
N280G3X13.600Y16.000I0.000J0.100
N290G01Z-0.125F30.0
N300G3X13.500Y16.100I-0.100J0.000F200.0
N310G3X13.400Y16.000I0.000J-0.100
N320G3X13.500Y15.900I0.100J0.000
N330G3X13.600Y16.000I0.000J0.100
N340G01Z-0.150F30.0
N350G3X13.500Y16.100I-0.100J0.000F200.0
N360G3X13.400Y16.000I0.000J-0.100
N370G3X13.500Y15.900I0.100J0.000
N380G3X13.600Y16.000I0.000J0.100
N390G01Z-0.175F30.0
N400G3X13.500Y16.100I-0.100J0.000F200.0
N410G3X13.400Y16.000I0.000J-0.100
N420G3X13.500Y15.900I0.100J0.000
N430G3X13.600Y16.000I0.000J0.100
N440G01Z-0.200F30.0
N450G3X13.500Y16.100I-0.100J0.000F200.0
N460G3X13.400Y16.000I0.000J-0.100
N470G3X13.500Y15.900I0.100J0.000
N480G3X13.600Y16.000I0.000J0.100
N490G01Z-0.225F30.0
N500G3X13.500Y16.100I-0.100J0.000F200.0
N510G3X13.400Y16.000I0.000J-0.100
N520G3X13.500Y15.900I0.100J0.000
N530G3X13.600Y16.000I0.000J0.100
N540G01Z-0.250F30.0
N550G3X13.500Y16.100I-0.100J0.000F200.0
N560G3X13.400Y16.000I0.000J-0.100
N570G3X13.500Y15.900I0.100J0.000
N580G3X13.600Y16.000I0.000J0.100
N590G01Z-0.275F30.0
N600G3X13.500Y16.100I-0.100J0.000F200.0
N610G3X13.400Y16.000I0.000J-0.100
N620G3X13.500Y15.900I0.100J0.000
N630G3X13.600Y16.000I0.000J0.100
N640G01Z-0.300F30.0
N650G3X13.500Y16.100I-0.100J0.000F200.0
N660G3X13.400Y16.000I0.000J-0.100
N670G3X13.500Y15.900I0.100J0.000
N680G3X13.600Y16.000I0.000J0.100
N690G01Z-0.325F30.0
N700G3X13.500Y16.100I-0.100J0.000F200.0
N710G3X13.400Y16.000I0.000J-0.100
N720G3X13.500Y15.900I0.100J0.000
N730G3X13.600Y16.000I0.000J0.100
N740G01Z-0.350F30.0
N750G3X13.500Y16.100I-0.100J0.000F200.0
N760G3X13.400Y16.000I0.000J-0.100
N770G3X13.500Y15.900I0.100J0.000
N780G3X13.600Y16.000I0.000J0.100
N790G01Z-0.375F30.0
N800G3X13.500Y16.100I-0.100J0.000F200.0
N810G3X13.400Y16.000I0.000J-0.100
N820G3X13.500Y15.900I0.100J0.000
N830G3X13.600Y16.000I0.000J0.100
N840G01Z-0.400F30.0
N850G3X13.500Y16.100I-0.100J0.000F200.0
N860G3X13.400Y16.000I0.000J-0.100
N870G3X13.500Y15.900I0.100J0.000
N880G3X13.600Y16.000I0.000J0.100
N890G01Z-0.425F30.0
N900G3X13.500Y16.100I-0.100J0.000F200.0
N910G3X13.400Y16.000I0.000J-0.100
N920G3X13.500Y15.900I0.100J0.000
N930G3X13.600Y16.000I0.000J0.100
N940G01Z-0.450F30.0
N950G3X13.500Y16.100I-0.100J0.000F200.0
N960G3X13.400Y16.000I0.000J-0.100
N970G3X13.500Y15.900I0.100J0.000
N980G3X13.600Y16.000I0.000J0.100
N990G01Z-0.475F30.0
N1000G3X13.500Y16.100I-0.100J0.000F200.0
N1010G3X13.400Y16.000I0.000J-0.100
N1020G3X13.500Y15.900I0.100J0.000
N1030G3X13.600Y16.000I0.000J0.100
N1040G01Z-0.500F30.0
N1050G3X13.500Y16.100I-0.100J0.000F200.0
N1060G3X13.400Y16.000I0.000J-0.100
N1070G3X13.500Y15.900I0.100J0.000
N1080G3X13.600Y16.000I0.000J0.100
N1090G01Z-0.525F30.0
N1100G3X13.500Y16.100I-0.100J0.000F200.0
N1110G3X13.400Y16.000I0.000J-0.100
N1120G3X13.500Y15.900I0.100J0.000
N1130G3X13.600Y16.000I0.000J0.100
N1140G01Z-0.550F30.0
N1150G3X13.500Y16.100I-0.100J0.000F200.0
N1160G3X13.400Y16.000I0.000J-0.100
N1170G3X13.500Y15.900I0.100J0.000
N1180G3X13.600Y16.000I0.000J0.100
N1190G01Z-0.575F30.0
N1200G3X13.500Y16.100I-0.100J0.000F200.0
N1210G3X13.400Y16.000I0.000J-0.100
N1220G3X13.500Y15.900I0.100J0.000
N1230G3X13.600Y16.000I0.000J0.100
N1240G01Z-0.600F30.0
N1250G3X13.500Y16.100I-0.100J0.000F200.0
N1260G3X13.400Y16.000I0.000J-0.100
N1270G3X13.500Y15.900I0.100J0.000
N1280G3X13.600Y16.000I0.000J0.100
N1290G01Z-0.625F30.0
N1300G3X13.500Y16.100I-0.100J0.000F200.0
N1310G3X13.400Y16.000I0.000J-0.100
N1320G3X13.500Y15.900I0.100J0.000
N1330G3X13.600Y16.000I0.000J0.100
N1340G01Z-0.650F30.0
N1350G3X13.500Y16.100I-0.100J0.000F200.0
N1360G3X13.400Y16.000I0.000J-0.100
N1370G3X13.500Y15.900I0.100J0.000
N1380G3X13.600Y16.000I0.000J0.100
N1390G01Z-0.675F30.0
N1400G3X13.500Y16.100I-0.100J0.000F200.0
N1410G3X13.400Y16.000I0.000J-0.100
N1420G3X13.500Y15.900I0.100J0.000
N1430G3X13.600Y16.000I0.000J0.100
N1440G01Z-0.700F30.0
N1450G3X13.500Y16.100I-0.100J0.000F200.0
N1460G3X13.400Y16.000I0.000J-0.100
N1470G3X13.500Y15.900I0.100J0.000
N1480G3X13.600Y16.000I0.000J0.100
N1490G01Z-0.725F30.0
N1500G3X13.500Y16.100I-0.100J0.000F200.0
N1510G3X13.400Y16.000I0.000J-0.100
N1520G3X13.500Y15.900I0.100J0.000
N1530G3X13.600Y16.000I0.000J0.100
N1540G01Z-0.750F30.0
N1550G3X13.500Y16.100I-0.100J0.000F200.0
N1560G3X13.400Y16.000I0.000J-0.100
N1570G3X13.500Y15.900I0.100J0.000
N1580G3X13.600Y16.000I0.000J0.100
N1590G01Z-0.775F30.0
N1600G3X13.500Y16.100I-0.100J0.000F200.0
N1610G3X13.400Y16.000I0.000J-0.100
N1620G3X13.500Y15.900I0.100J0.000
N1630G3X13.600Y16.000I0.000J0.100
N1640G01Z-0.800F30.0
N1650G3X13.500Y16.100I-0.100J0.000F200.0
N1660G3X13.400Y16.000I0.000J-0.100
N1670G3X13.500Y15.900I0.100J0.000
N1680G3X13.600Y16.000I0.000J0.100
N1690G01Z-0.825F30.0
N1700G3X13.500Y16.100I-0.100J0.000F200.0
N1710G3X13.400Y16.000I0.000J-0.100
N1720G3X13.500Y15.900I0.100J0.000
N1730G3X13.600Y16.000I0.000J0.100
N1740G01Z-0.850F30.0
N1750G3X13.500Y16.100I-0.100J0.000F200.0
N1760G3X13.400Y16.000I0.000J-0.100
N1770G3X13.500Y15.900I0.100J0.000
N1780G3X13.600Y16.000I0.000J0.100
N1790G01Z-0.875F30.0
N1800G3X13.500Y16.100I-0.100J0.000F200.0
N1810G3X13.400Y16.000I0.000J-0.100
N1820G3X13.500Y15.900I0.100J0.000
N1830G3X13.600Y16.000I0.000J0.100
N1840G01Z-0.900F30.0
N1850G3X13.500Y16.100I-0.100J0.000F200.0
N1860G3X13.400Y16.000I0.000J-0.100
N1870G3X13.500Y15.900I0.100J0.000
N1880G3X13.600Y16.000I0.000J0.100
N1890G01Z-0.925F30.0
N1900G3X13.500Y16.100I-0.100J0.000F200.0
N1910G3X13.400Y16.000I0.000J-0.100
N1920G3X13.500Y15.900I0.100J0.000
N1930G3X13.600Y16.000I0.000J0.100
N1940G01Z-0.950F30.0
N1950G3X13.500Y16.100I-0.100J0.000F200.0
N1960G3X13.400Y16.000I0.000J-0.100
N1970G3X13.500Y15.900I0.100J0.000
N1980G3X13.600Y16.000I0.000J0.100
N1990G01Z-0.975F30.0
N2000G3X13.500Y16.100I-0.100J0.000F200.0
N2010G3X13.400Y16.000I0.000J-0.100
N2020G3X13.500Y15.900I0.100J0.000
N2030G3X13.600Y16.000I0.000J0.100
N2040G01Z-1.000F30.0
N2050G3X13.500Y16.100I-0.100J0.000F200.0
N2060G3X13.400Y16.000I0.000J-0.100
N2070G3X13.500Y15.900I0.100J0.000
N2080G3X13.600Y16.000I0.000J0.100
N2090G01Z-1.025F30.0
N2100G3X13.500Y16.100I-0.100J0.000F200.0
N2110G3X13.400Y16.000I0.000J-0.100
N2120G3X13.500Y15.900I0.100J0.000
N2130G3X13.600Y16.000I0.000J0.100
N2140G01Z-1.050F30.0
N2150G3X13.500Y16.100I-0.100J0.000F200.0
N2160G3X13.400Y16.000I0.000J-0.100
N2170G3X13.500Y15.900I0.100J0.000
N2180G3X13.600Y16.000I0.000J0.100
N2190G01Z-1.075F30.0
N2200G3X13.500Y16.100I-0.100J0.000F200.0
N2210G3X13.400Y16.000I0.000J-0.100
N2220G3X13.500Y15.900I0.100J0.000
N2230G3X13.600Y16.000I0.000J0.100
N2240G01Z-1.100F30.0
N2250G3X13.500Y16.100I-0.100J0.000F200.0
N2260G3X13.400Y16.000I0.000J-0.100
N2270G3X13.500Y15.900I0.100J0.000
N2280G3X13.600Y16.000I0.000J0.100
N2290G01Z-1.125F30.0
N2300G3X13.500Y16.100I-0.100J0.000F200.0
N2310G3X13.400Y16.000I0.000J-0.100
N2320G3X13.500Y15.900I0.100J0.000
N2330G3X13.600Y16.000I0.000J0.100
N2340G01Z-1.150F30.0
N2350G3X13.500Y16.100I-0.100J0.000F200.0
N2360G3X13.400Y16.000I0.000J-0.100
N2370G3X13.500Y15.900I0.100J0.000
N2380G3X13.600Y16.000I0.000J0.100
N2390G01Z-1.175F30.0
N2400G3X13.500Y16.100I-0.100J0.000F200.0
N2410G3X13.400Y16.000I0.000J-0.100
N2420G3X13.500Y15.900I0.100J0.000
N2430G3X13.600Y16.000I0.000J0.100
N2440G01Z-1.200F30.0
N2450G3X13.500Y16.100I-0.100J0.000F200.0
N2460G3X13.400Y16.000I0.000J-0.100
N2470G3X13.500Y15.900I0.100J0.000
N2480G3X13.600Y16.000I0.000J0.100
N2490G01Z-1.225F30.0
N2500G3X13.500Y16.100I-0.100J0.000F200.0
N2510G3X13.400Y16.000I0.000J-0.100
N2520G3X13.500Y15.900I0.100J0.000
N2530G3X13.600Y16.000I0.000J0.100
N2540G01Z-1.250F30.0
N2550G3X13.500Y16.100I-0.100J0.000F200.0
N2560G3X13.400Y16.000I0.000J-0.100
N2570G3X13.500Y15.900I0.100J0.000
N2580G3X13.600Y16.000I0.000J0.100
N2590G01Z-1.275F30.0
N2600G3X13.500Y16.100I-0.100J0.000F200.0
N2610G3X13.400Y16.000I0.000J-0.100
N2620G3X13.500Y15.900I0.100J0.000
N2630G3X13.600Y16.000I0.000J0.100
N2640G01Z-1.300F30.0
N2650G3X13.500Y16.100I-0.100J0.000F200.0
N2660G3X13.400Y16.000I0.000J-0.100
N2670G3X13.500Y15.900I0.100J0.000
N2680G3X13.600Y16.000I0.000J0.100
N2690G01Z-1.325F30.0
N2700G3X13.500Y16.100I-0.100J0.000F200.0
N2710G3X13.400Y16.000I0.000J-0.100
N2720G3X13.500Y15.900I0.100J0.000
N2730G3X13.600Y16.000I0.000J0.100
N2740G01Z-1.350F30.0
N2750G3X13.500Y16.100I-0.100J0.000F200.0
N2760G3X13.400Y16.000I0.000J-0.100
N2770G3X13.500Y15.900I0.100J0.000
N2780G3X13.600Y16.000I0.000J0.100
N2790G01Z-1.375F30.0
N2800G3X13.500Y16.100I-0.100J0.000F200.0
N2810G3X13.400Y16.000I0.000J-0.100
N2820G3X13.500Y15.900I0.100J0.000
N2830G3X13.600Y16.000I0.000J0.100
N2840G01Z-1.400F30.0
N2850G3X13.500Y16.100I-0.100J0.000F200.0
N2860G3X13.400Y16.000I0.000J-0.100
N2870G3X13.500Y15.900I0.100J0.000
N2880G3X13.600Y16.000I0.000J0.100
N2890G01Z-1.425F30.0
N2900G3X13.500Y16.100I-0.100J0.000F200.0
N2910G3X13.400Y16.000I0.000J-0.100
N2920G3X13.500Y15.900I0.100J0.000
N2930G3X13.600Y16.000I0.000J0.100
N2940G01Z-1.450F30.0
N2950G3X13.500Y16.100I-0.100J0.000F200.0
N2960G3X13.400Y16.000I0.000J-0.100
N2970G3X13.500Y15.900I0.100J0.000
N2980G3X13.600Y16.000I0.000J0.100
N2990G01Z-1.475F30.0
N3000G3X13.500Y16.100I-0.100J0.000F200.0
N3010G3X13.400Y16.000I0.000J-0.100
N3020G3X13.500Y15.900I0.100J0.000
N3030G3X13.600Y16.000I0.000J0.100
N3040G01Z-1.500F30.0
N3050G3X13.500Y16.100I-0.100J0.000F200.0
N3060G3X13.400Y16.000I0.000J-0.100
N3070G3X13.500Y15.900I0.100J0.000
N3080G3X13.600Y16.000I0.000J0.100
N3090G01Z-1.525F30.0
N3100G3X13.500Y16.100I-0.100J0.000F200.0
N3110G3X13.400Y16.000I0.000J-0.100
N3120G3X13.500Y15.900I0.100J0.000
N3130G3X13.600Y16.000I0.000J0.100
N3140G01Z-1.550F30.0
N3150G3X13.500Y16.100I-0.100J0.000F200.0
N3160G3X13.400Y16.000I0.000J-0.100
N3170G3X13.500Y15.900I0.100J0.000
N3180G3X13.600Y16.000I0.000J0.100
N3190G01Z-1.575F30.0
N3200G3X13.500Y16.100I-0.100J0.000F200.0
N3210G3X13.400Y16.000I0.000J-0.100
N3220G3X13.500Y15.900I0.100J0.000
N3230G3X13.600Y16.000I0.000J0.100
N3240G01Z-1.600F30.0
N3250G3X13.500Y16.100I-0.100J0.000F200.0
N3260G3X13.400Y16.000I0.000J-0.100
N3270G3X13.500Y15.900I0.100J0.000
N3280G3X13.600Y16.000I0.000J0.100
N3290G01Z-1.625F30.0
N3300G3X13.500Y16.100I-0.100J0.000F200.0
N3310G3X13.400Y16.000I0.000J-0.100
N3320G3X13.500Y15.900I0.100J0.000
N3330G3X13.600Y16.000I0.000J0.100
N3340G01Z-1.650F30.0
N3350G3X13.500Y16.100I-0.100J0.000F200.0
N3360G3X13.400Y16.000I0.000J-0.100
N3370G3X13.500Y15.900I0.100J0.000
N3380G3X13.600Y16.000I0.000J0.100
N3390G01Z-1.675F30.0
N3400G3X13.500Y16.100I-0.100J0.000F200.0
N3410G3X13.400Y16.000I0.000J-0.100
N3420G3X13.500Y15.900I0.100J0.000
N3430G3X13.600Y16.000I0.000J0.100
N3440G01Z-1.700F30.0
N3450G3X13.500Y16.100I-0.100J0.000F200.0
N3460G3X13.400Y16.000I0.000J-0.100
N3470G3X13.500Y15.900I0.100J0.000
N3480G3X13.600Y16.000I0.000J0.100
N3490G01Z-1.725F30.0
N3500G3X13.500Y16.100I-0.100J0.000F200.0
N3510G3X13.400Y16.000I0.000J-0.100
N3520G3X13.500Y15.900I0.100J0.000
N3530G3X13.600Y16.000I0.000J0.100
N3540G01Z-1.750F30.0
N3550G3X13.500Y16.100I-0.100J0.000F200.0
N3560G3X13.400Y16.000I0.000J-0.100
N3570G3X13.500Y15.900I0.100J0.000
N3580G3X13.600Y16.000I0.000J0.100
N3590G01Z-1.775F30.0
N3600G3X13.500Y16.100I-0.100J0.000F200.0
N3610G3X13.400Y16.000I0.000J-0.100
N3620G3X13.500Y15.900I0.100J0.000
N3630G3X13.600Y16.000I0.000J0.100
N3640G01Z-1.800F30.0
N3650G3X13.500Y16.100I-0.100J0.000F200.0
N3660G3X13.400Y16.000I0.000J-0.100
N3670G3X13.500Y15.900I0.100J0.000
N3680G3X13.600Y16.000I0.000J0.100
N3690G01Z-1.825F30.0
N3700G3X13.500Y16.100I-0.100J0.000F200.0
N3710G3X13.400Y16.000I0.000J-0.100
N3720G3X13.500Y15.900I0.100J0.000
N3730G3X13.600Y16.000I0.000J0.100
N3740G01Z-1.850F30.0
N3750G3X13.500Y16.100I-0.100J0.000F200.0
N3760G3X13.400Y16.000I0.000J-0.100
N3770G3X13.500Y15.900I0.100J0.000
N3780G3X13.600Y16.000I0.000J0.100
N3790G01Z-1.875F30.0
N3800G3X13.500Y16.100I-0.100J0.000F200.0
N3810G3X13.400Y16.000I0.000J-0.100
N3820G3X13.500Y15.900I0.100J0.000
N3830G3X13.600Y16.000I0.000J0.100
N3840G01Z-1.900F30.0
N3850G3X13.500Y16.100I-0.100J0.000F200.0
N3860G3X13.400Y16.000I0.000J-0.100
N3870G3X13.500Y15.900I0.100J0.000
N3880G3X13.600Y16.000I0.000J0.100
N3890G01Z-1.925F30.0
N3900G3X13.500Y16.100I-0.100J0.000F200.0
N3910G3X13.400Y16.000I0.000J-0.100
N3920G3X13.500Y15.900I0.100J0.000
N3930G3X13.600Y16.000I0.000J0.100
N3940G01Z-1.950F30.0
N3950G3X13.500Y16.100I-0.100J0.000F200.0
N3960G3X13.400Y16.000I0.000J-0.100
N3970G3X13.500Y15.900I0.100J0.000
N3980G3X13.600Y16.000I0.000J0.100
N3990G01Z-1.975F30.0
N4000G3X13.500Y16.100I-0.100J0.000F200.0
N4010G3X13.400Y16.000I0.000J-0.100
N4020G3X13.500Y15.900I0.100J0.000
N4030G3X13.600Y16.000I0.000J0.100
N4040G01Z-2.000F30.0
N4050G3X13.500Y16.100I-0.100J0.000F200.0
N4060G3X13.400Y16.000I0.000J-0.100
N4070G3X13.500Y15.900I0.100J0.000
N4080G3X13.600Y16.000I0.000J0.100
N4090G01Z-2.025F30.0
N4100G3X13.500Y16.100I-0.100J0.000F200.0
N4110G3X13.400Y16.000I0.000J-0.100
N4120G3X13.500Y15.900I0.100J0.000
N4130G3X13.600Y16.000I0.000J0.100
N4140G01Z-2.050F30.0
N4150G3X13.500Y16.100I-0.100J0.000F200.0
N4160G3X13.400Y16.000I0.000J-0.100
N4170G3X13.500Y15.900I0.100J0.000
N4180G3X13.600Y16.000I0.000J0.100
N4190G01Z-2.075F30.0
N4200G3X13.500Y16.100I-0.100J0.000F200.0
N4210G3X13.400Y16.000I0.000J-0.100
N4220G3X13.500Y15.900I0.100J0.000
N4230G3X13.600Y16.000I0.000J0.100
N4240G01Z-2.100F30.0
N4250G3X13.500Y16.100I-0.100J0.000F200.0
N4260G3X13.400Y16.000I0.000J-0.100
N4270G3X13.500Y15.900I0.100J0.000
N4280G3X13.600Y16.000I0.000J0.100
N4290G01Z-2.125F30.0
N4300G3X13.500Y16.100I-0.100J0.000F200.0
N4310G3X13.400Y16.000I0.000J-0.100
N4320G3X13.500Y15.900I0.100J0.000
N4330G3X13.600Y16.000I0.000J0.100
N4340G01Z-2.150F30.0
N4350G3X13.500Y16.100I-0.100J0.000F200.0
N4360G3X13.400Y16.000I0.000J-0.100
N4370G3X13.500Y15.900I0.100J0.000
N4380G3X13.600Y16.000I0.000J0.100
N4390G01Z-2.175F30.0
N4400G3X13.500Y16.100I-0.100J0.000F200.0
N4410G3X13.400Y16.000I0.000J-0.100
N4420G3X13.500Y15.900I0.100J0.000
N4430G3X13.600Y16.000I0.000J0.100
N4440G01Z-2.200F30.0
N4450G3X13.500Y16.100I-0.100J0.000F200.0
N4460G3X13.400Y16.000I0.000J-0.100
N4470G3X13.500Y15.900I0.100J0.000
N4480G3X13.600Y16.000I0.000J0.100
N4490G01Z-2.225F30.0
N4500G3X13.500Y16.100I-0.100J0.000F200.0
N4510G3X13.400Y16.000I0.000J-0.100
N4520G3X13.500Y15.900I0.100J0.000
N4530G3X13.600Y16.000I0.000J0.100
N4540G01Z-2.250F30.0
N4550G3X13.500Y16.100I-0.100J0.000F200.0
N4560G3X13.400Y16.000I0.000J-0.100
N4570G3X13.500Y15.900I0.100J0.000
N4580G3X13.600Y16.000I0.000J0.100
N4590G01Z-2.275F30.0
N4600G3X13.500Y16.100I-0.100J0.000F200.0
N4610G3X13.400Y16.000I0.000J-0.100
N4620G3X13.500Y15.900I0.100J0.000
N4630G3X13.600Y16.000I0.000J0.100
N4640G01Z-2.300F30.0
N4650G3X13.500Y16.100I-0.100J0.000F200.0
N4660G3X13.400Y16.000I0.000J-0.100
N4670G3X13.500Y15.900I0.100J0.000
N4680G3X13.600Y16.000I0.000J0.100
N4690G01Z-2.325F30.0
N4700G3X13.500Y16.100I-0.100J0.000F200.0
N4710G3X13.400Y16.000I0.000J-0.100
N4720G3X13.500Y15.900I0.100J0.000
N4730G3X13.600Y16.000I0.000J0.100
N4740G01Z-2.350F30.0
N4750G3X13.500Y16.100I-0.100J0.000F200.0
N4760G3X13.400Y16.000I0.000J-0.100
N4770G3X13.500Y15.900I0.100J0.000
N4780G3X13.600Y16.000I0.000J0.100
N4790G01Z-2.375F30.0
N4800G3X13.500Y16.100I-0.100J0.000F200.0
N4810G3X13.400Y16.000I0.000J-0.100
N4820G3X13.500Y15.900I0.100J0.000
N4830G3X13.600Y16.000I0.000J0.100
N4840G01Z-2.400F30.0
N4850G3X13.500Y16.100I-0.100J0.000F200.0
N4860G3X13.400Y16.000I0.000J-0.100
N4870G3X13.500Y15.900I0.100J0.000
N4880G3X13.600Y16.000I0.000J0.100
N4890G01Z-2.425F30.0
N4900G3X13.500Y16.100I-0.100J0.000F200.0
N4910G3X13.400Y16.000I0.000J-0.100
N4920G3X13.500Y15.900I0.100J0.000
N4930G3X13.600Y16.000I0.000J0.100
N4940G01Z-2.450F30.0
N4950G3X13.500Y16.100I-0.100J0.000F200.0
N4960G3X13.400Y16.000I0.000J-0.100
N4970G3X13.500Y15.900I0.100J0.000
N4980G3X13.600Y16.000I0.000J0.100
N4990G01Z-2.475F30.0
N5000G3X13.500Y16.100I-0.100J0.000F200.0
N5010G3X13.400Y16.000I0.000J-0.100
N5020G3X13.500Y15.900I0.100J0.000
N5030G3X13.600Y16.000I0.000J0.100
N5040G01Z-2.500F30.0
N5050G3X13.500Y16.100I-0.100J0.000F200.0
N5060G3X13.400Y16.000I0.000J-0.100
N5070G3X13.500Y15.900I0.100J0.000
N5080G3X13.600Y16.000I0.000J0.100
N5090G01Z-2.525F30.0
N5100G3X13.500Y16.100I-0.100J0.000F200.0
N5110G3X13.400Y16.000I0.000J-0.100
N5120G3X13.500Y15.900I0.100J0.000
N5130G3X13.600Y16.000I0.000J0.100
N5140G01Z-2.550F30.0
N5150G3X13.500Y16.100I-0.100J0.000F200.0
N5160G3X13.400Y16.000I0.000J-0.100
N5170G3X13.500Y15.900I0.100J0.000
N5180G3X13.600Y16.000I0.000J0.100
N5190G01Z-2.575F30.0
N5200G3X13.500Y16.100I-0.100J0.000F200.0
N5210G3X13.400Y16.000I0.000J-0.100
N5220G3X13.500Y15.900I0.100J0.000
N5230G3X13.600Y16.000I0.000J0.100
N5240G01Z-2.600F30.0
N5250G3X13.500Y16.100I-0.100J0.000F200.0
N5260G3X13.400Y16.000I0.000J-0.100
N5270G3X13.500Y15.900I0.100J0.000
N5280G3X13.600Y16.000I0.000J0.100
N5290G01Z-2.625F30.0
N5300G3X13.500Y16.100I-0.100J0.000F200.0
N5310G3X13.400Y16.000I0.000J-0.100
N5320G3X13.500Y15.900I0.100J0.000
N5330G3X13.600Y16.000I0.000J0.100
N5340G01Z-2.650F30.0
N5350G3X13.500Y16.100I-0.100J0.000F200.0
N5360G3X13.400Y16.000I0.000J-0.100
N5370G3X13.500Y15.900I0.100J0.000
N5380G3X13.600Y16.000I0.000J0.100
N5390G01Z-2.675F30.0
N5400G3X13.500Y16.100I-0.100J0.000F200.0
N5410G3X13.400Y16.000I0.000J-0.100
N5420G3X13.500Y15.900I0.100J0.000
N5430G3X13.600Y16.000I0.000J0.100
N5440G01Z-2.700F30.0
N5450G3X13.500Y16.100I-0.100J0.000F200.0
N5460G3X13.400Y16.000I0.000J-0.100
N5470G3X13.500Y15.900I0.100J0.000
N5480G3X13.600Y16.000I0.000J0.100
N5490G01Z-2.725F30.0
N5500G3X13.500Y16.100I-0.100J0.000F200.0
N5510G3X13.400Y16.000I0.000J-0.100
N5520G3X13.500Y15.900I0.100J0.000
N5530G3X13.600Y16.000I0.000J0.100
N5540G01Z-2.750F30.0
N5550G3X13.500Y16.100I-0.100J0.000F200.0
N5560G3X13.400Y16.000I0.000J-0.100
N5570G3X13.500Y15.900I0.100J0.000
N5580G3X13.600Y16.000I0.000J0.100
N5590G01Z-2.775F30.0
N5600G3X13.500Y16.100I-0.100J0.000F200.0
N5610G3X13.400Y16.000I0.000J-0.100
N5620G3X13.500Y15.900I0.100J0.000
N5630G3X13.600Y16.000I0.000J0.100
N5640G01Z-2.800F30.0
N5650G3X13.500Y16.100I-0.100J0.000F200.0
N5660G3X13.400Y16.000I0.000J-0.100
N5670G3X13.500Y15.900I0.100J0.000
N5680G3X13.600Y16.000I0.000J0.100
N5690G01Z-2.825F30.0
N5700G3X13.500Y16.100I-0.100J0.000F200.0
N5710G3X13.400Y16.000I0.000J-0.100
N5720G3X13.500Y15.900I0.100J0.000
N5730G3X13.600Y16.000I0.000J0.100
N5740G01Z-2.850F30.0
N5750G3X13.500Y16.100I-0.100J0.000F200.0
N5760G3X13.400Y16.000I0.000J-0.100
N5770G3X13.500Y15.900I0.100J0.000
N5780G3X13.600Y16.000I0.000J0.100
N5790G01Z-2.875F30.0
N5800G3X13.500Y16.100I-0.100J0.000F200.0
N5810G3X13.400Y16.000I0.000J-0.100
N5820G3X13.500Y15.900I0.100J0.000
N5830G3X13.600Y16.000I0.000J0.100
N5840G01Z-2.900F30.0
N5850G3X13.500Y16.100I-0.100J0.000F200.0
N5860G3X13.400Y16.000I0.000J-0.100
N5870G3X13.500Y15.900I0.100J0.000
N5880G3X13.600Y16.000I0.000J0.100
N5890G01Z-2.925F30.0
N5900G3X13.500Y16.100I-0.100J0.000F200.0
N5910G3X13.400Y16.000I0.000J-0.100
N5920G3X13.500Y15.900I0.100J0.000
N5930G3X13.600Y16.000I0.000J0.100
N5940G01Z-2.950F30.0
N5950G3X13.500Y16.100I-0.100J0.000F200.0
N5960G3X13.400Y16.000I0.000J-0.100
N5970G3X13.500Y15.900I0.100J0.000
N5980G3X13.600Y16.000I0.000J0.100
N5990G01Z-2.975F30.0
N6000G3X13.500Y16.100I-0.100J0.000F200.0
N6010G3X13.400Y16.000I0.000J-0.100
N6020G3X13.500Y15.900I0.100J0.000
N6030G3X13.600Y16.000I0.000J0.100
N6040G01Z-3.000F30.0
N6050G3X13.500Y16.100I-0.100J0.000F200.0
N6060G3X13.400Y16.000I0.000J-0.100
N6070G3X13.500Y15.900I0.100J0.000
N6080G3X13.600Y16.000I0.000J0.100
N6090G00Z6.000
N6100G00Y31.000
N6110G01Z-0.025F30.0
N6120G3X13.500Y31.100I-0.100J0.000F200.0
N6130G3X13.400Y31.000I0.000J-0.100
N6140G3X13.500Y30.900I0.100J0.000
N6150G3X13.600Y31.000I0.000J0.100
N6160G01Z-0.050F30.0
N6170G3X13.500Y31.100I-0.100J0.000F200.0
N6180G3X13.400Y31.000I0.000J-0.100
N6190G3X13.500Y30.900I0.100J0.000
N6200G3X13.600Y31.000I0.000J0.100
N6210G01Z-0.075F30.0
N6220G3X13.500Y31.100I-0.100J0.000F200.0
N6230G3X13.400Y31.000I0.000J-0.100
N6240G3X13.500Y30.900I0.100J0.000
N6250G3X13.600Y31.000I0.000J0.100
N6260G01Z-0.100F30.0
N6270G3X13.500Y31.100I-0.100J0.000F200.0
N6280G3X13.400Y31.000I0.000J-0.100
N6290G3X13.500Y30.900I0.100J0.000
N6300G3X13.600Y31.000I0.000J0.100
N6310G01Z-0.125F30.0
N6320G3X13.500Y31.100I-0.100J0.000F200.0
N6330G3X13.400Y31.000I0.000J-0.100
N6340G3X13.500Y30.900I0.100J0.000
N6350G3X13.600Y31.000I0.000J0.100
N6360G01Z-0.150F30.0
N6370G3X13.500Y31.100I-0.100J0.000F200.0
N6380G3X13.400Y31.000I0.000J-0.100
N6390G3X13.500Y30.900I0.100J0.000
N6400G3X13.600Y31.000I0.000J0.100
N6410G01Z-0.175F30.0
N6420G3X13.500Y31.100I-0.100J0.000F200.0
N6430G3X13.400Y31.000I0.000J-0.100
N6440G3X13.500Y30.900I0.100J0.000
N6450G3X13.600Y31.000I0.000J0.100
N6460G01Z-0.200F30.0
N6470G3X13.500Y31.100I-0.100J0.000F200.0
N6480G3X13.400Y31.000I0.000J-0.100
N6490G3X13.500Y30.900I0.100J0.000
N6500G3X13.600Y31.000I0.000J0.100
N6510G01Z-0.225F30.0
N6520G3X13.500Y31.100I-0.100J0.000F200.0
N6530G3X13.400Y31.000I0.000J-0.100
N6540G3X13.500Y30.900I0.100J0.000
N6550G3X13.600Y31.000I0.000J0.100
N6560G01Z-0.250F30.0
N6570G3X13.500Y31.100I-0.100J0.000F200.0
N6580G3X13.400Y31.000I0.000J-0.100
N6590G3X13.500Y30.900I0.100J0.000
N6600G3X13.600Y31.000I0.000J0.100
N6610G01Z-0.275F30.0
N6620G3X13.500Y31.100I-0.100J0.000F200.0
N6630G3X13.400Y31.000I0.000J-0.100
N6640G3X13.500Y30.900I0.100J0.000
N6650G3X13.600Y31.000I0.000J0.100
N6660G01Z-0.300F30.0
N6670G3X13.500Y31.100I-0.100J0.000F200.0
N6680G3X13.400Y31.000I0.000J-0.100
N6690G3X13.500Y30.900I0.100J0.000
N6700G3X13.600Y31.000I0.000J0.100
N6710G01Z-0.325F30.0
N6720G3X13.500Y31.100I-0.100J0.000F200.0
N6730G3X13.400Y31.000I0.000J-0.100
N6740G3X13.500Y30.900I0.100J0.000
N6750G3X13.600Y31.000I0.000J0.100
N6760G01Z-0.350F30.0
N6770G3X13.500Y31.100I-0.100J0.000F200.0
N6780G3X13.400Y31.000I0.000J-0.100
N6790G3X13.500Y30.900I0.100J0.000
N6800G3X13.600Y31.000I0.000J0.100
N6810G01Z-0.375F30.0
N6820G3X13.500Y31.100I-0.100J0.000F200.0
N6830G3X13.400Y31.000I0.000J-0.100
N6840G3X13.500Y30.900I0.100J0.000
N6850G3X13.600Y31.000I0.000J0.100
N6860G01Z-0.400F30.0
N6870G3X13.500Y31.100I-0.100J0.000F200.0
N6880G3X13.400Y31.000I0.000J-0.100
N6890G3X13.500Y30.900I0.100J0.000
N6900G3X13.600Y31.000I0.000J0.100
N6910G01Z-0.425F30.0
N6920G3X13.500Y31.100I-0.100J0.000F200.0
N6930G3X13.400Y31.000I0.000J-0.100
N6940G3X13.500Y30.900I0.100J0.000
N6950G3X13.600Y31.000I0.000J0.100
N6960G01Z-0.450F30.0
N6970G3X13.500Y31.100I-0.100J0.000F200.0
N6980G3X13.400Y31.000I0.000J-0.100
N6990G3X13.500Y30.900I0.100J0.000
N7000G3X13.600Y31.000I0.000J0.100
N7010G01Z-0.475F30.0
N7020G3X13.500Y31.100I-0.100J0.000F200.0
N7030G3X13.400Y31.000I0.000J-0.100
N7040G3X13.500Y30.900I0.100J0.000
N7050G3X13.600Y31.000I0.000J0.100
N7060G01Z-0.500F30.0
N7070G3X13.500Y31.100I-0.100J0.000F200.0
N7080G3X13.400Y31.000I0.000J-0.100
N7090G3X13.500Y30.900I0.100J0.000
N7100G3X13.600Y31.000I0.000J0.100
N7110G01Z-0.525F30.0
N7120G3X13.500Y31.100I-0.100J0.000F200.0
N7130G3X13.400Y31.000I0.000J-0.100
N7140G3X13.500Y30.900I0.100J0.000
N7150G3X13.600Y31.000I0.000J0.100
N7160G01Z-0.550F30.0
N7170G3X13.500Y31.100I-0.100J0.000F200.0
N7180G3X13.400Y31.000I0.000J-0.100
N7190G3X13.500Y30.900I0.100J0.000
N7200G3X13.600Y31.000I0.000J0.100
N7210G01Z-0.575F30.0
N7220G3X13.500Y31.100I-0.100J0.000F200.0
N7230G3X13.400Y31.000I0.000J-0.100
N7240G3X13.500Y30.900I0.100J0.000
N7250G3X13.600Y31.000I0.000J0.100
N7260G01Z-0.600F30.0
N7270G3X13.500Y31.100I-0.100J0.000F200.0
N7280G3X13.400Y31.000I0.000J-0.100
N7290G3X13.500Y30.900I0.100J0.000
N7300G3X13.600Y31.000I0.000J0.100
N7310G01Z-0.625F30.0
N7320G3X13.500Y31.100I-0.100J0.000F200.0
N7330G3X13.400Y31.000I0.000J-0.100
N7340G3X13.500Y30.900I0.100J0.000
N7350G3X13.600Y31.000I0.000J0.100
N7360G01Z-0.650F30.0
N7370G3X13.500Y31.100I-0.100J0.000F200.0
N7380G3X13.400Y31.000I0.000J-0.100
N7390G3X13.500Y30.900I0.100J0.000
N7400G3X13.600Y31.000I0.000J0.100
N7410G01Z-0.675F30.0
N7420G3X13.500Y31.100I-0.100J0.000F200.0
N7430G3X13.400Y31.000I0.000J-0.100
N7440G3X13.500Y30.900I0.100J0.000
N7450G3X13.600Y31.000I0.000J0.100
N7460G01Z-0.700F30.0
N7470G3X13.500Y31.100I-0.100J0.000F200.0
N7480G3X13.400Y31.000I0.000J-0.100
N7490G3X13.500Y30.900I0.100J0.000
N7500G3X13.600Y31.000I0.000J0.100
N7510G01Z-0.725F30.0
N7520G3X13.500Y31.100I-0.100J0.000F200.0
N7530G3X13.400Y31.000I0.000J-0.100
N7540G3X13.500Y30.900I0.100J0.000
N7550G3X13.600Y31.000I0.000J0.100
N7560G01Z-0.750F30.0
N7570G3X13.500Y31.100I-0.100J0.000F200.0
N7580G3X13.400Y31.000I0.000J-0.100
N7590G3X13.500Y30.900I0.100J0.000
N7600G3X13.600Y31.000I0.000J0.100
N7610G01Z-0.775F30.0
N7620G3X13.500Y31.100I-0.100J0.000F200.0
N7630G3X13.400Y31.000I0.000J-0.100
N7640G3X13.500Y30.900I0.100J0.000
N7650G3X13.600Y31.000I0.000J0.100
N7660G01Z-0.800F30.0
N7670G3X13.500Y31.100I-0.100J0.000F200.0
N7680G3X13.400Y31.000I0.000J-0.100
N7690G3X13.500Y30.900I0.100J0.000
N7700G3X13.600Y31.000I0.000J0.100
N7710G01Z-0.825F30.0
N7720G3X13.500Y31.100I-0.100J0.000F200.0
N7730G3X13.400Y31.000I0.000J-0.100
N7740G3X13.500Y30.900I0.100J0.000
N7750G3X13.600Y31.000I0.000J0.100
N7760G01Z-0.850F30.0
N7770G3X13.500Y31.100I-0.100J0.000F200.0
N7780G3X13.400Y31.000I0.000J-0.100
N7790G3X13.500Y30.900I0.100J0.000
N7800G3X13.600Y31.000I0.000J0.100
N7810G01Z-0.875F30.0
N7820G3X13.500Y31.100I-0.100J0.000F200.0
N7830G3X13.400Y31.000I0.000J-0.100
N7840G3X13.500Y30.900I0.100J0.000
N7850G3X13.600Y31.000I0.000J0.100
N7860G01Z-0.900F30.0
N7870G3X13.500Y31.100I-0.100J0.000F200.0
N7880G3X13.400Y31.000I0.000J-0.100
N7890G3X13.500Y30.900I0.100J0.000
N7900G3X13.600Y31.000I0.000J0.100
N7910G01Z-0.925F30.0
N7920G3X13.500Y31.100I-0.100J0.000F200.0
N7930G3X13.400Y31.000I0.000J-0.100
N7940G3X13.500Y30.900I0.100J0.000
N7950G3X13.600Y31.000I0.000J0.100
N7960G01Z-0.950F30.0
N7970G3X13.500Y31.100I-0.100J0.000F200.0
N7980G3X13.400Y31.000I0.000J-0.100
N7990G3X13.500Y30.900I0.100J0.000
N8000G3X13.600Y31.000I0.000J0.100
N8010G01Z-0.975F30.0
N8020G3X13.500Y31.100I-0.100J0.000F200.0
N8030G3X13.400Y31.000I0.000J-0.100
N8040G3X13.500Y30.900I0.100J0.000
N8050G3X13.600Y31.000I0.000J0.100
N8060G01Z-1.000F30.0
N8070G3X13.500Y31.100I-0.100J0.000F200.0
N8080G3X13.400Y31.000I0.000J-0.100
N8090G3X13.500Y30.900I0.100J0.000
N8100G3X13.600Y31.000I0.000J0.100
N8110G01Z-1.025F30.0
N8120G3X13.500Y31.100I-0.100J0.000F200.0
N8130G3X13.400Y31.000I0.000J-0.100
N8140G3X13.500Y30.900I0.100J0.000
N8150G3X13.600Y31.000I0.000J0.100
N8160G01Z-1.050F30.0
N8170G3X13.500Y31.100I-0.100J0.000F200.0
N8180G3X13.400Y31.000I0.000J-0.100
N8190G3X13.500Y30.900I0.100J0.000
N8200G3X13.600Y31.000I0.000J0.100
N8210G01Z-1.075F30.0
N8220G3X13.500Y31.100I-0.100J0.000F200.0
N8230G3X13.400Y31.000I0.000J-0.100
N8240G3X13.500Y30.900I0.100J0.000
N8250G3X13.600Y31.000I0.000J0.100
N8260G01Z-1.100F30.0
N8270G3X13.500Y31.100I-0.100J0.000F200.0
N8280G3X13.400Y31.000I0.000J-0.100
N8290G3X13.500Y30.900I0.100J0.000
N8300G3X13.600Y31.000I0.000J0.100
N8310G01Z-1.125F30.0
N8320G3X13.500Y31.100I-0.100J0.000F200.0
N8330G3X13.400Y31.000I0.000J-0.100
N8340G3X13.500Y30.900I0.100J0.000
N8350G3X13.600Y31.000I0.000J0.100
N8360G01Z-1.150F30.0
N8370G3X13.500Y31.100I-0.100J0.000F200.0
N8380G3X13.400Y31.000I0.000J-0.100
N8390G3X13.500Y30.900I0.100J0.000
N8400G3X13.600Y31.000I0.000J0.100
N8410G01Z-1.175F30.0
N8420G3X13.500Y31.100I-0.100J0.000F200.0
N8430G3X13.400Y31.000I0.000J-0.100
N8440G3X13.500Y30.900I0.100J0.000
N8450G3X13.600Y31.000I0.000J0.100
N8460G01Z-1.200F30.0
N8470G3X13.500Y31.100I-0.100J0.000F200.0
N8480G3X13.400Y31.000I0.000J-0.100
N8490G3X13.500Y30.900I0.100J0.000
N8500G3X13.600Y31.000I0.000J0.100
N8510G01Z-1.225F30.0
N8520G3X13.500Y31.100I-0.100J0.000F200.0
N8530G3X13.400Y31.000I0.000J-0.100
N8540G3X13.500Y30.900I0.100J0.000
N8550G3X13.600Y31.000I0.000J0.100
N8560G01Z-1.250F30.0
N8570G3X13.500Y31.100I-0.100J0.000F200.0
N8580G3X13.400Y31.000I0.000J-0.100
N8590G3X13.500Y30.900I0.100J0.000
N8600G3X13.600Y31.000I0.000J0.100
N8610G01Z-1.275F30.0
N8620G3X13.500Y31.100I-0.100J0.000F200.0
N8630G3X13.400Y31.000I0.000J-0.100
N8640G3X13.500Y30.900I0.100J0.000
N8650G3X13.600Y31.000I0.000J0.100
N8660G01Z-1.300F30.0
N8670G3X13.500Y31.100I-0.100J0.000F200.0
N8680G3X13.400Y31.000I0.000J-0.100
N8690G3X13.500Y30.900I0.100J0.000
N8700G3X13.600Y31.000I0.000J0.100
N8710G01Z-1.325F30.0
N8720G3X13.500Y31.100I-0.100J0.000F200.0
N8730G3X13.400Y31.000I0.000J-0.100
N8740G3X13.500Y30.900I0.100J0.000
N8750G3X13.600Y31.000I0.000J0.100
N8760G01Z-1.350F30.0
N8770G3X13.500Y31.100I-0.100J0.000F200.0
N8780G3X13.400Y31.000I0.000J-0.100
N8790G3X13.500Y30.900I0.100J0.000
N8800G3X13.600Y31.000I0.000J0.100
N8810G01Z-1.375F30.0
N8820G3X13.500Y31.100I-0.100J0.000F200.0
N8830G3X13.400Y31.000I0.000J-0.100
N8840G3X13.500Y30.900I0.100J0.000
N8850G3X13.600Y31.000I0.000J0.100
N8860G01Z-1.400F30.0
N8870G3X13.500Y31.100I-0.100J0.000F200.0
N8880G3X13.400Y31.000I0.000J-0.100
N8890G3X13.500Y30.900I0.100J0.000
N8900G3X13.600Y31.000I0.000J0.100
N8910G01Z-1.425F30.0
N8920G3X13.500Y31.100I-0.100J0.000F200.0
N8930G3X13.400Y31.000I0.000J-0.100
N8940G3X13.500Y30.900I0.100J0.000
N8950G3X13.600Y31.000I0.000J0.100
N8960G01Z-1.450F30.0
N8970G3X13.500Y31.100I-0.100J0.000F200.0
N8980G3X13.400Y31.000I0.000J-0.100
N8990G3X13.500Y30.900I0.100J0.000
N9000G3X13.600Y31.000I0.000J0.100
N9010G01Z-1.475F30.0
N9020G3X13.500Y31.100I-0.100J0.000F200.0
N9030G3X13.400Y31.000I0.000J-0.100
N9040G3X13.500Y30.900I0.100J0.000
N9050G3X13.600Y31.000I0.000J0.100
N9060G01Z-1.500F30.0
N9070G3X13.500Y31.100I-0.100J0.000F200.0
N9080G3X13.400Y31.000I0.000J-0.100
N9090G3X13.500Y30.900I0.100J0.000
N9100G3X13.600Y31.000I0.000J0.100
N9110G01Z-1.525F30.0
N9120G3X13.500Y31.100I-0.100J0.000F200.0
N9130G3X13.400Y31.000I0.000J-0.100
N9140G3X13.500Y30.900I0.100J0.000
N9150G3X13.600Y31.000I0.000J0.100
N9160G01Z-1.550F30.0
N9170G3X13.500Y31.100I-0.100J0.000F200.0
N9180G3X13.400Y31.000I0.000J-0.100
N9190G3X13.500Y30.900I0.100J0.000
N9200G3X13.600Y31.000I0.000J0.100
N9210G01Z-1.575F30.0
N9220G3X13.500Y31.100I-0.100J0.000F200.0
N9230G3X13.400Y31.000I0.000J-0.100
N9240G3X13.500Y30.900I0.100J0.000
N9250G3X13.600Y31.000I0.000J0.100
N9260G01Z-1.600F30.0
N9270G3X13.500Y31.100I-0.100J0.000F200.0
N9280G3X13.400Y31.000I0.000J-0.100
N9290G3X13.500Y30.900I0.100J0.000
N9300G3X13.600Y31.000I0.000J0.100
N9310G01Z-1.625F30.0
N9320G3X13.500Y31.100I-0.100J0.000F200.0
N9330G3X13.400Y31.000I0.000J-0.100
N9340G3X13.500Y30.900I0.100J0.000
N9350G3X13.600Y31.000I0.000J0.100
N9360G01Z-1.650F30.0
N9370G3X13.500Y31.100I-0.100J0.000F200.0
N9380G3X13.400Y31.000I0.000J-0.100
N9390G3X13.500Y30.900I0.100J0.000
N9400G3X13.600Y31.000I0.000J0.100
N9410G01Z-1.675F30.0
N9420G3X13.500Y31.100I-0.100J0.000F200.0
N9430G3X13.400Y31.000I0.000J-0.100
N9440G3X13.500Y30.900I0.100J0.000
N9450G3X13.600Y31.000I0.000J0.100
N9460G01Z-1.700F30.0
N9470G3X13.500Y31.100I-0.100J0.000F200.0
N9480G3X13.400Y31.000I0.000J-0.100
N9490G3X13.500Y30.900I0.100J0.000
N9500G3X13.600Y31.000I0.000J0.100
N9510G01Z-1.725F30.0
N9520G3X13.500Y31.100I-0.100J0.000F200.0
N9530G3X13.400Y31.000I0.000J-0.100
N9540G3X13.500Y30.900I0.100J0.000
N9550G3X13.600Y31.000I0.000J0.100
N9560G01Z-1.750F30.0
N9570G3X13.500Y31.100I-0.100J0.000F200.0
N9580G3X13.400Y31.000I0.000J-0.100
N9590G3X13.500Y30.900I0.100J0.000
N9600G3X13.600Y31.000I0.000J0.100
N9610G01Z-1.775F30.0
N9620G3X13.500Y31.100I-0.100J0.000F200.0
N9630G3X13.400Y31.000I0.000J-0.100
N9640G3X13.500Y30.900I0.100J0.000
N9650G3X13.600Y31.000I0.000J0.100
N9660G01Z-1.800F30.0
N9670G3X13.500Y31.100I-0.100J0.000F200.0
N9680G3X13.400Y31.000I0.000J-0.100
N9690G3X13.500Y30.900I0.100J0.000
N9700G3X13.600Y31.000I0.000J0.100
N9710G01Z-1.825F30.0
N9720G3X13.500Y31.100I-0.100J0.000F200.0
N9730G3X13.400Y31.000I0.000J-0.100
N9740G3X13.500Y30.900I0.100J0.000
N9750G3X13.600Y31.000I0.000J0.100
N9760G01Z-1.850F30.0
N9770G3X13.500Y31.100I-0.100J0.000F200.0
N9780G3X13.400Y31.000I0.000J-0.100
N9790G3X13.500Y30.900I0.100J0.000
N9800G3X13.600Y31.000I0.000J0.100
N9810G01Z-1.875F30.0
N9820G3X13.500Y31.100I-0.100J0.000F200.0
N9830G3X13.400Y31.000I0.000J-0.100
N9840G3X13.500Y30.900I0.100J0.000
N9850G3X13.600Y31.000I0.000J0.100
N9860G01Z-1.900F30.0
N9870G3X13.500Y31.100I-0.100J0.000F200.0
N9880G3X13.400Y31.000I0.000J-0.100
N9890G3X13.500Y30.900I0.100J0.000
N9900G3X13.600Y31.000I0.000J0.100
N9910G01Z-1.925F30.0
N9920G3X13.500Y31.100I-0.100J0.000F200.0
N9930G3X13.400Y31.000I0.000J-0.100
N9940G3X13.500Y30.900I0.100J0.000
N9950G3X13.600Y31.000I0.000J0.100
N9960G01Z-1.950F30.0
N9970G3X13.500Y31.100I-0.100J0.000F200.0
N9980G3X13.400Y31.000I0.000J-0.100
N9990G3X13.500Y30.900I0.100J0.000
N10000G3X13.600Y31.000I0.000J0.100
N10010G01Z-1.975F30.0
N10020G3X13.500Y31.100I-0.100J0.000F200.0
N10030G3X13.400Y31.000I0.000J-0.100
N10040G3X13.500Y30.900I0.100J0.000
N10050G3X13.600Y31.000I0.000J0.100
N10060G01Z-2.000F30.0
N10070G3X13.500Y31.100I-0.100J0.000F200.0
N10080G3X13.400Y31.000I0.000J-0.100
N10090G3X13.500Y30.900I0.100J0.000
N10100G3X13.600Y31.000I0.000J0.100
N10110G01Z-2.025F30.0
N10120G3X13.500Y31.100I-0.100J0.000F200.0
N10130G3X13.400Y31.000I0.000J-0.100
N10140G3X13.500Y30.900I0.100J0.000
N10150G3X13.600Y31.000I0.000J0.100
N10160G01Z-2.050F30.0
N10170G3X13.500Y31.100I-0.100J0.000F200.0
N10180G3X13.400Y31.000I0.000J-0.100
N10190G3X13.500Y30.900I0.100J0.000
N10200G3X13.600Y31.000I0.000J0.100
N10210G01Z-2.075F30.0
N10220G3X13.500Y31.100I-0.100J0.000F200.0
N10230G3X13.400Y31.000I0.000J-0.100
N10240G3X13.500Y30.900I0.100J0.000
N10250G3X13.600Y31.000I0.000J0.100
N10260G01Z-2.100F30.0
N10270G3X13.500Y31.100I-0.100J0.000F200.0
N10280G3X13.400Y31.000I0.000J-0.100
N10290G3X13.500Y30.900I0.100J0.000
N10300G3X13.600Y31.000I0.000J0.100
N10310G01Z-2.125F30.0
N10320G3X13.500Y31.100I-0.100J0.000F200.0
N10330G3X13.400Y31.000I0.000J-0.100
N10340G3X13.500Y30.900I0.100J0.000
N10350G3X13.600Y31.000I0.000J0.100
N10360G01Z-2.150F30.0
N10370G3X13.500Y31.100I-0.100J0.000F200.0
N10380G3X13.400Y31.000I0.000J-0.100
N10390G3X13.500Y30.900I0.100J0.000
N10400G3X13.600Y31.000I0.000J0.100
N10410G01Z-2.175F30.0
N10420G3X13.500Y31.100I-0.100J0.000F200.0
N10430G3X13.400Y31.000I0.000J-0.100
N10440G3X13.500Y30.900I0.100J0.000
N10450G3X13.600Y31.000I0.000J0.100
N10460G01Z-2.200F30.0
N10470G3X13.500Y31.100I-0.100J0.000F200.0
N10480G3X13.400Y31.000I0.000J-0.100
N10490G3X13.500Y30.900I0.100J0.000
N10500G3X13.600Y31.000I0.000J0.100
N10510G01Z-2.225F30.0
N10520G3X13.500Y31.100I-0.100J0.000F200.0
N10530G3X13.400Y31.000I0.000J-0.100
N10540G3X13.500Y30.900I0.100J0.000
N10550G3X13.600Y31.000I0.000J0.100
N10560G01Z-2.250F30.0
N10570G3X13.500Y31.100I-0.100J0.000F200.0
N10580G3X13.400Y31.000I0.000J-0.100
N10590G3X13.500Y30.900I0.100J0.000
N10600G3X13.600Y31.000I0.000J0.100
N10610G01Z-2.275F30.0
N10620G3X13.500Y31.100I-0.100J0.000F200.0
N10630G3X13.400Y31.000I0.000J-0.100
N10640G3X13.500Y30.900I0.100J0.000
N10650G3X13.600Y31.000I0.000J0.100
N10660G01Z-2.300F30.0
N10670G3X13.500Y31.100I-0.100J0.000F200.0
N10680G3X13.400Y31.000I0.000J-0.100
N10690G3X13.500Y30.900I0.100J0.000
N10700G3X13.600Y31.000I0.000J0.100
N10710G01Z-2.325F30.0
N10720G3X13.500Y31.100I-0.100J0.000F200.0
N10730G3X13.400Y31.000I0.000J-0.100
N10740G3X13.500Y30.900I0.100J0.000
N10750G3X13.600Y31.000I0.000J0.100
N10760G01Z-2.350F30.0
N10770G3X13.500Y31.100I-0.100J0.000F200.0
N10780G3X13.400Y31.000I0.000J-0.100
N10790G3X13.500Y30.900I0.100J0.000
N10800G3X13.600Y31.000I0.000J0.100
N10810G01Z-2.375F30.0
N10820G3X13.500Y31.100I-0.100J0.000F200.0
N10830G3X13.400Y31.000I0.000J-0.100
N10840G3X13.500Y30.900I0.100J0.000
N10850G3X13.600Y31.000I0.000J0.100
N10860G01Z-2.400F30.0
N10870G3X13.500Y31.100I-0.100J0.000F200.0
N10880G3X13.400Y31.000I0.000J-0.100
N10890G3X13.500Y30.900I0.100J0.000
N10900G3X13.600Y31.000I0.000J0.100
N10910G01Z-2.425F30.0
N10920G3X13.500Y31.100I-0.100J0.000F200.0
N10930G3X13.400Y31.000I0.000J-0.100
N10940G3X13.500Y30.900I0.100J0.000
N10950G3X13.600Y31.000I0.000J0.100
N10960G01Z-2.450F30.0
N10970G3X13.500Y31.100I-0.100J0.000F200.0
N10980G3X13.400Y31.000I0.000J-0.100
N10990G3X13.500Y30.900I0.100J0.000
N11000G3X13.600Y31.000I0.000J0.100
N11010G01Z-2.475F30.0
N11020G3X13.500Y31.100I-0.100J0.000F200.0
N11030G3X13.400Y31.000I0.000J-0.100
N11040G3X13.500Y30.900I0.100J0.000
N11050G3X13.600Y31.000I0.000J0.100
N11060G01Z-2.500F30.0
N11070G3X13.500Y31.100I-0.100J0.000F200.0
N11080G3X13.400Y31.000I0.000J-0.100
N11090G3X13.500Y30.900I0.100J0.000
N11100G3X13.600Y31.000I0.000J0.100
N11110G01Z-2.525F30.0
N11120G3X13.500Y31.100I-0.100J0.000F200.0
N11130G3X13.400Y31.000I0.000J-0.100
N11140G3X13.500Y30.900I0.100J0.000
N11150G3X13.600Y31.000I0.000J0.100
N11160G01Z-2.550F30.0
N11170G3X13.500Y31.100I-0.100J0.000F200.0
N11180G3X13.400Y31.000I0.000J-0.100
N11190G3X13.500Y30.900I0.100J0.000
N11200G3X13.600Y31.000I0.000J0.100
N11210G01Z-2.575F30.0
N11220G3X13.500Y31.100I-0.100J0.000F200.0
N11230G3X13.400Y31.000I0.000J-0.100
N11240G3X13.500Y30.900I0.100J0.000
N11250G3X13.600Y31.000I0.000J0.100
N11260G01Z-2.600F30.0
N11270G3X13.500Y31.100I-0.100J0.000F200.0
N11280G3X13.400Y31.000I0.000J-0.100
N11290G3X13.500Y30.900I0.100J0.000
N11300G3X13.600Y31.000I0.000J0.100
N11310G01Z-2.625F30.0
N11320G3X13.500Y31.100I-0.100J0.000F200.0
N11330G3X13.400Y31.000I0.000J-0.100
N11340G3X13.500Y30.900I0.100J0.000
N11350G3X13.600Y31.000I0.000J0.100
N11360G01Z-2.650F30.0
N11370G3X13.500Y31.100I-0.100J0.000F200.0
N11380G3X13.400Y31.000I0.000J-0.100
N11390G3X13.500Y30.900I0.100J0.000
N11400G3X13.600Y31.000I0.000J0.100
N11410G01Z-2.675F30.0
N11420G3X13.500Y31.100I-0.100J0.000F200.0
N11430G3X13.400Y31.000I0.000J-0.100
N11440G3X13.500Y30.900I0.100J0.000
N11450G3X13.600Y31.000I0.000J0.100
N11460G01Z-2.700F30.0
N11470G3X13.500Y31.100I-0.100J0.000F200.0
N11480G3X13.400Y31.000I0.000J-0.100
N11490G3X13.500Y30.900I0.100J0.000
N11500G3X13.600Y31.000I0.000J0.100
N11510G01Z-2.725F30.0
N11520G3X13.500Y31.100I-0.100J0.000F200.0
N11530G3X13.400Y31.000I0.000J-0.100
N11540G3X13.500Y30.900I0.100J0.000
N11550G3X13.600Y31.000I0.000J0.100
N11560G01Z-2.750F30.0
N11570G3X13.500Y31.100I-0.100J0.000F200.0
N11580G3X13.400Y31.000I0.000J-0.100
N11590G3X13.500Y30.900I0.100J0.000
N11600G3X13.600Y31.000I0.000J0.100
N11610G01Z-2.775F30.0
N11620G3X13.500Y31.100I-0.100J0.000F200.0
N11630G3X13.400Y31.000I0.000J-0.100
N11640G3X13.500Y30.900I0.100J0.000
N11650G3X13.600Y31.000I0.000J0.100
N11660G01Z-2.800F30.0
N11670G3X13.500Y31.100I-0.100J0.000F200.0
N11680G3X13.400Y31.000I0.000J-0.100
N11690G3X13.500Y30.900I0.100J0.000
N11700G3X13.600Y31.000I0.000J0.100
N11710G01Z-2.825F30.0
N11720G3X13.500Y31.100I-0.100J0.000F200.0
N11730G3X13.400Y31.000I0.000J-0.100
N11740G3X13.500Y30.900I0.100J0.000
N11750G3X13.600Y31.000I0.000J0.100
N11760G01Z-2.850F30.0
N11770G3X13.500Y31.100I-0.100J0.000F200.0
N11780G3X13.400Y31.000I0.000J-0.100
N11790G3X13.500Y30.900I0.100J0.000
N11800G3X13.600Y31.000I0.000J0.100
N11810G01Z-2.875F30.0
N11820G3X13.500Y31.100I-0.100J0.000F200.0
N11830G3X13.400Y31.000I0.000J-0.100
N11840G3X13.500Y30.900I0.100J0.000
N11850G3X13.600Y31.000I0.000J0.100
N11860G01Z-2.900F30.0
N11870G3X13.500Y31.100I-0.100J0.000F200.0
N11880G3X13.400Y31.000I0.000J-0.100
N11890G3X13.500Y30.900I0.100J0.000
N11900G3X13.600Y31.000I0.000J0.100
N11910G01Z-2.925F30.0
N11920G3X13.500Y31.100I-0.100J0.000F200.0
N11930G3X13.400Y31.000I0.000J-0.100
N11940G3X13.500Y30.900I0.100J0.000
N11950G3X13.600Y31.000I0.000J0.100
N11960G01Z-2.950F30.0
N11970G3X13.500Y31.100I-0.100J0.000F200.0
N11980G3X13.400Y31.000I0.000J-0.100
N11990G3X13.500Y30.900I0.100J0.000
N12000G3X13.600Y31.000I0.000J0.100
N12010G01Z-2.975F30.0
N12020G3X13.500Y31.100I-0.100J0.000F200.0
N12030G3X13.400Y31.000I0.000J-0.100
N12040G3X13.500Y30.900I0.100J0.000
N12050G3X13.600Y31.000I0.000J0.100
N12060G01Z-3.000F30.0
N12070G3X13.500Y31.100I-0.100J0.000F200.0
N12080G3X13.400Y31.000I0.000J-0.100
N12090G3X13.500Y30.900I0.100J0.000
N12100G3X13.600Y31.000I0.000J0.100
N12110G00Z6.000
N12120G00Y46.000
N12130G01Z-0.025F30.0
N12140G3X13.500Y46.100I-0.100J0.000F200.0
N12150G3X13.400Y46.000I0.000J-0.100
N12160G3X13.500Y45.900I0.100J0.000
N12170G3X13.600Y46.000I0.000J0.100
N12180G01Z-0.050F30.0
N12190G3X13.500Y46.100I-0.100J0.000F200.0
N12200G3X13.400Y46.000I0.000J-0.100
N12210G3X13.500Y45.900I0.100J0.000
N12220G3X13.600Y46.000I0.000J0.100
N12230G01Z-0.075F30.0
N12240G3X13.500Y46.100I-0.100J0.000F200.0
N12250G3X13.400Y46.000I0.000J-0.100
N12260G3X13.500Y45.900I0.100J0.000
N12270G3X13.600Y46.000I0.000J0.100
N12280G01Z-0.100F30.0
N12290G3X13.500Y46.100I-0.100J0.000F200.0
N12300G3X13.400Y46.000I0.000J-0.100
N12310G3X13.500Y45.900I0.100J0.000
N12320G3X13.600Y46.000I0.000J0.100
N12330G01Z-0.125F30.0
N12340G3X13.500Y46.100I-0.100J0.000F200.0
N12350G3X13.400Y46.000I0.000J-0.100
N12360G3X13.500Y45.900I0.100J0.000
N12370G3X13.600Y46.000I0.000J0.100
N12380G01Z-0.150F30.0
N12390G3X13.500Y46.100I-0.100J0.000F200.0
N12400G3X13.400Y46.000I0.000J-0.100
N12410G3X13.500Y45.900I0.100J0.000
N12420G3X13.600Y46.000I0.000J0.100
N12430G01Z-0.175F30.0
N12440G3X13.500Y46.100I-0.100J0.000F200.0
N12450G3X13.400Y46.000I0.000J-0.100
N12460G3X13.500Y45.900I0.100J0.000
N12470G3X13.600Y46.000I0.000J0.100
N12480G01Z-0.200F30.0
N12490G3X13.500Y46.100I-0.100J0.000F200.0
N12500G3X13.400Y46.000I0.000J-0.100
N12510G3X13.500Y45.900I0.100J0.000
N12520G3X13.600Y46.000I0.000J0.100
N12530G01Z-0.225F30.0
N12540G3X13.500Y46.100I-0.100J0.000F200.0
N12550G3X13.400Y46.000I0.000J-0.100
N12560G3X13.500Y45.900I0.100J0.000
N12570G3X13.600Y46.000I0.000J0.100
N12580G01Z-0.250F30.0
N12590G3X13.500Y46.100I-0.100J0.000F200.0
N12600G3X13.400Y46.000I0.000J-0.100
N12610G3X13.500Y45.900I0.100J0.000
N12620G3X13.600Y46.000I0.000J0.100
N12630G01Z-0.275F30.0
N12640G3X13.500Y46.100I-0.100J0.000F200.0
N12650G3X13.400Y46.000I0.000J-0.100
N12660G3X13.500Y45.900I0.100J0.000
N12670G3X13.600Y46.000I0.000J0.100
N12680G01Z-0.300F30.0
N12690G3X13.500Y46.100I-0.100J0.000F200.0
N12700G3X13.400Y46.000I0.000J-0.100
N12710G3X13.500Y45.900I0.100J0.000
N12720G3X13.600Y46.000I0.000J0.100
N12730G01Z-0.325F30.0
N12740G3X13.500Y46.100I-0.100J0.000F200.0
N12750G3X13.400Y46.000I0.000J-0.100
N12760G3X13.500Y45.900I0.100J0.000
N12770G3X13.600Y46.000I0.000J0.100
N12780G01Z-0.350F30.0
N12790G3X13.500Y46.100I-0.100J0.000F200.0
N12800G3X13.400Y46.000I0.000J-0.100
N12810G3X13.500Y45.900I0.100J0.000
N12820G3X13.600Y46.000I0.000J0.100
N12830G01Z-0.375F30.0
N12840G3X13.500Y46.100I-0.100J0.000F200.0
N12850G3X13.400Y46.000I0.000J-0.100
N12860G3X13.500Y45.900I0.100J0.000
N12870G3X13.600Y46.000I0.000J0.100
N12880G01Z-0.400F30.0
N12890G3X13.500Y46.100I-0.100J0.000F200.0
N12900G3X13.400Y46.000I0.000J-0.100
N12910G3X13.500Y45.900I0.100J0.000
N12920G3X13.600Y46.000I0.000J0.100
N12930G01Z-0.425F30.0
N12940G3X13.500Y46.100I-0.100J0.000F200.0
N12950G3X13.400Y46.000I0.000J-0.100
N12960G3X13.500Y45.900I0.100J0.000
N12970G3X13.600Y46.000I0.000J0.100
N12980G01Z-0.450F30.0
N12990G3X13.500Y46.100I-0.100J0.000F200.0
N13000G3X13.400Y46.000I0.000J-0.100
N13010G3X13.500Y45.900I0.100J0.000
N13020G3X13.600Y46.000I0.000J0.100
N13030G01Z-0.475F30.0
N13040G3X13.500Y46.100I-0.100J0.000F200.0
N13050G3X13.400Y46.000I0.000J-0.100
N13060G3X13.500Y45.900I0.100J0.000
N13070G3X13.600Y46.000I0.000J0.100
N13080G01Z-0.500F30.0
N13090G3X13.500Y46.100I-0.100J0.000F200.0
N13100G3X13.400Y46.000I0.000J-0.100
N13110G3X13.500Y45.900I0.100J0.000
N13120G3X13.600Y46.000I0.000J0.100
N13130G01Z-0.525F30.0
N13140G3X13.500Y46.100I-0.100J0.000F200.0
N13150G3X13.400Y46.000I0.000J-0.100
N13160G3X13.500Y45.900I0.100J0.000
N13170G3X13.600Y46.000I0.000J0.100
N13180G01Z-0.550F30.0
N13190G3X13.500Y46.100I-0.100J0.000F200.0
N13200G3X13.400Y46.000I0.000J-0.100
N13210G3X13.500Y45.900I0.100J0.000
N13220G3X13.600Y46.000I0.000J0.100
N13230G01Z-0.575F30.0
N13240G3X13.500Y46.100I-0.100J0.000F200.0
N13250G3X13.400Y46.000I0.000J-0.100
N13260G3X13.500Y45.900I0.100J0.000
N13270G3X13.600Y46.000I0.000J0.100
N13280G01Z-0.600F30.0
N13290G3X13.500Y46.100I-0.100J0.000F200.0
N13300G3X13.400Y46.000I0.000J-0.100
N13310G3X13.500Y45.900I0.100J0.000
N13320G3X13.600Y46.000I0.000J0.100
N13330G01Z-0.625F30.0
N13340G3X13.500Y46.100I-0.100J0.000F200.0
N13350G3X13.400Y46.000I0.000J-0.100
N13360G3X13.500Y45.900I0.100J0.000
N13370G3X13.600Y46.000I0.000J0.100
N13380G01Z-0.650F30.0
N13390G3X13.500Y46.100I-0.100J0.000F200.0
N13400G3X13.400Y46.000I0.000J-0.100
N13410G3X13.500Y45.900I0.100J0.000
N13420G3X13.600Y46.000I0.000J0.100
N13430G01Z-0.675F30.0
N13440G3X13.500Y46.100I-0.100J0.000F200.0
N13450G3X13.400Y46.000I0.000J-0.100
N13460G3X13.500Y45.900I0.100J0.000
N13470G3X13.600Y46.000I0.000J0.100
N13480G01Z-0.700F30.0
N13490G3X13.500Y46.100I-0.100J0.000F200.0
N13500G3X13.400Y46.000I0.000J-0.100
N13510G3X13.500Y45.900I0.100J0.000
N13520G3X13.600Y46.000I0.000J0.100
N13530G01Z-0.725F30.0
N13540G3X13.500Y46.100I-0.100J0.000F200.0
N13550G3X13.400Y46.000I0.000J-0.100
N13560G3X13.500Y45.900I0.100J0.000
N13570G3X13.600Y46.000I0.000J0.100
N13580G01Z-0.750F30.0
N13590G3X13.500Y46.100I-0.100J0.000F200.0
N13600G3X13.400Y46.000I0.000J-0.100
N13610G3X13.500Y45.900I0.100J0.000
N13620G3X13.600Y46.000I0.000J0.100
N13630G01Z-0.775F30.0
N13640G3X13.500Y46.100I-0.100J0.000F200.0
N13650G3X13.400Y46.000I0.000J-0.100
N13660G3X13.500Y45.900I0.100J0.000
N13670G3X13.600Y46.000I0.000J0.100
N13680G01Z-0.800F30.0
N13690G3X13.500Y46.100I-0.100J0.000F200.0
N13700G3X13.400Y46.000I0.000J-0.100
N13710G3X13.500Y45.900I0.100J0.000
N13720G3X13.600Y46.000I0.000J0.100
N13730G01Z-0.825F30.0
N13740G3X13.500Y46.100I-0.100J0.000F200.0
N13750G3X13.400Y46.000I0.000J-0.100
N13760G3X13.500Y45.900I0.100J0.000
N13770G3X13.600Y46.000I0.000J0.100
N13780G01Z-0.850F30.0
N13790G3X13.500Y46.100I-0.100J0.000F200.0
N13800G3X13.400Y46.000I0.000J-0.100
N13810G3X13.500Y45.900I0.100J0.000
N13820G3X13.600Y46.000I0.000J0.100
N13830G01Z-0.875F30.0
N13840G3X13.500Y46.100I-0.100J0.000F200.0
N13850G3X13.400Y46.000I0.000J-0.100
N13860G3X13.500Y45.900I0.100J0.000
N13870G3X13.600Y46.000I0.000J0.100
N13880G01Z-0.900F30.0
N13890G3X13.500Y46.100I-0.100J0.000F200.0
N13900G3X13.400Y46.000I0.000J-0.100
N13910G3X13.500Y45.900I0.100J0.000
N13920G3X13.600Y46.000I0.000J0.100
N13930G01Z-0.925F30.0
N13940G3X13.500Y46.100I-0.100J0.000F200.0
N13950G3X13.400Y46.000I0.000J-0.100
N13960G3X13.500Y45.900I0.100J0.000
N13970G3X13.600Y46.000I0.000J0.100
N13980G01Z-0.950F30.0
N13990G3X13.500Y46.100I-0.100J0.000F200.0
N14000G3X13.400Y46.000I0.000J-0.100
N14010G3X13.500Y45.900I0.100J0.000
N14020G3X13.600Y46.000I0.000J0.100
N14030G01Z-0.975F30.0
N14040G3X13.500Y46.100I-0.100J0.000F200.0
N14050G3X13.400Y46.000I0.000J-0.100
N14060G3X13.500Y45.900I0.100J0.000
N14070G3X13.600Y46.000I0.000J0.100
N14080G01Z-1.000F30.0
N14090G3X13.500Y46.100I-0.100J0.000F200.0
N14100G3X13.400Y46.000I0.000J-0.100
N14110G3X13.500Y45.900I0.100J0.000
N14120G3X13.600Y46.000I0.000J0.100
N14130G01Z-1.025F30.0
N14140G3X13.500Y46.100I-0.100J0.000F200.0
N14150G3X13.400Y46.000I0.000J-0.100
N14160G3X13.500Y45.900I0.100J0.000
N14170G3X13.600Y46.000I0.000J0.100
N14180G01Z-1.050F30.0
N14190G3X13.500Y46.100I-0.100J0.000F200.0
N14200G3X13.400Y46.000I0.000J-0.100
N14210G3X13.500Y45.900I0.100J0.000
N14220G3X13.600Y46.000I0.000J0.100
N14230G01Z-1.075F30.0
N14240G3X13.500Y46.100I-0.100J0.000F200.0
N14250G3X13.400Y46.000I0.000J-0.100
N14260G3X13.500Y45.900I0.100J0.000
N14270G3X13.600Y46.000I0.000J0.100
N14280G01Z-1.100F30.0
N14290G3X13.500Y46.100I-0.100J0.000F200.0
N14300G3X13.400Y46.000I0.000J-0.100
N14310G3X13.500Y45.900I0.100J0.000
N14320G3X13.600Y46.000I0.000J0.100
N14330G01Z-1.125F30.0
N14340G3X13.500Y46.100I-0.100J0.000F200.0
N14350G3X13.400Y46.000I0.000J-0.100
N14360G3X13.500Y45.900I0.100J0.000
N14370G3X13.600Y46.000I0.000J0.100
N14380G01Z-1.150F30.0
N14390G3X13.500Y46.100I-0.100J0.000F200.0
N14400G3X13.400Y46.000I0.000J-0.100
N14410G3X13.500Y45.900I0.100J0.000
N14420G3X13.600Y46.000I0.000J0.100
N14430G01Z-1.175F30.0
N14440G3X13.500Y46.100I-0.100J0.000F200.0
N14450G3X13.400Y46.000I0.000J-0.100
N14460G3X13.500Y45.900I0.100J0.000
N14470G3X13.600Y46.000I0.000J0.100
N14480G01Z-1.200F30.0
N14490G3X13.500Y46.100I-0.100J0.000F200.0
N14500G3X13.400Y46.000I0.000J-0.100
N14510G3X13.500Y45.900I0.100J0.000
N14520G3X13.600Y46.000I0.000J0.100
N14530G01Z-1.225F30.0
N14540G3X13.500Y46.100I-0.100J0.000F200.0
N14550G3X13.400Y46.000I0.000J-0.100
N14560G3X13.500Y45.900I0.100J0.000
N14570G3X13.600Y46.000I0.000J0.100
N14580G01Z-1.250F30.0
N14590G3X13.500Y46.100I-0.100J0.000F200.0
N14600G3X13.400Y46.000I0.000J-0.100
N14610G3X13.500Y45.900I0.100J0.000
N14620G3X13.600Y46.000I0.000J0.100
N14630G01Z-1.275F30.0
N14640G3X13.500Y46.100I-0.100J0.000F200.0
N14650G3X13.400Y46.000I0.000J-0.100
N14660G3X13.500Y45.900I0.100J0.000
N14670G3X13.600Y46.000I0.000J0.100
N14680G01Z-1.300F30.0
N14690G3X13.500Y46.100I-0.100J0.000F200.0
N14700G3X13.400Y46.000I0.000J-0.100
N14710G3X13.500Y45.900I0.100J0.000
N14720G3X13.600Y46.000I0.000J0.100
N14730G01Z-1.325F30.0
N14740G3X13.500Y46.100I-0.100J0.000F200.0
N14750G3X13.400Y46.000I0.000J-0.100
N14760G3X13.500Y45.900I0.100J0.000
N14770G3X13.600Y46.000I0.000J0.100
N14780G01Z-1.350F30.0
N14790G3X13.500Y46.100I-0.100J0.000F200.0
N14800G3X13.400Y46.000I0.000J-0.100
N14810G3X13.500Y45.900I0.100J0.000
N14820G3X13.600Y46.000I0.000J0.100
N14830G01Z-1.375F30.0
N14840G3X13.500Y46.100I-0.100J0.000F200.0
N14850G3X13.400Y46.000I0.000J-0.100
N14860G3X13.500Y45.900I0.100J0.000
N14870G3X13.600Y46.000I0.000J0.100
N14880G01Z-1.400F30.0
N14890G3X13.500Y46.100I-0.100J0.000F200.0
N14900G3X13.400Y46.000I0.000J-0.100
N14910G3X13.500Y45.900I0.100J0.000
N14920G3X13.600Y46.000I0.000J0.100
N14930G01Z-1.425F30.0
N14940G3X13.500Y46.100I-0.100J0.000F200.0
N14950G3X13.400Y46.000I0.000J-0.100
N14960G3X13.500Y45.900I0.100J0.000
N14970G3X13.600Y46.000I0.000J0.100
N14980G01Z-1.450F30.0
N14990G3X13.500Y46.100I-0.100J0.000F200.0
N15000G3X13.400Y46.000I0.000J-0.100
N15010G3X13.500Y45.900I0.100J0.000
N15020G3X13.600Y46.000I0.000J0.100
N15030G01Z-1.475F30.0
N15040G3X13.500Y46.100I-0.100J0.000F200.0
N15050G3X13.400Y46.000I0.000J-0.100
N15060G3X13.500Y45.900I0.100J0.000
N15070G3X13.600Y46.000I0.000J0.100
N15080G01Z-1.500F30.0
N15090G3X13.500Y46.100I-0.100J0.000F200.0
N15100G3X13.400Y46.000I0.000J-0.100
N15110G3X13.500Y45.900I0.100J0.000
N15120G3X13.600Y46.000I0.000J0.100
N15130G01Z-1.525F30.0
N15140G3X13.500Y46.100I-0.100J0.000F200.0
N15150G3X13.400Y46.000I0.000J-0.100
N15160G3X13.500Y45.900I0.100J0.000
N15170G3X13.600Y46.000I0.000J0.100
N15180G01Z-1.550F30.0
N15190G3X13.500Y46.100I-0.100J0.000F200.0
N15200G3X13.400Y46.000I0.000J-0.100
N15210G3X13.500Y45.900I0.100J0.000
N15220G3X13.600Y46.000I0.000J0.100
N15230G01Z-1.575F30.0
N15240G3X13.500Y46.100I-0.100J0.000F200.0
N15250G3X13.400Y46.000I0.000J-0.100
N15260G3X13.500Y45.900I0.100J0.000
N15270G3X13.600Y46.000I0.000J0.100
N15280G01Z-1.600F30.0
N15290G3X13.500Y46.100I-0.100J0.000F200.0
N15300G3X13.400Y46.000I0.000J-0.100
N15310G3X13.500Y45.900I0.100J0.000
N15320G3X13.600Y46.000I0.000J0.100
N15330G01Z-1.625F30.0
N15340G3X13.500Y46.100I-0.100J0.000F200.0
N15350G3X13.400Y46.000I0.000J-0.100
N15360G3X13.500Y45.900I0.100J0.000
N15370G3X13.600Y46.000I0.000J0.100
N15380G01Z-1.650F30.0
N15390G3X13.500Y46.100I-0.100J0.000F200.0
N15400G3X13.400Y46.000I0.000J-0.100
N15410G3X13.500Y45.900I0.100J0.000
N15420G3X13.600Y46.000I0.000J0.100
N15430G01Z-1.675F30.0
N15440G3X13.500Y46.100I-0.100J0.000F200.0
N15450G3X13.400Y46.000I0.000J-0.100
N15460G3X13.500Y45.900I0.100J0.000
N15470G3X13.600Y46.000I0.000J0.100
N15480G01Z-1.700F30.0
N15490G3X13.500Y46.100I-0.100J0.000F200.0
N15500G3X13.400Y46.000I0.000J-0.100
N15510G3X13.500Y45.900I0.100J0.000
N15520G3X13.600Y46.000I0.000J0.100
N15530G01Z-1.725F30.0
N15540G3X13.500Y46.100I-0.100J0.000F200.0
N15550G3X13.400Y46.000I0.000J-0.100
N15560G3X13.500Y45.900I0.100J0.000
N15570G3X13.600Y46.000I0.000J0.100
N15580G01Z-1.750F30.0
N15590G3X13.500Y46.100I-0.100J0.000F200.0
N15600G3X13.400Y46.000I0.000J-0.100
N15610G3X13.500Y45.900I0.100J0.000
N15620G3X13.600Y46.000I0.000J0.100
N15630G01Z-1.775F30.0
N15640G3X13.500Y46.100I-0.100J0.000F200.0
N15650G3X13.400Y46.000I0.000J-0.100
N15660G3X13.500Y45.900I0.100J0.000
N15670G3X13.600Y46.000I0.000J0.100
N15680G01Z-1.800F30.0
N15690G3X13.500Y46.100I-0.100J0.000F200.0
N15700G3X13.400Y46.000I0.000J-0.100
N15710G3X13.500Y45.900I0.100J0.000
N15720G3X13.600Y46.000I0.000J0.100
N15730G01Z-1.825F30.0
N15740G3X13.500Y46.100I-0.100J0.000F200.0
N15750G3X13.400Y46.000I0.000J-0.100
N15760G3X13.500Y45.900I0.100J0.000
N15770G3X13.600Y46.000I0.000J0.100
N15780G01Z-1.850F30.0
N15790G3X13.500Y46.100I-0.100J0.000F200.0
N15800G3X13.400Y46.000I0.000J-0.100
N15810G3X13.500Y45.900I0.100J0.000
N15820G3X13.600Y46.000I0.000J0.100
N15830G01Z-1.875F30.0
N15840G3X13.500Y46.100I-0.100J0.000F200.0
N15850G3X13.400Y46.000I0.000J-0.100
N15860G3X13.500Y45.900I0.100J0.000
N15870G3X13.600Y46.000I0.000J0.100
N15880G01Z-1.900F30.0
N15890G3X13.500Y46.100I-0.100J0.000F200.0
N15900G3X13.400Y46.000I0.000J-0.100
N15910G3X13.500Y45.900I0.100J0.000
N15920G3X13.600Y46.000I0.000J0.100
N15930G01Z-1.925F30.0
N15940G3X13.500Y46.100I-0.100J0.000F200.0
N15950G3X13.400Y46.000I0.000J-0.100
N15960G3X13.500Y45.900I0.100J0.000
N15970G3X13.600Y46.000I0.000J0.100
N15980G01Z-1.950F30.0
N15990G3X13.500Y46.100I-0.100J0.000F200.0
N16000G3X13.400Y46.000I0.000J-0.100
N16010G3X13.500Y45.900I0.100J0.000
N16020G3X13.600Y46.000I0.000J0.100
N16030G01Z-1.975F30.0
N16040G3X13.500Y46.100I-0.100J0.000F200.0
N16050G3X13.400Y46.000I0.000J-0.100
N16060G3X13.500Y45.900I0.100J0.000
N16070G3X13.600Y46.000I0.000J0.100
N16080G01Z-2.000F30.0
N16090G3X13.500Y46.100I-0.100J0.000F200.0
N16100G3X13.400Y46.000I0.000J-0.100
N16110G3X13.500Y45.900I0.100J0.000
N16120G3X13.600Y46.000I0.000J0.100
N16130G01Z-2.025F30.0
N16140G3X13.500Y46.100I-0.100J0.000F200.0
N16150G3X13.400Y46.000I0.000J-0.100
N16160G3X13.500Y45.900I0.100J0.000
N16170G3X13.600Y46.000I0.000J0.100
N16180G01Z-2.050F30.0
N16190G3X13.500Y46.100I-0.100J0.000F200.0
N16200G3X13.400Y46.000I0.000J-0.100
N16210G3X13.500Y45.900I0.100J0.000
N16220G3X13.600Y46.000I0.000J0.100
N16230G01Z-2.075F30.0
N16240G3X13.500Y46.100I-0.100J0.000F200.0
N16250G3X13.400Y46.000I0.000J-0.100
N16260G3X13.500Y45.900I0.100J0.000
N16270G3X13.600Y46.000I0.000J0.100
N16280G01Z-2.100F30.0
N16290G3X13.500Y46.100I-0.100J0.000F200.0
N16300G3X13.400Y46.000I0.000J-0.100
N16310G3X13.500Y45.900I0.100J0.000
N16320G3X13.600Y46.000I0.000J0.100
N16330G01Z-2.125F30.0
N16340G3X13.500Y46.100I-0.100J0.000F200.0
N16350G3X13.400Y46.000I0.000J-0.100
N16360G3X13.500Y45.900I0.100J0.000
N16370G3X13.600Y46.000I0.000J0.100
N16380G01Z-2.150F30.0
N16390G3X13.500Y46.100I-0.100J0.000F200.0
N16400G3X13.400Y46.000I0.000J-0.100
N16410G3X13.500Y45.900I0.100J0.000
N16420G3X13.600Y46.000I0.000J0.100
N16430G01Z-2.175F30.0
N16440G3X13.500Y46.100I-0.100J0.000F200.0
N16450G3X13.400Y46.000I0.000J-0.100
N16460G3X13.500Y45.900I0.100J0.000
N16470G3X13.600Y46.000I0.000J0.100
N16480G01Z-2.200F30.0
N16490G3X13.500Y46.100I-0.100J0.000F200.0
N16500G3X13.400Y46.000I0.000J-0.100
N16510G3X13.500Y45.900I0.100J0.000
N16520G3X13.600Y46.000I0.000J0.100
N16530G01Z-2.225F30.0
N16540G3X13.500Y46.100I-0.100J0.000F200.0
N16550G3X13.400Y46.000I0.000J-0.100
N16560G3X13.500Y45.900I0.100J0.000
N16570G3X13.600Y46.000I0.000J0.100
N16580G01Z-2.250F30.0
N16590G3X13.500Y46.100I-0.100J0.000F200.0
N16600G3X13.400Y46.000I0.000J-0.100
N16610G3X13.500Y45.900I0.100J0.000
N16620G3X13.600Y46.000I0.000J0.100
N16630G01Z-2.275F30.0
N16640G3X13.500Y46.100I-0.100J0.000F200.0
N16650G3X13.400Y46.000I0.000J-0.100
N16660G3X13.500Y45.900I0.100J0.000
N16670G3X13.600Y46.000I0.000J0.100
N16680G01Z-2.300F30.0
N16690G3X13.500Y46.100I-0.100J0.000F200.0
N16700G3X13.400Y46.000I0.000J-0.100
N16710G3X13.500Y45.900I0.100J0.000
N16720G3X13.600Y46.000I0.000J0.100
N16730G01Z-2.325F30.0
N16740G3X13.500Y46.100I-0.100J0.000F200.0
N16750G3X13.400Y46.000I0.000J-0.100
N16760G3X13.500Y45.900I0.100J0.000
N16770G3X13.600Y46.000I0.000J0.100
N16780G01Z-2.350F30.0
N16790G3X13.500Y46.100I-0.100J0.000F200.0
N16800G3X13.400Y46.000I0.000J-0.100
N16810G3X13.500Y45.900I0.100J0.000
N16820G3X13.600Y46.000I0.000J0.100
N16830G01Z-2.375F30.0
N16840G3X13.500Y46.100I-0.100J0.000F200.0
N16850G3X13.400Y46.000I0.000J-0.100
N16860G3X13.500Y45.900I0.100J0.000
N16870G3X13.600Y46.000I0.000J0.100
N16880G01Z-2.400F30.0
N16890G3X13.500Y46.100I-0.100J0.000F200.0
N16900G3X13.400Y46.000I0.000J-0.100
N16910G3X13.500Y45.900I0.100J0.000
N16920G3X13.600Y46.000I0.000J0.100
N16930G01Z-2.425F30.0
N16940G3X13.500Y46.100I-0.100J0.000F200.0
N16950G3X13.400Y46.000I0.000J-0.100
N16960G3X13.500Y45.900I0.100J0.000
N16970G3X13.600Y46.000I0.000J0.100
N16980G01Z-2.450F30.0
N16990G3X13.500Y46.100I-0.100J0.000F200.0
N17000G3X13.400Y46.000I0.000J-0.100
N17010G3X13.500Y45.900I0.100J0.000
N17020G3X13.600Y46.000I0.000J0.100
N17030G01Z-2.475F30.0
N17040G3X13.500Y46.100I-0.100J0.000F200.0
N17050G3X13.400Y46.000I0.000J-0.100
N17060G3X13.500Y45.900I0.100J0.000
N17070G3X13.600Y46.000I0.000J0.100
N17080G01Z-2.500F30.0
N17090G3X13.500Y46.100I-0.100J0.000F200.0
N17100G3X13.400Y46.000I0.000J-0.100
N17110G3X13.500Y45.900I0.100J0.000
N17120G3X13.600Y46.000I0.000J0.100
N17130G01Z-2.525F30.0
N17140G3X13.500Y46.100I-0.100J0.000F200.0
N17150G3X13.400Y46.000I0.000J-0.100
N17160G3X13.500Y45.900I0.100J0.000
N17170G3X13.600Y46.000I0.000J0.100
N17180G01Z-2.550F30.0
N17190G3X13.500Y46.100I-0.100J0.000F200.0
N17200G3X13.400Y46.000I0.000J-0.100
N17210G3X13.500Y45.900I0.100J0.000
N17220G3X13.600Y46.000I0.000J0.100
N17230G01Z-2.575F30.0
N17240G3X13.500Y46.100I-0.100J0.000F200.0
N17250G3X13.400Y46.000I0.000J-0.100
N17260G3X13.500Y45.900I0.100J0.000
N17270G3X13.600Y46.000I0.000J0.100
N17280G01Z-2.600F30.0
N17290G3X13.500Y46.100I-0.100J0.000F200.0
N17300G3X13.400Y46.000I0.000J-0.100
N17310G3X13.500Y45.900I0.100J0.000
N17320G3X13.600Y46.000I0.000J0.100
N17330G01Z-2.625F30.0
N17340G3X13.500Y46.100I-0.100J0.000F200.0
N17350G3X13.400Y46.000I0.000J-0.100
N17360G3X13.500Y45.900I0.100J0.000
N17370G3X13.600Y46.000I0.000J0.100
N17380G01Z-2.650F30.0
N17390G3X13.500Y46.100I-0.100J0.000F200.0
N17400G3X13.400Y46.000I0.000J-0.100
N17410G3X13.500Y45.900I0.100J0.000
N17420G3X13.600Y46.000I0.000J0.100
N17430G01Z-2.675F30.0
N17440G3X13.500Y46.100I-0.100J0.000F200.0
N17450G3X13.400Y46.000I0.000J-0.100
N17460G3X13.500Y45.900I0.100J0.000
N17470G3X13.600Y46.000I0.000J0.100
N17480G01Z-2.700F30.0
N17490G3X13.500Y46.100I-0.100J0.000F200.0
N17500G3X13.400Y46.000I0.000J-0.100
N17510G3X13.500Y45.900I0.100J0.000
N17520G3X13.600Y46.000I0.000J0.100
N17530G01Z-2.725F30.0
N17540G3X13.500Y46.100I-0.100J0.000F200.0
N17550G3X13.400Y46.000I0.000J-0.100
N17560G3X13.500Y45.900I0.100J0.000
N17570G3X13.600Y46.000I0.000J0.100
N17580G01Z-2.750F30.0
N17590G3X13.500Y46.100I-0.100J0.000F200.0
N17600G3X13.400Y46.000I0.000J-0.100
N17610G3X13.500Y45.900I0.100J0.000
N17620G3X13.600Y46.000I0.000J0.100
N17630G01Z-2.775F30.0
N17640G3X13.500Y46.100I-0.100J0.000F200.0
N17650G3X13.400Y46.000I0.000J-0.100
N17660G3X13.500Y45.900I0.100J0.000
N17670G3X13.600Y46.000I0.000J0.100
N17680G01Z-2.800F30.0
N17690G3X13.500Y46.100I-0.100J0.000F200.0
N17700G3X13.400Y46.000I0.000J-0.100
N17710G3X13.500Y45.900I0.100J0.000
N17720G3X13.600Y46.000I0.000J0.100
N17730G01Z-2.825F30.0
N17740G3X13.500Y46.100I-0.100J0.000F200.0
N17750G3X13.400Y46.000I0.000J-0.100
N17760G3X13.500Y45.900I0.100J0.000
N17770G3X13.600Y46.000I0.000J0.100
N17780G01Z-2.850F30.0
N17790G3X13.500Y46.100I-0.100J0.000F200.0
N17800G3X13.400Y46.000I0.000J-0.100
N17810G3X13.500Y45.900I0.100J0.000
N17820G3X13.600Y46.000I0.000J0.100
N17830G01Z-2.875F30.0
N17840G3X13.500Y46.100I-0.100J0.000F200.0
N17850G3X13.400Y46.000I0.000J-0.100
N17860G3X13.500Y45.900I0.100J0.000
N17870G3X13.600Y46.000I0.000J0.100
N17880G01Z-2.900F30.0
N17890G3X13.500Y46.100I-0.100J0.000F200.0
N17900G3X13.400Y46.000I0.000J-0.100
N17910G3X13.500Y45.900I0.100J0.000
N17920G3X13.600Y46.000I0.000J0.100
N17930G01Z-2.925F30.0
N17940G3X13.500Y46.100I-0.100J0.000F200.0
N17950G3X13.400Y46.000I0.000J-0.100
N17960G3X13.500Y45.900I0.100J0.000
N17970G3X13.600Y46.000I0.000J0.100
N17980G01Z-2.950F30.0
N17990G3X13.500Y46.100I-0.100J0.000F200.0
N18000G3X13.400Y46.000I0.000J-0.100
N18010G3X13.500Y45.900I0.100J0.000
N18020G3X13.600Y46.000I0.000J0.100
N18030G01Z-2.975F30.0
N18040G3X13.500Y46.100I-0.100J0.000F200.0
N18050G3X13.400Y46.000I0.000J-0.100
N18060G3X13.500Y45.900I0.100J0.000
N18070G3X13.600Y46.000I0.000J0.100
N18080G01Z-3.000F30.0
N18090G3X13.500Y46.100I-0.100J0.000F200.0
N18100G3X13.400Y46.000I0.000J-0.100
N18110G3X13.500Y45.900I0.100J0.000
N18120G3X13.600Y46.000I0.000J0.100
N18130G00Z6.000
N18140G00X33.600Y42.715
N18150G01Z-0.025F30.0
N18160G3X33.000Y43.315I-0.600J0.000F200.0
N18170G3X32.400Y42.715I0.000J-0.600
N18180G3X33.000Y42.115I0.600J0.000
N18190G3X33.600Y42.715I0.000J0.600
N18200G01Z-0.050F30.0
N18210G3X33.000Y43.315I-0.600J0.000F200.0
N18220G3X32.400Y42.715I0.000J-0.600
N18230G3X33.000Y42.115I0.600J0.000
N18240G3X33.600Y42.715I0.000J0.600
N18250G01Z-0.075F30.0
N18260G3X33.000Y43.315I-0.600J0.000F200.0
N18270G3X32.400Y42.715I0.000J-0.600
N18280G3X33.000Y42.115I0.600J0.000
N18290G3X33.600Y42.715I0.000J0.600
N18300G01Z-0.100F30.0
N18310G3X33.000Y43.315I-0.600J0.000F200.0
N18320G3X32.400Y42.715I0.000J-0.600
N18330G3X33.000Y42.115I0.600J0.000
N18340G3X33.600Y42.715I0.000J0.600
N18350G01Z-0.125F30.0
N18360G3X33.000Y43.315I-0.600J0.000F200.0
N18370G3X32.400Y42.715I0.000J-0.600
N18380G3X33.000Y42.115I0.600J0.000
N18390G3X33.600Y42.715I0.000J0.600
N18400G01Z-0.150F30.0
N18410G3X33.000Y43.315I-0.600J0.000F200.0
N18420G3X32.400Y42.715I0.000J-0.600
N18430G3X33.000Y42.115I0.600J0.000
N18440G3X33.600Y42.715I0.000J0.600
N18450G01Z-0.175F30.0
N18460G3X33.000Y43.315I-0.600J0.000F200.0
N18470G3X32.400Y42.715I0.000J-0.600
N18480G3X33.000Y42.115I0.600J0.000
N18490G3X33.600Y42.715I0.000J0.600
N18500G01Z-0.200F30.0
N18510G3X33.000Y43.315I-0.600J0.000F200.0
N18520G3X32.400Y42.715I0.000J-0.600
N18530G3X33.000Y42.115I0.600J0.000
N18540G3X33.600Y42.715I0.000J0.600
N18550G01Z-0.225F30.0
N18560G3X33.000Y43.315I-0.600J0.000F200.0
N18570G3X32.400Y42.715I0.000J-0.600
N18580G3X33.000Y42.115I0.600J0.000
N18590G3X33.600Y42.715I0.000J0.600
N18600G01Z-0.250F30.0
N18610G3X33.000Y43.315I-0.600J0.000F200.0
N18620G3X32.400Y42.715I0.000J-0.600
N18630G3X33.000Y42.115I0.600J0.000
N18640G3X33.600Y42.715I0.000J0.600
N18650G01Z-0.275F30.0
N18660G3X33.000Y43.315I-0.600J0.000F200.0
N18670G3X32.400Y42.715I0.000J-0.600
N18680G3X33.000Y42.115I0.600J0.000
N18690G3X33.600Y42.715I0.000J0.600
N18700G01Z-0.300F30.0
N18710G3X33.000Y43.315I-0.600J0.000F200.0
N18720G3X32.400Y42.715I0.000J-0.600
N18730G3X33.000Y42.115I0.600J0.000
N18740G3X33.600Y42.715I0.000J0.600
N18750G01Z-0.325F30.0
N18760G3X33.000Y43.315I-0.600J0.000F200.0
N18770G3X32.400Y42.715I0.000J-0.600
N18780G3X33.000Y42.115I0.600J0.000
N18790G3X33.600Y42.715I0.000J0.600
N18800G01Z-0.350F30.0
N18810G3X33.000Y43.315I-0.600J0.000F200.0
N18820G3X32.400Y42.715I0.000J-0.600
N18830G3X33.000Y42.115I0.600J0.000
N18840G3X33.600Y42.715I0.000J0.600
N18850G01Z-0.375F30.0
N18860G3X33.000Y43.315I-0.600J0.000F200.0
N18870G3X32.400Y42.715I0.000J-0.600
N18880G3X33.000Y42.115I0.600J0.000
N18890G3X33.600Y42.715I0.000J0.600
N18900G01Z-0.400F30.0
N18910G3X33.000Y43.315I-0.600J0.000F200.0
N18920G3X32.400Y42.715I0.000J-0.600
N18930G3X33.000Y42.115I0.600J0.000
N18940G3X33.600Y42.715I0.000J0.600
N18950G01Z-0.425F30.0
N18960G3X33.000Y43.315I-0.600J0.000F200.0
N18970G3X32.400Y42.715I0.000J-0.600
N18980G3X33.000Y42.115I0.600J0.000
N18990G3X33.600Y42.715I0.000J0.600
N19000G01Z-0.450F30.0
N19010G3X33.000Y43.315I-0.600J0.000F200.0
N19020G3X32.400Y42.715I0.000J-0.600
N19030G3X33.000Y42.115I0.600J0.000
N19040G3X33.600Y42.715I0.000J0.600
N19050G01Z-0.475F30.0
N19060G3X33.000Y43.315I-0.600J0.000F200.0
N19070G3X32.400Y42.715I0.000J-0.600
N19080G3X33.000Y42.115I0.600J0.000
N19090G3X33.600Y42.715I0.000J0.600
N19100G01Z-0.500F30.0
N19110G3X33.000Y43.315I-0.600J0.000F200.0
N19120G3X32.400Y42.715I0.000J-0.600
N19130G3X33.000Y42.115I0.600J0.000
N19140G3X33.600Y42.715I0.000J0.600
N19150G01Z-0.525F30.0
N19160G3X33.000Y43.315I-0.600J0.000F200.0
N19170G3X32.400Y42.715I0.000J-0.600
N19180G3X33.000Y42.115I0.600J0.000
N19190G3X33.600Y42.715I0.000J0.600
N19200G01Z-0.550F30.0
N19210G3X33.000Y43.315I-0.600J0.000F200.0
N19220G3X32.400Y42.715I0.000J-0.600
N19230G3X33.000Y42.115I0.600J0.000
N19240G3X33.600Y42.715I0.000J0.600
N19250G01Z-0.575F30.0
N19260G3X33.000Y43.315I-0.600J0.000F200.0
N19270G3X32.400Y42.715I0.000J-0.600
N19280G3X33.000Y42.115I0.600J0.000
N19290G3X33.600Y42.715I0.000J0.600
N19300G01Z-0.600F30.0
N19310G3X33.000Y43.315I-0.600J0.000F200.0
N19320G3X32.400Y42.715I0.000J-0.600
N19330G3X33.000Y42.115I0.600J0.000
N19340G3X33.600Y42.715I0.000J0.600
N19350G01Z-0.625F30.0
N19360G3X33.000Y43.315I-0.600J0.000F200.0
N19370G3X32.400Y42.715I0.000J-0.600
N19380G3X33.000Y42.115I0.600J0.000
N19390G3X33.600Y42.715I0.000J0.600
N19400G01Z-0.650F30.0
N19410G3X33.000Y43.315I-0.600J0.000F200.0
N19420G3X32.400Y42.715I0.000J-0.600
N19430G3X33.000Y42.115I0.600J0.000
N19440G3X33.600Y42.715I0.000J0.600
N19450G01Z-0.675F30.0
N19460G3X33.000Y43.315I-0.600J0.000F200.0
N19470G3X32.400Y42.715I0.000J-0.600
N19480G3X33.000Y42.115I0.600J0.000
N19490G3X33.600Y42.715I0.000J0.600
N19500G01Z-0.700F30.0
N19510G3X33.000Y43.315I-0.600J0.000F200.0
N19520G3X32.400Y42.715I0.000J-0.600
N19530G3X33.000Y42.115I0.600J0.000
N19540G3X33.600Y42.715I0.000J0.600
N19550G01Z-0.725F30.0
N19560G3X33.000Y43.315I-0.600J0.000F200.0
N19570G3X32.400Y42.715I0.000J-0.600
N19580G3X33.000Y42.115I0.600J0.000
N19590G3X33.600Y42.715I0.000J0.600
N19600G01Z-0.750F30.0
N19610G3X33.000Y43.315I-0.600J0.000F200.0
N19620G3X32.400Y42.715I0.000J-0.600
N19630G3X33.000Y42.115I0.600J0.000
N19640G3X33.600Y42.715I0.000J0.600
N19650G01Z-0.775F30.0
N19660G3X33.000Y43.315I-0.600J0.000F200.0
N19670G3X32.400Y42.715I0.000J-0.600
N19680G3X33.000Y42.115I0.600J0.000
N19690G3X33.600Y42.715I0.000J0.600
N19700G01Z-0.800F30.0
N19710G3X33.000Y43.315I-0.600J0.000F200.0
N19720G3X32.400Y42.715I0.000J-0.600
N19730G3X33.000Y42.115I0.600J0.000
N19740G3X33.600Y42.715I0.000J0.600
N19750G01Z-0.825F30.0
N19760G3X33.000Y43.315I-0.600J0.000F200.0
N19770G3X32.400Y42.715I0.000J-0.600
N19780G3X33.000Y42.115I0.600J0.000
N19790G3X33.600Y42.715I0.000J0.600
N19800G01Z-0.850F30.0
N19810G3X33.000Y43.315I-0.600J0.000F200.0
N19820G3X32.400Y42.715I0.000J-0.600
N19830G3X33.000Y42.115I0.600J0.000
N19840G3X33.600Y42.715I0.000J0.600
N19850G01Z-0.875F30.0
N19860G3X33.000Y43.315I-0.600J0.000F200.0
N19870G3X32.400Y42.715I0.000J-0.600
N19880G3X33.000Y42.115I0.600J0.000
N19890G3X33.600Y42.715I0.000J0.600
N19900G01Z-0.900F30.0
N19910G3X33.000Y43.315I-0.600J0.000F200.0
N19920G3X32.400Y42.715I0.000J-0.600
N19930G3X33.000Y42.115I0.600J0.000
N19940G3X33.600Y42.715I0.000J0.600
N19950G01Z-0.925F30.0
N19960G3X33.000Y43.315I-0.600J0.000F200.0
N19970G3X32.400Y42.715I0.000J-0.600
N19980G3X33.000Y42.115I0.600J0.000
N19990G3X33.600Y42.715I0.000J0.600
N20000G01Z-0.950F30.0
N20010G3X33.000Y43.315I-0.600J0.000F200.0
N20020G3X32.400Y42.715I0.000J-0.600
N20030G3X33.000Y42.115I0.600J0.000
N20040G3X33.600Y42.715I0.000J0.600
N20050G01Z-0.975F30.0
N20060G3X33.000Y43.315I-0.600J0.000F200.0
N20070G3X32.400Y42.715I0.000J-0.600
N20080G3X33.000Y42.115I0.600J0.000
N20090G3X33.600Y42.715I0.000J0.600
N20100G01Z-1.000F30.0
N20110G3X33.000Y43.315I-0.600J0.000F200.0
N20120G3X32.400Y42.715I0.000J-0.600
N20130G3X33.000Y42.115I0.600J0.000
N20140G3X33.600Y42.715I0.000J0.600
N20150G01Z-1.025F30.0
N20160G3X33.000Y43.315I-0.600J0.000F200.0
N20170G3X32.400Y42.715I0.000J-0.600
N20180G3X33.000Y42.115I0.600J0.000
N20190G3X33.600Y42.715I0.000J0.600
N20200G01Z-1.050F30.0
N20210G3X33.000Y43.315I-0.600J0.000F200.0
N20220G3X32.400Y42.715I0.000J-0.600
N20230G3X33.000Y42.115I0.600J0.000
N20240G3X33.600Y42.715I0.000J0.600
N20250G01Z-1.075F30.0
N20260G3X33.000Y43.315I-0.600J0.000F200.0
N20270G3X32.400Y42.715I0.000J-0.600
N20280G3X33.000Y42.115I0.600J0.000
N20290G3X33.600Y42.715I0.000J0.600
N20300G01Z-1.100F30.0
N20310G3X33.000Y43.315I-0.600J0.000F200.0
N20320G3X32.400Y42.715I0.000J-0.600
N20330G3X33.000Y42.115I0.600J0.000
N20340G3X33.600Y42.715I0.000J0.600
N20350G01Z-1.125F30.0
N20360G3X33.000Y43.315I-0.600J0.000F200.0
N20370G3X32.400Y42.715I0.000J-0.600
N20380G3X33.000Y42.115I0.600J0.000
N20390G3X33.600Y42.715I0.000J0.600
N20400G01Z-1.150F30.0
N20410G3X33.000Y43.315I-0.600J0.000F200.0
N20420G3X32.400Y42.715I0.000J-0.600
N20430G3X33.000Y42.115I0.600J0.000
N20440G3X33.600Y42.715I0.000J0.600
N20450G01Z-1.175F30.0
N20460G3X33.000Y43.315I-0.600J0.000F200.0
N20470G3X32.400Y42.715I0.000J-0.600
N20480G3X33.000Y42.115I0.600J0.000
N20490G3X33.600Y42.715I0.000J0.600
N20500G01Z-1.200F30.0
N20510G3X33.000Y43.315I-0.600J0.000F200.0
N20520G3X32.400Y42.715I0.000J-0.600
N20530G3X33.000Y42.115I0.600J0.000
N20540G3X33.600Y42.715I0.000J0.600
N20550G01Z-1.225F30.0
N20560G3X33.000Y43.315I-0.600J0.000F200.0
N20570G3X32.400Y42.715I0.000J-0.600
N20580G3X33.000Y42.115I0.600J0.000
N20590G3X33.600Y42.715I0.000J0.600
N20600G01Z-1.250F30.0
N20610G3X33.000Y43.315I-0.600J0.000F200.0
N20620G3X32.400Y42.715I0.000J-0.600
N20630G3X33.000Y42.115I0.600J0.000
N20640G3X33.600Y42.715I0.000J0.600
N20650G01Z-1.275F30.0
N20660G3X33.000Y43.315I-0.600J0.000F200.0
N20670G3X32.400Y42.715I0.000J-0.600
N20680G3X33.000Y42.115I0.600J0.000
N20690G3X33.600Y42.715I0.000J0.600
N20700G01Z-1.300F30.0
N20710G3X33.000Y43.315I-0.600J0.000F200.0
N20720G3X32.400Y42.715I0.000J-0.600
N20730G3X33.000Y42.115I0.600J0.000
N20740G3X33.600Y42.715I0.000J0.600
N20750G01Z-1.325F30.0
N20760G3X33.000Y43.315I-0.600J0.000F200.0
N20770G3X32.400Y42.715I0.000J-0.600
N20780G3X33.000Y42.115I0.600J0.000
N20790G3X33.600Y42.715I0.000J0.600
N20800G01Z-1.350F30.0
N20810G3X33.000Y43.315I-0.600J0.000F200.0
N20820G3X32.400Y42.715I0.000J-0.600
N20830G3X33.000Y42.115I0.600J0.000
N20840G3X33.600Y42.715I0.000J0.600
N20850G01Z-1.375F30.0
N20860G3X33.000Y43.315I-0.600J0.000F200.0
N20870G3X32.400Y42.715I0.000J-0.600
N20880G3X33.000Y42.115I0.600J0.000
N20890G3X33.600Y42.715I0.000J0.600
N20900G01Z-1.400F30.0
N20910G3X33.000Y43.315I-0.600J0.000F200.0
N20920G3X32.400Y42.715I0.000J-0.600
N20930G3X33.000Y42.115I0.600J0.000
N20940G3X33.600Y42.715I0.000J0.600
N20950G01Z-1.425F30.0
N20960G3X33.000Y43.315I-0.600J0.000F200.0
N20970G3X32.400Y42.715I0.000J-0.600
N20980G3X33.000Y42.115I0.600J0.000
N20990G3X33.600Y42.715I0.000J0.600
N21000G01Z-1.450F30.0
N21010G3X33.000Y43.315I-0.600J0.000F200.0
N21020G3X32.400Y42.715I0.000J-0.600
N21030G3X33.000Y42.115I0.600J0.000
N21040G3X33.600Y42.715I0.000J0.600
N21050G01Z-1.475F30.0
N21060G3X33.000Y43.315I-0.600J0.000F200.0
N21070G3X32.400Y42.715I0.000J-0.600
N21080G3X33.000Y42.115I0.600J0.000
N21090G3X33.600Y42.715I0.000J0.600
N21100G01Z-1.500F30.0
N21110G3X33.000Y43.315I-0.600J0.000F200.0
N21120G3X32.400Y42.715I0.000J-0.600
N21130G3X33.000Y42.115I0.600J0.000
N21140G3X33.600Y42.715I0.000J0.600
N21150G01Z-1.525F30.0
N21160G3X33.000Y43.315I-0.600J0.000F200.0
N21170G3X32.400Y42.715I0.000J-0.600
N21180G3X33.000Y42.115I0.600J0.000
N21190G3X33.600Y42.715I0.000J0.600
N21200G01Z-1.550F30.0
N21210G3X33.000Y43.315I-0.600J0.000F200.0
N21220G3X32.400Y42.715I0.000J-0.600
N21230G3X33.000Y42.115I0.600J0.000
N21240G3X33.600Y42.715I0.000J0.600
N21250G01Z-1.575F30.0
N21260G3X33.000Y43.315I-0.600J0.000F200.0
N21270G3X32.400Y42.715I0.000J-0.600
N21280G3X33.000Y42.115I0.600J0.000
N21290G3X33.600Y42.715I0.000J0.600
N21300G01Z-1.600F30.0
N21310G3X33.000Y43.315I-0.600J0.000F200.0
N21320G3X32.400Y42.715I0.000J-0.600
N21330G3X33.000Y42.115I0.600J0.000
N21340G3X33.600Y42.715I0.000J0.600
N21350G01Z-1.625F30.0
N21360G3X33.000Y43.315I-0.600J0.000F200.0
N21370G3X32.400Y42.715I0.000J-0.600
N21380G3X33.000Y42.115I0.600J0.000
N21390G3X33.600Y42.715I0.000J0.600
N21400G01Z-1.650F30.0
N21410G3X33.000Y43.315I-0.600J0.000F200.0
N21420G3X32.400Y42.715I0.000J-0.600
N21430G3X33.000Y42.115I0.600J0.000
N21440G3X33.600Y42.715I0.000J0.600
N21450G01Z-1.675F30.0
N21460G3X33.000Y43.315I-0.600J0.000F200.0
N21470G3X32.400Y42.715I0.000J-0.600
N21480G3X33.000Y42.115I0.600J0.000
N21490G3X33.600Y42.715I0.000J0.600
N21500G01Z-1.700F30.0
N21510G3X33.000Y43.315I-0.600J0.000F200.0
N21520G3X32.400Y42.715I0.000J-0.600
N21530G3X33.000Y42.115I0.600J0.000
N21540G3X33.600Y42.715I0.000J0.600
N21550G01Z-1.725F30.0
N21560G3X33.000Y43.315I-0.600J0.000F200.0
N21570G3X32.400Y42.715I0.000J-0.600
N21580G3X33.000Y42.115I0.600J0.000
N21590G3X33.600Y42.715I0.000J0.600
N21600G01Z-1.750F30.0
N21610G3X33.000Y43.315I-0.600J0.000F200.0
N21620G3X32.400Y42.715I0.000J-0.600
N21630G3X33.000Y42.115I0.600J0.000
N21640G3X33.600Y42.715I0.000J0.600
N21650G01Z-1.775F30.0
N21660G3X33.000Y43.315I-0.600J0.000F200.0
N21670G3X32.400Y42.715I0.000J-0.600
N21680G3X33.000Y42.115I0.600J0.000
N21690G3X33.600Y42.715I0.000J0.600
N21700G01Z-1.800F30.0
N21710G3X33.000Y43.315I-0.600J0.000F200.0
N21720G3X32.400Y42.715I0.000J-0.600
N21730G3X33.000Y42.115I0.600J0.000
N21740G3X33.600Y42.715I0.000J0.600
N21750G01Z-1.825F30.0
N21760G3X33.000Y43.315I-0.600J0.000F200.0
N21770G3X32.400Y42.715I0.000J-0.600
N21780G3X33.000Y42.115I0.600J0.000
N21790G3X33.600Y42.715I0.000J0.600
N21800G01Z-1.850F30.0
N21810G3X33.000Y43.315I-0.600J0.000F200.0
N21820G3X32.400Y42.715I0.000J-0.600
N21830G3X33.000Y42.115I0.600J0.000
N21840G3X33.600Y42.715I0.000J0.600
N21850G01Z-1.875F30.0
N21860G3X33.000Y43.315I-0.600J0.000F200.0
N21870G3X32.400Y42.715I0.000J-0.600
N21880G3X33.000Y42.115I0.600J0.000
N21890G3X33.600Y42.715I0.000J0.600
N21900G01Z-1.900F30.0
N21910G3X33.000Y43.315I-0.600J0.000F200.0
N21920G3X32.400Y42.715I0.000J-0.600
N21930G3X33.000Y42.115I0.600J0.000
N21940G3X33.600Y42.715I0.000J0.600
N21950G01Z-1.925F30.0
N21960G3X33.000Y43.315I-0.600J0.000F200.0
N21970G3X32.400Y42.715I0.000J-0.600
N21980G3X33.000Y42.115I0.600J0.000
N21990G3X33.600Y42.715I0.000J0.600
N22000G01Z-1.950F30.0
N22010G3X33.000Y43.315I-0.600J0.000F200.0
N22020G3X32.400Y42.715I0.000J-0.600
N22030G3X33.000Y42.115I0.600J0.000
N22040G3X33.600Y42.715I0.000J0.600
N22050G01Z-1.975F30.0
N22060G3X33.000Y43.315I-0.600J0.000F200.0
N22070G3X32.400Y42.715I0.000J-0.600
N22080G3X33.000Y42.115I0.600J0.000
N22090G3X33.600Y42.715I0.000J0.600
N22100G01Z-2.000F30.0
N22110G3X33.000Y43.315I-0.600J0.000F200.0
N22120G3X32.400Y42.715I0.000J-0.600
N22130G3X33.000Y42.115I0.600J0.000
N22140G3X33.600Y42.715I0.000J0.600
N22150G01Z-2.025F30.0
N22160G3X33.000Y43.315I-0.600J0.000F200.0
N22170G3X32.400Y42.715I0.000J-0.600
N22180G3X33.000Y42.115I0.600J0.000
N22190G3X33.600Y42.715I0.000J0.600
N22200G01Z-2.050F30.0
N22210G3X33.000Y43.315I-0.600J0.000F200.0
N22220G3X32.400Y42.715I0.000J-0.600
N22230G3X33.000Y42.115I0.600J0.000
N22240G3X33.600Y42.715I0.000J0.600
N22250G01Z-2.075F30.0
N22260G3X33.000Y43.315I-0.600J0.000F200.0
N22270G3X32.400Y42.715I0.000J-0.600
N22280G3X33.000Y42.115I0.600J0.000
N22290G3X33.600Y42.715I0.000J0.600
N22300G01Z-2.100F30.0
N22310G3X33.000Y43.315I-0.600J0.000F200.0
N22320G3X32.400Y42.715I0.000J-0.600
N22330G3X33.000Y42.115I0.600J0.000
N22340G3X33.600Y42.715I0.000J0.600
N22350G01Z-2.125F30.0
N22360G3X33.000Y43.315I-0.600J0.000F200.0
N22370G3X32.400Y42.715I0.000J-0.600
N22380G3X33.000Y42.115I0.600J0.000
N22390G3X33.600Y42.715I0.000J0.600
N22400G01Z-2.150F30.0
N22410G3X33.000Y43.315I-0.600J0.000F200.0
N22420G3X32.400Y42.715I0.000J-0.600
N22430G3X33.000Y42.115I0.600J0.000
N22440G3X33.600Y42.715I0.000J0.600
N22450G01Z-2.175F30.0
N22460G3X33.000Y43.315I-0.600J0.000F200.0
N22470G3X32.400Y42.715I0.000J-0.600
N22480G3X33.000Y42.115I0.600J0.000
N22490G3X33.600Y42.715I0.000J0.600
N22500G01Z-2.200F30.0
N22510G3X33.000Y43.315I-0.600J0.000F200.0
N22520G3X32.400Y42.715I0.000J-0.600
N22530G3X33.000Y42.115I0.600J0.000
N22540G3X33.600Y42.715I0.000J0.600
N22550G01Z-2.225F30.0
N22560G3X33.000Y43.315I-0.600J0.000F200.0
N22570G3X32.400Y42.715I0.000J-0.600
N22580G3X33.000Y42.115I0.600J0.000
N22590G3X33.600Y42.715I0.000J0.600
N22600G01Z-2.250F30.0
N22610G3X33.000Y43.315I-0.600J0.000F200.0
N22620G3X32.400Y42.715I0.000J-0.600
N22630G3X33.000Y42.115I0.600J0.000
N22640G3X33.600Y42.715I0.000J0.600
N22650G01Z-2.275F30.0
N22660G3X33.000Y43.315I-0.600J0.000F200.0
N22670G3X32.400Y42.715I0.000J-0.600
N22680G3X33.000Y42.115I0.600J0.000
N22690G3X33.600Y42.715I0.000J0.600
N22700G01Z-2.300F30.0
N22710G3X33.000Y43.315I-0.600J0.000F200.0
N22720G3X32.400Y42.715I0.000J-0.600
N22730G3X33.000Y42.115I0.600J0.000
N22740G3X33.600Y42.715I0.000J0.600
N22750G01Z-2.325F30.0
N22760G3X33.000Y43.315I-0.600J0.000F200.0
N22770G3X32.400Y42.715I0.000J-0.600
N22780G3X33.000Y42.115I0.600J0.000
N22790G3X33.600Y42.715I0.000J0.600
N22800G01Z-2.350F30.0
N22810G3X33.000Y43.315I-0.600J0.000F200.0
N22820G3X32.400Y42.715I0.000J-0.600
N22830G3X33.000Y42.115I0.600J0.000
N22840G3X33.600Y42.715I0.000J0.600
N22850G01Z-2.375F30.0
N22860G3X33.000Y43.315I-0.600J0.000F200.0
N22870G3X32.400Y42.715I0.000J-0.600
N22880G3X33.000Y42.115I0.600J0.000
N22890G3X33.600Y42.715I0.000J0.600
N22900G01Z-2.400F30.0
N22910G3X33.000Y43.315I-0.600J0.000F200.0
N22920G3X32.400Y42.715I0.000J-0.600
N22930G3X33.000Y42.115I0.600J0.000
N22940G3X33.600Y42.715I0.000J0.600
N22950G01Z-2.425F30.0
N22960G3X33.000Y43.315I-0.600J0.000F200.0
N22970G3X32.400Y42.715I0.000J-0.600
N22980G3X33.000Y42.115I0.600J0.000
N22990G3X33.600Y42.715I0.000J0.600
N23000G01Z-2.450F30.0
N23010G3X33.000Y43.315I-0.600J0.000F200.0
N23020G3X32.400Y42.715I0.000J-0.600
N23030G3X33.000Y42.115I0.600J0.000
N23040G3X33.600Y42.715I0.000J0.600
N23050G01Z-2.475F30.0
N23060G3X33.000Y43.315I-0.600J0.000F200.0
N23070G3X32.400Y42.715I0.000J-0.600
N23080G3X33.000Y42.115I0.600J0.000
N23090G3X33.600Y42.715I0.000J0.600
N23100G01Z-2.500F30.0
N23110G3X33.000Y43.315I-0.600J0.000F200.0
N23120G3X32.400Y42.715I0.000J-0.600
N23130G3X33.000Y42.115I0.600J0.000
N23140G3X33.600Y42.715I0.000J0.600
N23150G01Z-2.525F30.0
N23160G3X33.000Y43.315I-0.600J0.000F200.0
N23170G3X32.400Y42.715I0.000J-0.600
N23180G3X33.000Y42.115I0.600J0.000
N23190G3X33.600Y42.715I0.000J0.600
N23200G01Z-2.550F30.0
N23210G3X33.000Y43.315I-0.600J0.000F200.0
N23220G3X32.400Y42.715I0.000J-0.600
N23230G3X33.000Y42.115I0.600J0.000
N23240G3X33.600Y42.715I0.000J0.600
N23250G01Z-2.575F30.0
N23260G3X33.000Y43.315I-0.600J0.000F200.0
N23270G3X32.400Y42.715I0.000J-0.600
N23280G3X33.000Y42.115I0.600J0.000
N23290G3X33.600Y42.715I0.000J0.600
N23300G01Z-2.600F30.0
N23310G3X33.000Y43.315I-0.600J0.000F200.0
N23320G3X32.400Y42.715I0.000J-0.600
N23330G3X33.000Y42.115I0.600J0.000
N23340G3X33.600Y42.715I0.000J0.600
N23350G01Z-2.625F30.0
N23360G3X33.000Y43.315I-0.600J0.000F200.0
N23370G3X32.400Y42.715I0.000J-0.600
N23380G3X33.000Y42.115I0.600J0.000
N23390G3X33.600Y42.715I0.000J0.600
N23400G01Z-2.650F30.0
N23410G3X33.000Y43.315I-0.600J0.000F200.0
N23420G3X32.400Y42.715I0.000J-0.600
N23430G3X33.000Y42.115I0.600J0.000
N23440G3X33.600Y42.715I0.000J0.600
N23450G01Z-2.675F30.0
N23460G3X33.000Y43.315I-0.600J0.000F200.0
N23470G3X32.400Y42.715I0.000J-0.600
N23480G3X33.000Y42.115I0.600J0.000
N23490G3X33.600Y42.715I0.000J0.600
N23500G01Z-2.700F30.0
N23510G3X33.000Y43.315I-0.600J0.000F200.0
N23520G3X32.400Y42.715I0.000J-0.600
N23530G3X33.000Y42.115I0.600J0.000
N23540G3X33.600Y42.715I0.000J0.600
N23550G01Z-2.725F30.0
N23560G3X33.000Y43.315I-0.600J0.000F200.0
N23570G3X32.400Y42.715I0.000J-0.600
N23580G3X33.000Y42.115I0.600J0.000
N23590G3X33.600Y42.715I0.000J0.600
N23600G01Z-2.750F30.0
N23610G3X33.000Y43.315I-0.600J0.000F200.0
N23620G3X32.400Y42.715I0.000J-0.600
N23630G3X33.000Y42.115I0.600J0.000
N23640G3X33.600Y42.715I0.000J0.600
N23650G01Z-2.775F30.0
N23660G3X33.000Y43.315I-0.600J0.000F200.0
N23670G3X32.400Y42.715I0.000J-0.600
N23680G3X33.000Y42.115I0.600J0.000
N23690G3X33.600Y42.715I0.000J0.600
N23700G01Z-2.800F30.0
N23710G3X33.000Y43.315I-0.600J0.000F200.0
N23720G3X32.400Y42.715I0.000J-0.600
N23730G3X33.000Y42.115I0.600J0.000
N23740G3X33.600Y42.715I0.000J0.600
N23750G01Z-2.825F30.0
N23760G3X33.000Y43.315I-0.600J0.000F200.0
N23770G3X32.400Y42.715I0.000J-0.600
N23780G3X33.000Y42.115I0.600J0.000
N23790G3X33.600Y42.715I0.000J0.600
N23800G01Z-2.850F30.0
N23810G3X33.000Y43.315I-0.600J0.000F200.0
N23820G3X32.400Y42.715I0.000J-0.600
N23830G3X33.000Y42.115I0.600J0.000
N23840G3X33.600Y42.715I0.000J0.600
N23850G01Z-2.875F30.0
N23860G3X33.000Y43.315I-0.600J0.000F200.0
N23870G3X32.400Y42.715I0.000J-0.600
N23880G3X33.000Y42.115I0.600J0.000
N23890G3X33.600Y42.715I0.000J0.600
N23900G01Z-2.900F30.0
N23910G3X33.000Y43.315I-0.600J0.000F200.0
N23920G3X32.400Y42.715I0.000J-0.600
N23930G3X33.000Y42.115I0.600J0.000
N23940G3X33.600Y42.715I0.000J0.600
N23950G01Z-2.925F30.0
N23960G3X33.000Y43.315I-0.600J0.000F200.0
N23970G3X32.400Y42.715I0.000J-0.600
N23980G3X33.000Y42.115I0.600J0.000
N23990G3X33.600Y42.715I0.000J0.600
N24000G01Z-2.950F30.0
N24010G3X33.000Y43.315I-0.600J0.000F200.0
N24020G3X32.400Y42.715I0.000J-0.600
N24030G3X33.000Y42.115I0.600J0.000
N24040G3X33.600Y42.715I0.000J0.600
N24050G01Z-2.975F30.0
N24060G3X33.000Y43.315I-0.600J0.000F200.0
N24070G3X32.400Y42.715I0.000J-0.600
N24080G3X33.000Y42.115I0.600J0.000
N24090G3X33.600Y42.715I0.000J0.600
N24100G01Z-3.000F30.0
N24110G3X33.000Y43.315I-0.600J0.000F200.0
N24120G3X32.400Y42.715I0.000J-0.600
N24130G3X33.000Y42.115I0.600J0.000
N24140G3X33.600Y42.715I0.000J0.600
N24150G00Z6.000
N24160G00X34.226Y18.626
N24170G01Z-0.025F30.0
N24180G3X33.626Y19.226I-0.600J0.000F200.0
N24190G3X33.026Y18.626I0.000J-0.600
N24200G3X33.626Y18.026I0.600J0.000
N24210G3X34.226Y18.626I0.000J0.600
N24220G01Z-0.050F30.0
N24230G3X33.626Y19.226I-0.600J0.000F200.0
N24240G3X33.026Y18.626I0.000J-0.600
N24250G3X33.626Y18.026I0.600J0.000
N24260G3X34.226Y18.626I0.000J0.600
N24270G01Z-0.075F30.0
N24280G3X33.626Y19.226I-0.600J0.000F200.0
N24290G3X33.026Y18.626I0.000J-0.600
N24300G3X33.626Y18.026I0.600J0.000
N24310G3X34.226Y18.626I0.000J0.600
N24320G01Z-0.100F30.0
N24330G3X33.626Y19.226I-0.600J0.000F200.0
N24340G3X33.026Y18.626I0.000J-0.600
N24350G3X33.626Y18.026I0.600J0.000
N24360G3X34.226Y18.626I0.000J0.600
N24370G01Z-0.125F30.0
N24380G3X33.626Y19.226I-0.600J0.000F200.0
N24390G3X33.026Y18.626I0.000J-0.600
N24400G3X33.626Y18.026I0.600J0.000
N24410G3X34.226Y18.626I0.000J0.600
N24420G01Z-0.150F30.0
N24430G3X33.626Y19.226I-0.600J0.000F200.0
N24440G3X33.026Y18.626I0.000J-0.600
N24450G3X33.626Y18.026I0.600J0.000
N24460G3X34.226Y18.626I0.000J0.600
N24470G01Z-0.175F30.0
N24480G3X33.626Y19.226I-0.600J0.000F200.0
N24490G3X33.026Y18.626I0.000J-0.600
N24500G3X33.626Y18.026I0.600J0.000
N24510G3X34.226Y18.626I0.000J0.600
N24520G01Z-0.200F30.0
N24530G3X33.626Y19.226I-0.600J0.000F200.0
N24540G3X33.026Y18.626I0.000J-0.600
N24550G3X33.626Y18.026I0.600J0.000
N24560G3X34.226Y18.626I0.000J0.600
N24570G01Z-0.225F30.0
N24580G3X33.626Y19.226I-0.600J0.000F200.0
N24590G3X33.026Y18.626I0.000J-0.600
N24600G3X33.626Y18.026I0.600J0.000
N24610G3X34.226Y18.626I0.000J0.600
N24620G01Z-0.250F30.0
N24630G3X33.626Y19.226I-0.600J0.000F200.0
N24640G3X33.026Y18.626I0.000J-0.600
N24650G3X33.626Y18.026I0.600J0.000
N24660G3X34.226Y18.626I0.000J0.600
N24670G01Z-0.275F30.0
N24680G3X33.626Y19.226I-0.600J0.000F200.0
N24690G3X33.026Y18.626I0.000J-0.600
N24700G3X33.626Y18.026I0.600J0.000
N24710G3X34.226Y18.626I0.000J0.600
N24720G01Z-0.300F30.0
N24730G3X33.626Y19.226I-0.600J0.000F200.0
N24740G3X33.026Y18.626I0.000J-0.600
N24750G3X33.626Y18.026I0.600J0.000
N24760G3X34.226Y18.626I0.000J0.600
N24770G01Z-0.325F30.0
N24780G3X33.626Y19.226I-0.600J0.000F200.0
N24790G3X33.026Y18.626I0.000J-0.600
N24800G3X33.626Y18.026I0.600J0.000
N24810G3X34.226Y18.626I0.000J0.600
N24820G01Z-0.350F30.0
N24830G3X33.626Y19.226I-0.600J0.000F200.0
N24840G3X33.026Y18.626I0.000J-0.600
N24850G3X33.626Y18.026I0.600J0.000
N24860G3X34.226Y18.626I0.000J0.600
N24870G01Z-0.375F30.0
N24880G3X33.626Y19.226I-0.600J0.000F200.0
N24890G3X33.026Y18.626I0.000J-0.600
N24900G3X33.626Y18.026I0.600J0.000
N24910G3X34.226Y18.626I0.000J0.600
N24920G01Z-0.400F30.0
N24930G3X33.626Y19.226I-0.600J0.000F200.0
N24940G3X33.026Y18.626I0.000J-0.600
N24950G3X33.626Y18.026I0.600J0.000
N24960G3X34.226Y18.626I0.000J0.600
N24970G01Z-0.425F30.0
N24980G3X33.626Y19.226I-0.600J0.000F200.0
N24990G3X33.026Y18.626I0.000J-0.600
N25000G3X33.626Y18.026I0.600J0.000
N25010G3X34.226Y18.626I0.000J0.600
N25020G01Z-0.450F30.0
N25030G3X33.626Y19.226I-0.600J0.000F200.0
N25040G3X33.026Y18.626I0.000J-0.600
N25050G3X33.626Y18.026I0.600J0.000
N25060G3X34.226Y18.626I0.000J0.600
N25070G01Z-0.475F30.0
N25080G3X33.626Y19.226I-0.600J0.000F200.0
N25090G3X33.026Y18.626I0.000J-0.600
N25100G3X33.626Y18.026I0.600J0.000
N25110G3X34.226Y18.626I0.000J0.600
N25120G01Z-0.500F30.0
N25130G3X33.626Y19.226I-0.600J0.000F200.0
N25140G3X33.026Y18.626I0.000J-0.600
N25150G3X33.626Y18.026I0.600J0.000
N25160G3X34.226Y18.626I0.000J0.600
N25170G01Z-0.525F30.0
N25180G3X33.626Y19.226I-0.600J0.000F200.0
N25190G3X33.026Y18.626I0.000J-0.600
N25200G3X33.626Y18.026I0.600J0.000
N25210G3X34.226Y18.626I0.000J0.600
N25220G01Z-0.550F30.0
N25230G3X33.626Y19.226I-0.600J0.000F200.0
N25240G3X33.026Y18.626I0.000J-0.600
N25250G3X33.626Y18.026I0.600J0.000
N25260G3X34.226Y18.626I0.000J0.600
N25270G01Z-0.575F30.0
N25280G3X33.626Y19.226I-0.600J0.000F200.0
N25290G3X33.026Y18.626I0.000J-0.600
N25300G3X33.626Y18.026I0.600J0.000
N25310G3X34.226Y18.626I0.000J0.600
N25320G01Z-0.600F30.0
N25330G3X33.626Y19.226I-0.600J0.000F200.0
N25340G3X33.026Y18.626I0.000J-0.600
N25350G3X33.626Y18.026I0.600J0.000
N25360G3X34.226Y18.626I0.000J0.600
N25370G01Z-0.625F30.0
N25380G3X33.626Y19.226I-0.600J0.000F200.0
N25390G3X33.026Y18.626I0.000J-0.600
N25400G3X33.626Y18.026I0.600J0.000
N25410G3X34.226Y18.626I0.000J0.600
N25420G01Z-0.650F30.0
N25430G3X33.626Y19.226I-0.600J0.000F200.0
N25440G3X33.026Y18.626I0.000J-0.600
N25450G3X33.626Y18.026I0.600J0.000
N25460G3X34.226Y18.626I0.000J0.600
N25470G01Z-0.675F30.0
N25480G3X33.626Y19.226I-0.600J0.000F200.0
N25490G3X33.026Y18.626I0.000J-0.600
N25500G3X33.626Y18.026I0.600J0.000
N25510G3X34.226Y18.626I0.000J0.600
N25520G01Z-0.700F30.0
N25530G3X33.626Y19.226I-0.600J0.000F200.0
N25540G3X33.026Y18.626I0.000J-0.600
N25550G3X33.626Y18.026I0.600J0.000
N25560G3X34.226Y18.626I0.000J0.600
N25570G01Z-0.725F30.0
N25580G3X33.626Y19.226I-0.600J0.000F200.0
N25590G3X33.026Y18.626I0.000J-0.600
N25600G3X33.626Y18.026I0.600J0.000
N25610G3X34.226Y18.626I0.000J0.600
N25620G01Z-0.750F30.0
N25630G3X33.626Y19.226I-0.600J0.000F200.0
N25640G3X33.026Y18.626I0.000J-0.600
N25650G3X33.626Y18.026I0.600J0.000
N25660G3X34.226Y18.626I0.000J0.600
N25670G01Z-0.775F30.0
N25680G3X33.626Y19.226I-0.600J0.000F200.0
N25690G3X33.026Y18.626I0.000J-0.600
N25700G3X33.626Y18.026I0.600J0.000
N25710G3X34.226Y18.626I0.000J0.600
N25720G01Z-0.800F30.0
N25730G3X33.626Y19.226I-0.600J0.000F200.0
N25740G3X33.026Y18.626I0.000J-0.600
N25750G3X33.626Y18.026I0.600J0.000
N25760G3X34.226Y18.626I0.000J0.600
N25770G01Z-0.825F30.0
N25780G3X33.626Y19.226I-0.600J0.000F200.0
N25790G3X33.026Y18.626I0.000J-0.600
N25800G3X33.626Y18.026I0.600J0.000
N25810G3X34.226Y18.626I0.000J0.600
N25820G01Z-0.850F30.0
N25830G3X33.626Y19.226I-0.600J0.000F200.0
N25840G3X33.026Y18.626I0.000J-0.600
N25850G3X33.626Y18.026I0.600J0.000
N25860G3X34.226Y18.626I0.000J0.600
N25870G01Z-0.875F30.0
N25880G3X33.626Y19.226I-0.600J0.000F200.0
N25890G3X33.026Y18.626I0.000J-0.600
N25900G3X33.626Y18.026I0.600J0.000
N25910G3X34.226Y18.626I0.000J0.600
N25920G01Z-0.900F30.0
N25930G3X33.626Y19.226I-0.600J0.000F200.0
N25940G3X33.026Y18.626I0.000J-0.600
N25950G3X33.626Y18.026I0.600J0.000
N25960G3X34.226Y18.626I0.000J0.600
N25970G01Z-0.925F30.0
N25980G3X33.626Y19.226I-0.600J0.000F200.0
N25990G3X33.026Y18.626I0.000J-0.600
N26000G3X33.626Y18.026I0.600J0.000
N26010G3X34.226Y18.626I0.000J0.600
N26020G01Z-0.950F30.0
N26030G3X33.626Y19.226I-0.600J0.000F200.0
N26040G3X33.026Y18.626I0.000J-0.600
N26050G3X33.626Y18.026I0.600J0.000
N26060G3X34.226Y18.626I0.000J0.600
N26070G01Z-0.975F30.0
N26080G3X33.626Y19.226I-0.600J0.000F200.0
N26090G3X33.026Y18.626I0.000J-0.600
N26100G3X33.626Y18.026I0.600J0.000
N26110G3X34.226Y18.626I0.000J0.600
N26120G01Z-1.000F30.0
N26130G3X33.626Y19.226I-0.600J0.000F200.0
N26140G3X33.026Y18.626I0.000J-0.600
N26150G3X33.626Y18.026I0.600J0.000
N26160G3X34.226Y18.626I0.000J0.600
N26170G01Z-1.025F30.0
N26180G3X33.626Y19.226I-0.600J0.000F200.0
N26190G3X33.026Y18.626I0.000J-0.600
N26200G3X33.626Y18.026I0.600J0.000
N26210G3X34.226Y18.626I0.000J0.600
N26220G01Z-1.050F30.0
N26230G3X33.626Y19.226I-0.600J0.000F200.0
N26240G3X33.026Y18.626I0.000J-0.600
N26250G3X33.626Y18.026I0.600J0.000
N26260G3X34.226Y18.626I0.000J0.600
N26270G01Z-1.075F30.0
N26280G3X33.626Y19.226I-0.600J0.000F200.0
N26290G3X33.026Y18.626I0.000J-0.600
N26300G3X33.626Y18.026I0.600J0.000
N26310G3X34.226Y18.626I0.000J0.600
N26320G01Z-1.100F30.0
N26330G3X33.626Y19.226I-0.600J0.000F200.0
N26340G3X33.026Y18.626I0.000J-0.600
N26350G3X33.626Y18.026I0.600J0.000
N26360G3X34.226Y18.626I0.000J0.600
N26370G01Z-1.125F30.0
N26380G3X33.626Y19.226I-0.600J0.000F200.0
N26390G3X33.026Y18.626I0.000J-0.600
N26400G3X33.626Y18.026I0.600J0.000
N26410G3X34.226Y18.626I0.000J0.600
N26420G01Z-1.150F30.0
N26430G3X33.626Y19.226I-0.600J0.000F200.0
N26440G3X33.026Y18.626I0.000J-0.600
N26450G3X33.626Y18.026I0.600J0.000
N26460G3X34.226Y18.626I0.000J0.600
N26470G01Z-1.175F30.0
N26480G3X33.626Y19.226I-0.600J0.000F200.0
N26490G3X33.026Y18.626I0.000J-0.600
N26500G3X33.626Y18.026I0.600J0.000
N26510G3X34.226Y18.626I0.000J0.600
N26520G01Z-1.200F30.0
N26530G3X33.626Y19.226I-0.600J0.000F200.0
N26540G3X33.026Y18.626I0.000J-0.600
N26550G3X33.626Y18.026I0.600J0.000
N26560G3X34.226Y18.626I0.000J0.600
N26570G01Z-1.225F30.0
N26580G3X33.626Y19.226I-0.600J0.000F200.0
N26590G3X33.026Y18.626I0.000J-0.600
N26600G3X33.626Y18.026I0.600J0.000
N26610G3X34.226Y18.626I0.000J0.600
N26620G01Z-1.250F30.0
N26630G3X33.626Y19.226I-0.600J0.000F200.0
N26640G3X33.026Y18.626I0.000J-0.600
N26650G3X33.626Y18.026I0.600J0.000
N26660G3X34.226Y18.626I0.000J0.600
N26670G01Z-1.275F30.0
N26680G3X33.626Y19.226I-0.600J0.000F200.0
N26690G3X33.026Y18.626I0.000J-0.600
N26700G3X33.626Y18.026I0.600J0.000
N26710G3X34.226Y18.626I0.000J0.600
N26720G01Z-1.300F30.0
N26730G3X33.626Y19.226I-0.600J0.000F200.0
N26740G3X33.026Y18.626I0.000J-0.600
N26750G3X33.626Y18.026I0.600J0.000
N26760G3X34.226Y18.626I0.000J0.600
N26770G01Z-1.325F30.0
N26780G3X33.626Y19.226I-0.600J0.000F200.0
N26790G3X33.026Y18.626I0.000J-0.600
N26800G3X33.626Y18.026I0.600J0.000
N26810G3X34.226Y18.626I0.000J0.600
N26820G01Z-1.350F30.0
N26830G3X33.626Y19.226I-0.600J0.000F200.0
N26840G3X33.026Y18.626I0.000J-0.600
N26850G3X33.626Y18.026I0.600J0.000
N26860G3X34.226Y18.626I0.000J0.600
N26870G01Z-1.375F30.0
N26880G3X33.626Y19.226I-0.600J0.000F200.0
N26890G3X33.026Y18.626I0.000J-0.600
N26900G3X33.626Y18.026I0.600J0.000
N26910G3X34.226Y18.626I0.000J0.600
N26920G01Z-1.400F30.0
N26930G3X33.626Y19.226I-0.600J0.000F200.0
N26940G3X33.026Y18.626I0.000J-0.600
N26950G3X33.626Y18.026I0.600J0.000
N26960G3X34.226Y18.626I0.000J0.600
N26970G01Z-1.425F30.0
N26980G3X33.626Y19.226I-0.600J0.000F200.0
N26990G3X33.026Y18.626I0.000J-0.600
N27000G3X33.626Y18.026I0.600J0.000
N27010G3X34.226Y18.626I0.000J0.600
N27020G01Z-1.450F30.0
N27030G3X33.626Y19.226I-0.600J0.000F200.0
N27040G3X33.026Y18.626I0.000J-0.600
N27050G3X33.626Y18.026I0.600J0.000
N27060G3X34.226Y18.626I0.000J0.600
N27070G01Z-1.475F30.0
N27080G3X33.626Y19.226I-0.600J0.000F200.0
N27090G3X33.026Y18.626I0.000J-0.600
N27100G3X33.626Y18.026I0.600J0.000
N27110G3X34.226Y18.626I0.000J0.600
N27120G01Z-1.500F30.0
N27130G3X33.626Y19.226I-0.600J0.000F200.0
N27140G3X33.026Y18.626I0.000J-0.600
N27150G3X33.626Y18.026I0.600J0.000
N27160G3X34.226Y18.626I0.000J0.600
N27170G01Z-1.525F30.0
N27180G3X33.626Y19.226I-0.600J0.000F200.0
N27190G3X33.026Y18.626I0.000J-0.600
N27200G3X33.626Y18.026I0.600J0.000
N27210G3X34.226Y18.626I0.000J0.600
N27220G01Z-1.550F30.0
N27230G3X33.626Y19.226I-0.600J0.000F200.0
N27240G3X33.026Y18.626I0.000J-0.600
N27250G3X33.626Y18.026I0.600J0.000
N27260G3X34.226Y18.626I0.000J0.600
N27270G01Z-1.575F30.0
N27280G3X33.626Y19.226I-0.600J0.000F200.0
N27290G3X33.026Y18.626I0.000J-0.600
N27300G3X33.626Y18.026I0.600J0.000
N27310G3X34.226Y18.626I0.000J0.600
N27320G01Z-1.600F30.0
N27330G3X33.626Y19.226I-0.600J0.000F200.0
N27340G3X33.026Y18.626I0.000J-0.600
N27350G3X33.626Y18.026I0.600J0.000
N27360G3X34.226Y18.626I0.000J0.600
N27370G01Z-1.625F30.0
N27380G3X33.626Y19.226I-0.600J0.000F200.0
N27390G3X33.026Y18.626I0.000J-0.600
N27400G3X33.626Y18.026I0.600J0.000
N27410G3X34.226Y18.626I0.000J0.600
N27420G01Z-1.650F30.0
N27430G3X33.626Y19.226I-0.600J0.000F200.0
N27440G3X33.026Y18.626I0.000J-0.600
N27450G3X33.626Y18.026I0.600J0.000
N27460G3X34.226Y18.626I0.000J0.600
N27470G01Z-1.675F30.0
N27480G3X33.626Y19.226I-0.600J0.000F200.0
N27490G3X33.026Y18.626I0.000J-0.600
N27500G3X33.626Y18.026I0.600J0.000
N27510G3X34.226Y18.626I0.000J0.600
N27520G01Z-1.700F30.0
N27530G3X33.626Y19.226I-0.600J0.000F200.0
N27540G3X33.026Y18.626I0.000J-0.600
N27550G3X33.626Y18.026I0.600J0.000
N27560G3X34.226Y18.626I0.000J0.600
N27570G01Z-1.725F30.0
N27580G3X33.626Y19.226I-0.600J0.000F200.0
N27590G3X33.026Y18.626I0.000J-0.600
N27600G3X33.626Y18.026I0.600J0.000
N27610G3X34.226Y18.626I0.000J0.600
N27620G01Z-1.750F30.0
N27630G3X33.626Y19.226I-0.600J0.000F200.0
N27640G3X33.026Y18.626I0.000J-0.600
N27650G3X33.626Y18.026I0.600J0.000
N27660G3X34.226Y18.626I0.000J0.600
N27670G01Z-1.775F30.0
N27680G3X33.626Y19.226I-0.600J0.000F200.0
N27690G3X33.026Y18.626I0.000J-0.600
N27700G3X33.626Y18.026I0.600J0.000
N27710G3X34.226Y18.626I0.000J0.600
N27720G01Z-1.800F30.0
N27730G3X33.626Y19.226I-0.600J0.000F200.0
N27740G3X33.026Y18.626I0.000J-0.600
N27750G3X33.626Y18.026I0.600J0.000
N27760G3X34.226Y18.626I0.000J0.600
N27770G01Z-1.825F30.0
N27780G3X33.626Y19.226I-0.600J0.000F200.0
N27790G3X33.026Y18.626I0.000J-0.600
N27800G3X33.626Y18.026I0.600J0.000
N27810G3X34.226Y18.626I0.000J0.600
N27820G01Z-1.850F30.0
N27830G3X33.626Y19.226I-0.600J0.000F200.0
N27840G3X33.026Y18.626I0.000J-0.600
N27850G3X33.626Y18.026I0.600J0.000
N27860G3X34.226Y18.626I0.000J0.600
N27870G01Z-1.875F30.0
N27880G3X33.626Y19.226I-0.600J0.000F200.0
N27890G3X33.026Y18.626I0.000J-0.600
N27900G3X33.626Y18.026I0.600J0.000
N27910G3X34.226Y18.626I0.000J0.600
N27920G01Z-1.900F30.0
N27930G3X33.626Y19.226I-0.600J0.000F200.0
N27940G3X33.026Y18.626I0.000J-0.600
N27950G3X33.626Y18.026I0.600J0.000
N27960G3X34.226Y18.626I0.000J0.600
N27970G01Z-1.925F30.0
N27980G3X33.626Y19.226I-0.600J0.000F200.0
N27990G3X33.026Y18.626I0.000J-0.600
N28000G3X33.626Y18.026I0.600J0.000
N28010G3X34.226Y18.626I0.000J0.600
N28020G01Z-1.950F30.0
N28030G3X33.626Y19.226I-0.600J0.000F200.0
N28040G3X33.026Y18.626I0.000J-0.600
N28050G3X33.626Y18.026I0.600J0.000
N28060G3X34.226Y18.626I0.000J0.600
N28070G01Z-1.975F30.0
N28080G3X33.626Y19.226I-0.600J0.000F200.0
N28090G3X33.026Y18.626I0.000J-0.600
N28100G3X33.626Y18.026I0.600J0.000
N28110G3X34.226Y18.626I0.000J0.600
N28120G01Z-2.000F30.0
N28130G3X33.626Y19.226I-0.600J0.000F200.0
N28140G3X33.026Y18.626I0.000J-0.600
N28150G3X33.626Y18.026I0.600J0.000
N28160G3X34.226Y18.626I0.000J0.600
N28170G01Z-2.025F30.0
N28180G3X33.626Y19.226I-0.600J0.000F200.0
N28190G3X33.026Y18.626I0.000J-0.600
N28200G3X33.626Y18.026I0.600J0.000
N28210G3X34.226Y18.626I0.000J0.600
N28220G01Z-2.050F30.0
N28230G3X33.626Y19.226I-0.600J0.000F200.0
N28240G3X33.026Y18.626I0.000J-0.600
N28250G3X33.626Y18.026I0.600J0.000
N28260G3X34.226Y18.626I0.000J0.600
N28270G01Z-2.075F30.0
N28280G3X33.626Y19.226I-0.600J0.000F200.0
N28290G3X33.026Y18.626I0.000J-0.600
N28300G3X33.626Y18.026I0.600J0.000
N28310G3X34.226Y18.626I0.000J0.600
N28320G01Z-2.100F30.0
N28330G3X33.626Y19.226I-0.600J0.000F200.0
N28340G3X33.026Y18.626I0.000J-0.600
N28350G3X33.626Y18.026I0.600J0.000
N28360G3X34.226Y18.626I0.000J0.600
N28370G01Z-2.125F30.0
N28380G3X33.626Y19.226I-0.600J0.000F200.0
N28390G3X33.026Y18.626I0.000J-0.600
N28400G3X33.626Y18.026I0.600J0.000
N28410G3X34.226Y18.626I0.000J0.600
N28420G01Z-2.150F30.0
N28430G3X33.626Y19.226I-0.600J0.000F200.0
N28440G3X33.026Y18.626I0.000J-0.600
N28450G3X33.626Y18.026I0.600J0.000
N28460G3X34.226Y18.626I0.000J0.600
N28470G01Z-2.175F30.0
N28480G3X33.626Y19.226I-0.600J0.000F200.0
N28490G3X33.026Y18.626I0.000J-0.600
N28500G3X33.626Y18.026I0.600J0.000
N28510G3X34.226Y18.626I0.000J0.600
N28520G01Z-2.200F30.0
N28530G3X33.626Y19.226I-0.600J0.000F200.0
N28540G3X33.026Y18.626I0.000J-0.600
N28550G3X33.626Y18.026I0.600J0.000
N28560G3X34.226Y18.626I0.000J0.600
N28570G01Z-2.225F30.0
N28580G3X33.626Y19.226I-0.600J0.000F200.0
N28590G3X33.026Y18.626I0.000J-0.600
N28600G3X33.626Y18.026I0.600J0.000
N28610G3X34.226Y18.626I0.000J0.600
N28620G01Z-2.250F30.0
N28630G3X33.626Y19.226I-0.600J0.000F200.0
N28640G3X33.026Y18.626I0.000J-0.600
N28650G3X33.626Y18.026I0.600J0.000
N28660G3X34.226Y18.626I0.000J0.600
N28670G01Z-2.275F30.0
N28680G3X33.626Y19.226I-0.600J0.000F200.0
N28690G3X33.026Y18.626I0.000J-0.600
N28700G3X33.626Y18.026I0.600J0.000
N28710G3X34.226Y18.626I0.000J0.600
N28720G01Z-2.300F30.0
N28730G3X33.626Y19.226I-0.600J0.000F200.0
N28740G3X33.026Y18.626I0.000J-0.600
N28750G3X33.626Y18.026I0.600J0.000
N28760G3X34.226Y18.626I0.000J0.600
N28770G01Z-2.325F30.0
N28780G3X33.626Y19.226I-0.600J0.000F200.0
N28790G3X33.026Y18.626I0.000J-0.600
N28800G3X33.626Y18.026I0.600J0.000
N28810G3X34.226Y18.626I0.000J0.600
N28820G01Z-2.350F30.0
N28830G3X33.626Y19.226I-0.600J0.000F200.0
N28840G3X33.026Y18.626I0.000J-0.600
N28850G3X33.626Y18.026I0.600J0.000
N28860G3X34.226Y18.626I0.000J0.600
N28870G01Z-2.375F30.0
N28880G3X33.626Y19.226I-0.600J0.000F200.0
N28890G3X33.026Y18.626I0.000J-0.600
N28900G3X33.626Y18.026I0.600J0.000
N28910G3X34.226Y18.626I0.000J0.600
N28920G01Z-2.400F30.0
N28930G3X33.626Y19.226I-0.600J0.000F200.0
N28940G3X33.026Y18.626I0.000J-0.600
N28950G3X33.626Y18.026I0.600J0.000
N28960G3X34.226Y18.626I0.000J0.600
N28970G01Z-2.425F30.0
N28980G3X33.626Y19.226I-0.600J0.000F200.0
N28990G3X33.026Y18.626I0.000J-0.600
N29000G3X33.626Y18.026I0.600J0.000
N29010G3X34.226Y18.626I0.000J0.600
N29020G01Z-2.450F30.0
N29030G3X33.626Y19.226I-0.600J0.000F200.0
N29040G3X33.026Y18.626I0.000J-0.600
N29050G3X33.626Y18.026I0.600J0.000
N29060G3X34.226Y18.626I0.000J0.600
N29070G01Z-2.475F30.0
N29080G3X33.626Y19.226I-0.600J0.000F200.0
N29090G3X33.026Y18.626I0.000J-0.600
N29100G3X33.626Y18.026I0.600J0.000
N29110G3X34.226Y18.626I0.000J0.600
N29120G01Z-2.500F30.0
N29130G3X33.626Y19.226I-0.600J0.000F200.0
N29140G3X33.026Y18.626I0.000J-0.600
N29150G3X33.626Y18.026I0.600J0.000
N29160G3X34.226Y18.626I0.000J0.600
N29170G01Z-2.525F30.0
N29180G3X33.626Y19.226I-0.600J0.000F200.0
N29190G3X33.026Y18.626I0.000J-0.600
N29200G3X33.626Y18.026I0.600J0.000
N29210G3X34.226Y18.626I0.000J0.600
N29220G01Z-2.550F30.0
N29230G3X33.626Y19.226I-0.600J0.000F200.0
N29240G3X33.026Y18.626I0.000J-0.600
N29250G3X33.626Y18.026I0.600J0.000
N29260G3X34.226Y18.626I0.000J0.600
N29270G01Z-2.575F30.0
N29280G3X33.626Y19.226I-0.600J0.000F200.0
N29290G3X33.026Y18.626I0.000J-0.600
N29300G3X33.626Y18.026I0.600J0.000
N29310G3X34.226Y18.626I0.000J0.600
N29320G01Z-2.600F30.0
N29330G3X33.626Y19.226I-0.600J0.000F200.0
N29340G3X33.026Y18.626I0.000J-0.600
N29350G3X33.626Y18.026I0.600J0.000
N29360G3X34.226Y18.626I0.000J0.600
N29370G01Z-2.625F30.0
N29380G3X33.626Y19.226I-0.600J0.000F200.0
N29390G3X33.026Y18.626I0.000J-0.600
N29400G3X33.626Y18.026I0.600J0.000
N29410G3X34.226Y18.626I0.000J0.600
N29420G01Z-2.650F30.0
N29430G3X33.626Y19.226I-0.600J0.000F200.0
N29440G3X33.026Y18.626I0.000J-0.600
N29450G3X33.626Y18.026I0.600J0.000
N29460G3X34.226Y18.626I0.000J0.600
N29470G01Z-2.675F30.0
N29480G3X33.626Y19.226I-0.600J0.000F200.0
N29490G3X33.026Y18.626I0.000J-0.600
N29500G3X33.626Y18.026I0.600J0.000
N29510G3X34.226Y18.626I0.000J0.600
N29520G01Z-2.700F30.0
N29530G3X33.626Y19.226I-0.600J0.000F200.0
N29540G3X33.026Y18.626I0.000J-0.600
N29550G3X33.626Y18.026I0.600J0.000
N29560G3X34.226Y18.626I0.000J0.600
N29570G01Z-2.725F30.0
N29580G3X33.626Y19.226I-0.600J0.000F200.0
N29590G3X33.026Y18.626I0.000J-0.600
N29600G3X33.626Y18.026I0.600J0.000
N29610G3X34.226Y18.626I0.000J0.600
N29620G01Z-2.750F30.0
N29630G3X33.626Y19.226I-0.600J0.000F200.0
N29640G3X33.026Y18.626I0.000J-0.600
N29650G3X33.626Y18.026I0.600J0.000
N29660G3X34.226Y18.626I0.000J0.600
N29670G01Z-2.775F30.0
N29680G3X33.626Y19.226I-0.600J0.000F200.0
N29690G3X33.026Y18.626I0.000J-0.600
N29700G3X33.626Y18.026I0.600J0.000
N29710G3X34.226Y18.626I0.000J0.600
N29720G01Z-2.800F30.0
N29730G3X33.626Y19.226I-0.600J0.000F200.0
N29740G3X33.026Y18.626I0.000J-0.600
N29750G3X33.626Y18.026I0.600J0.000
N29760G3X34.226Y18.626I0.000J0.600
N29770G01Z-2.825F30.0
N29780G3X33.626Y19.226I-0.600J0.000F200.0
N29790G3X33.026Y18.626I0.000J-0.600
N29800G3X33.626Y18.026I0.600J0.000
