( Profile 1 )
( USBCNC Postprocessor )
N20G00G21G17G90G40G49
N30G80
N40G00G43Z20.000H5
N50S8000M03
N60G94
N70X0.000Y0.000F600.0
N80G00X36.126Y18.626Z6.000
N90G01Z-0.050F30.0
N100G3X35.626Y19.126I-0.500J0.000F600.0
N110G3X35.126Y18.626I0.000J-0.500
N120G3X35.626Y18.126I0.500J0.000
N130G3X36.126Y18.626I0.000J0.500
N140G01Z-0.100F30.0
N150G3X35.626Y19.126I-0.500J0.000F600.0
N160G3X35.126Y18.626I0.000J-0.500
N170G3X35.626Y18.126I0.500J0.000
N180G3X36.126Y18.626I0.000J0.500
N190G01Z-0.150F30.0
N200G3X35.626Y19.126I-0.500J0.000F600.0
N210G3X35.126Y18.626I0.000J-0.500
N220G3X35.626Y18.126I0.500J0.000
N230G3X36.126Y18.626I0.000J0.500
N240G01Z-0.200F30.0
N250G3X35.626Y19.126I-0.500J0.000F600.0
N260G3X35.126Y18.626I0.000J-0.500
N270G3X35.626Y18.126I0.500J0.000
N280G3X36.126Y18.626I0.000J0.500
N290G01Z-0.250F30.0
N300G3X35.626Y19.126I-0.500J0.000F600.0
N310G3X35.126Y18.626I0.000J-0.500
N320G3X35.626Y18.126I0.500J0.000
N330G3X36.126Y18.626I0.000J0.500
N340G01Z-0.300F30.0
N350G3X35.626Y19.126I-0.500J0.000F600.0
N360G3X35.126Y18.626I0.000J-0.500
N370G3X35.626Y18.126I0.500J0.000
N380G3X36.126Y18.626I0.000J0.500
N390G01Z-0.350F30.0
N400G3X35.626Y19.126I-0.500J0.000F600.0
N410G3X35.126Y18.626I0.000J-0.500
N420G3X35.626Y18.126I0.500J0.000
N430G3X36.126Y18.626I0.000J0.500
N440G01Z-0.400F30.0
N450G3X35.626Y19.126I-0.500J0.000F600.0
N460G3X35.126Y18.626I0.000J-0.500
N470G3X35.626Y18.126I0.500J0.000
N480G3X36.126Y18.626I0.000J0.500
N490G01Z-0.450F30.0
N500G3X35.626Y19.126I-0.500J0.000F600.0
N510G3X35.126Y18.626I0.000J-0.500
N520G3X35.626Y18.126I0.500J0.000
N530G3X36.126Y18.626I0.000J0.500
N540G01Z-0.500F30.0
N550G3X35.626Y19.126I-0.500J0.000F600.0
N560G3X35.126Y18.626I0.000J-0.500
N570G3X35.626Y18.126I0.500J0.000
N580G3X36.126Y18.626I0.000J0.500
N590G01Z-0.550F30.0
N600G3X35.626Y19.126I-0.500J0.000F600.0
N610G3X35.126Y18.626I0.000J-0.500
N620G3X35.626Y18.126I0.500J0.000
N630G3X36.126Y18.626I0.000J0.500
N640G01Z-0.600F30.0
N650G3X35.626Y19.126I-0.500J0.000F600.0
N660G3X35.126Y18.626I0.000J-0.500
N670G3X35.626Y18.126I0.500J0.000
N680G3X36.126Y18.626I0.000J0.500
N690G01Z-0.650F30.0
N700G3X35.626Y19.126I-0.500J0.000F600.0
N710G3X35.126Y18.626I0.000J-0.500
N720G3X35.626Y18.126I0.500J0.000
N730G3X36.126Y18.626I0.000J0.500
N740G01Z-0.700F30.0
N750G3X35.626Y19.126I-0.500J0.000F600.0
N760G3X35.126Y18.626I0.000J-0.500
N770G3X35.626Y18.126I0.500J0.000
N780G3X36.126Y18.626I0.000J0.500
N790G01Z-0.750F30.0
N800G3X35.626Y19.126I-0.500J0.000F600.0
N810G3X35.126Y18.626I0.000J-0.500
N820G3X35.626Y18.126I0.500J0.000
N830G3X36.126Y18.626I0.000J0.500
N840G01Z-0.800F30.0
N850G3X35.626Y19.126I-0.500J0.000F600.0
N860G3X35.126Y18.626I0.000J-0.500
N870G3X35.626Y18.126I0.500J0.000
N880G3X36.126Y18.626I0.000J0.500
N890G01Z-0.850F30.0
N900G3X35.626Y19.126I-0.500J0.000F600.0
N910G3X35.126Y18.626I0.000J-0.500
N920G3X35.626Y18.126I0.500J0.000
N930G3X36.126Y18.626I0.000J0.500
N940G01Z-0.900F30.0
N950G3X35.626Y19.126I-0.500J0.000F600.0
N960G3X35.126Y18.626I0.000J-0.500
N970G3X35.626Y18.126I0.500J0.000
N980G3X36.126Y18.626I0.000J0.500
N990G01Z-0.950F30.0
N1000G3X35.626Y19.126I-0.500J0.000F600.0
N1010G3X35.126Y18.626I0.000J-0.500
N1020G3X35.626Y18.126I0.500J0.000
N1030G3X36.126Y18.626I0.000J0.500
N1040G01Z-1.000F30.0
N1050G3X35.626Y19.126I-0.500J0.000F600.0
N1060G3X35.126Y18.626I0.000J-0.500
N1070G3X35.626Y18.126I0.500J0.000
N1080G3X36.126Y18.626I0.000J0.500
N1090G01Z-1.050F30.0
N1100G3X35.626Y19.126I-0.500J0.000F600.0
N1110G3X35.126Y18.626I0.000J-0.500
N1120G3X35.626Y18.126I0.500J0.000
N1130G3X36.126Y18.626I0.000J0.500
N1140G01Z-1.100F30.0
N1150G3X35.626Y19.126I-0.500J0.000F600.0
N1160G3X35.126Y18.626I0.000J-0.500
N1170G3X35.626Y18.126I0.500J0.000
N1180G3X36.126Y18.626I0.000J0.500
N1190G01Z-1.150F30.0
N1200G3X35.626Y19.126I-0.500J0.000F600.0
N1210G3X35.126Y18.626I0.000J-0.500
N1220G3X35.626Y18.126I0.500J0.000
N1230G3X36.126Y18.626I0.000J0.500
N1240G01Z-1.200F30.0
N1250G3X35.626Y19.126I-0.500J0.000F600.0
N1260G3X35.126Y18.626I0.000J-0.500
N1270G3X35.626Y18.126I0.500J0.000
N1280G3X36.126Y18.626I0.000J0.500
N1290G01Z-1.250F30.0
N1300G3X35.626Y19.126I-0.500J0.000F600.0
N1310G3X35.126Y18.626I0.000J-0.500
N1320G3X35.626Y18.126I0.500J0.000
N1330G3X36.126Y18.626I0.000J0.500
N1340G01Z-1.300F30.0
N1350G3X35.626Y19.126I-0.500J0.000F600.0
N1360G3X35.126Y18.626I0.000J-0.500
N1370G3X35.626Y18.126I0.500J0.000
N1380G3X36.126Y18.626I0.000J0.500
N1390G01Z-1.350F30.0
N1400G3X35.626Y19.126I-0.500J0.000F600.0
N1410G3X35.126Y18.626I0.000J-0.500
N1420G3X35.626Y18.126I0.500J0.000
N1430G3X36.126Y18.626I0.000J0.500
N1440G01Z-1.400F30.0
N1450G3X35.626Y19.126I-0.500J0.000F600.0
N1460G3X35.126Y18.626I0.000J-0.500
N1470G3X35.626Y18.126I0.500J0.000
N1480G3X36.126Y18.626I0.000J0.500
N1490G01Z-1.450F30.0
N1500G3X35.626Y19.126I-0.500J0.000F600.0
N1510G3X35.126Y18.626I0.000J-0.500
N1520G3X35.626Y18.126I0.500J0.000
N1530G3X36.126Y18.626I0.000J0.500
N1540G01Z-1.500F30.0
N1550G3X35.626Y19.126I-0.500J0.000F600.0
N1560G3X35.126Y18.626I0.000J-0.500
N1570G3X35.626Y18.126I0.500J0.000
N1580G3X36.126Y18.626I0.000J0.500
N1590G01Z-1.550F30.0
N1600G3X35.626Y19.126I-0.500J0.000F600.0
N1610G3X35.126Y18.626I0.000J-0.500
N1620G3X35.626Y18.126I0.500J0.000
N1630G3X36.126Y18.626I0.000J0.500
N1640G01Z-1.600F30.0
N1650G3X35.626Y19.126I-0.500J0.000F600.0
N1660G3X35.126Y18.626I0.000J-0.500
N1670G3X35.626Y18.126I0.500J0.000
N1680G3X36.126Y18.626I0.000J0.500
N1690G01Z-1.650F30.0
N1700G3X35.626Y19.126I-0.500J0.000F600.0
N1710G3X35.126Y18.626I0.000J-0.500
N1720G3X35.626Y18.126I0.500J0.000
N1730G3X36.126Y18.626I0.000J0.500
N1740G01Z-1.700F30.0
N1750G3X35.626Y19.126I-0.500J0.000F600.0
N1760G3X35.126Y18.626I0.000J-0.500
N1770G3X35.626Y18.126I0.500J0.000
N1780G3X36.126Y18.626I0.000J0.500
N1790G01Z-1.750F30.0
N1800G3X35.626Y19.126I-0.500J0.000F600.0
N1810G3X35.126Y18.626I0.000J-0.500
N1820G3X35.626Y18.126I0.500J0.000
N1830G3X36.126Y18.626I0.000J0.500
N1840G01Z-1.800F30.0
N1850G3X35.626Y19.126I-0.500J0.000F600.0
N1860G3X35.126Y18.626I0.000J-0.500
N1870G3X35.626Y18.126I0.500J0.000
N1880G3X36.126Y18.626I0.000J0.500
N1890G01Z-1.850F30.0
N1900G3X35.626Y19.126I-0.500J0.000F600.0
N1910G3X35.126Y18.626I0.000J-0.500
N1920G3X35.626Y18.126I0.500J0.000
N1930G3X36.126Y18.626I0.000J0.500
N1940G01Z-1.900F30.0
N1950G3X35.626Y19.126I-0.500J0.000F600.0
N1960G3X35.126Y18.626I0.000J-0.500
N1970G3X35.626Y18.126I0.500J0.000
N1980G3X36.126Y18.626I0.000J0.500
N1990G01Z-1.950F30.0
N2000G3X35.626Y19.126I-0.500J0.000F600.0
N2010G3X35.126Y18.626I0.000J-0.500
N2020G3X35.626Y18.126I0.500J0.000
N2030G3X36.126Y18.626I0.000J0.500
N2040G01Z-2.000F30.0
N2050G3X35.626Y19.126I-0.500J0.000F600.0
N2060G3X35.126Y18.626I0.000J-0.500
N2070G3X35.626Y18.126I0.500J0.000
N2080G3X36.126Y18.626I0.000J0.500
N2090G01Z-2.050F30.0
N2100G3X35.626Y19.126I-0.500J0.000F600.0
N2110G3X35.126Y18.626I0.000J-0.500
N2120G3X35.626Y18.126I0.500J0.000
N2130G3X36.126Y18.626I0.000J0.500
N2140G01Z-2.100F30.0
N2150G3X35.626Y19.126I-0.500J0.000F600.0
N2160G3X35.126Y18.626I0.000J-0.500
N2170G3X35.626Y18.126I0.500J0.000
N2180G3X36.126Y18.626I0.000J0.500
N2190G01Z-2.150F30.0
N2200G3X35.626Y19.126I-0.500J0.000F600.0
N2210G3X35.126Y18.626I0.000J-0.500
N2220G3X35.626Y18.126I0.500J0.000
N2230G3X36.126Y18.626I0.000J0.500
N2240G01Z-2.200F30.0
N2250G3X35.626Y19.126I-0.500J0.000F600.0
N2260G3X35.126Y18.626I0.000J-0.500
N2270G3X35.626Y18.126I0.500J0.000
N2280G3X36.126Y18.626I0.000J0.500
N2290G01Z-2.250F30.0
N2300G3X35.626Y19.126I-0.500J0.000F600.0
N2310G3X35.126Y18.626I0.000J-0.500
N2320G3X35.626Y18.126I0.500J0.000
N2330G3X36.126Y18.626I0.000J0.500
N2340G01Z-2.300F30.0
N2350G3X35.626Y19.126I-0.500J0.000F600.0
N2360G3X35.126Y18.626I0.000J-0.500
N2370G3X35.626Y18.126I0.500J0.000
N2380G3X36.126Y18.626I0.000J0.500
N2390G01Z-2.350F30.0
N2400G3X35.626Y19.126I-0.500J0.000F600.0
N2410G3X35.126Y18.626I0.000J-0.500
N2420G3X35.626Y18.126I0.500J0.000
N2430G3X36.126Y18.626I0.000J0.500
N2440G01Z-2.400F30.0
N2450G3X35.626Y19.126I-0.500J0.000F600.0
N2460G3X35.126Y18.626I0.000J-0.500
N2470G3X35.626Y18.126I0.500J0.000
N2480G3X36.126Y18.626I0.000J0.500
N2490G01Z-2.450F30.0
N2500G3X35.626Y19.126I-0.500J0.000F600.0
N2510G3X35.126Y18.626I0.000J-0.500
N2520G3X35.626Y18.126I0.500J0.000
N2530G3X36.126Y18.626I0.000J0.500
N2540G01Z-2.500F30.0
N2550G3X35.626Y19.126I-0.500J0.000F600.0
N2560G3X35.126Y18.626I0.000J-0.500
N2570G3X35.626Y18.126I0.500J0.000
N2580G3X36.126Y18.626I0.000J0.500
N2590G01Z-2.550F30.0
N2600G3X35.626Y19.126I-0.500J0.000F600.0
N2610G3X35.126Y18.626I0.000J-0.500
N2620G3X35.626Y18.126I0.500J0.000
N2630G3X36.126Y18.626I0.000J0.500
N2640G01Z-2.600F30.0
N2650G3X35.626Y19.126I-0.500J0.000F600.0
N2660G3X35.126Y18.626I0.000J-0.500
N2670G3X35.626Y18.126I0.500J0.000
N2680G3X36.126Y18.626I0.000J0.500
N2690G01Z-2.650F30.0
N2700G3X35.626Y19.126I-0.500J0.000F600.0
N2710G3X35.126Y18.626I0.000J-0.500
N2720G3X35.626Y18.126I0.500J0.000
N2730G3X36.126Y18.626I0.000J0.500
N2740G01Z-2.700F30.0
N2750G3X35.626Y19.126I-0.500J0.000F600.0
N2760G3X35.126Y18.626I0.000J-0.500
N2770G3X35.626Y18.126I0.500J0.000
N2780G3X36.126Y18.626I0.000J0.500
N2790G01Z-2.750F30.0
N2800G3X35.626Y19.126I-0.500J0.000F600.0
N2810G3X35.126Y18.626I0.000J-0.500
N2820G3X35.626Y18.126I0.500J0.000
N2830G3X36.126Y18.626I0.000J0.500
N2840G01Z-2.800F30.0
N2850G3X35.626Y19.126I-0.500J0.000F600.0
N2860G3X35.126Y18.626I0.000J-0.500
N2870G3X35.626Y18.126I0.500J0.000
N2880G3X36.126Y18.626I0.000J0.500
N2890G01Z-2.850F30.0
N2900G3X35.626Y19.126I-0.500J0.000F600.0
N2910G3X35.126Y18.626I0.000J-0.500
N2920G3X35.626Y18.126I0.500J0.000
N2930G3X36.126Y18.626I0.000J0.500
N2940G01Z-2.900F30.0
N2950G3X35.626Y19.126I-0.500J0.000F600.0
N2960G3X35.126Y18.626I0.000J-0.500
N2970G3X35.626Y18.126I0.500J0.000
N2980G3X36.126Y18.626I0.000J0.500
N2990G01Z-2.950F30.0
N3000G3X35.626Y19.126I-0.500J0.000F600.0
N3010G3X35.126Y18.626I0.000J-0.500
N3020G3X35.626Y18.126I0.500J0.000
N3030G3X36.126Y18.626I0.000J0.500
N3040G01Z-3.000F30.0
N3050G3X35.626Y19.126I-0.500J0.000F600.0
N3060G3X35.126Y18.626I0.000J-0.500
N3070G3X35.626Y18.126I0.500J0.000
N3080G3X36.126Y18.626I0.000J0.500
N3090G00Z6.000
N3100G00X42.786Y20.750
N3110G01Z-0.050F30.0
N3120G01X46.525F600.0
N3130X50.525
N3140X53.214
N3150G3Y41.250I-5.214J10.250
N3160G01X49.158
N3170X45.158
N3180X42.786
N3190G3Y20.750I5.214J-10.250
N3200G01Z-0.100F30.0
N3210G01X46.525F600.0
N3220X50.525
N3230X53.214
N3240G3Y41.250I-5.214J10.250
N3250G01X49.158
N3260X45.158
N3270X42.786
N3280G3Y20.750I5.214J-10.250
N3290G01Z-0.150F30.0
N3300G01X46.525F600.0
N3310X50.525
N3320X53.214
N3330G3Y41.250I-5.214J10.250
N3340G01X49.158
N3350X45.158
N3360X42.786
N3370G3Y20.750I5.214J-10.250
N3380G01Z-0.200F30.0
N3390G01X46.525F600.0
N3400X50.525
N3410X53.214
N3420G3Y41.250I-5.214J10.250
N3430G01X49.158
N3440X45.158
N3450X42.786
N3460G3Y20.750I5.214J-10.250
N3470G01Z-0.250F30.0
N3480G01X46.525F600.0
N3490X50.525
N3500X53.214
N3510G3Y41.250I-5.214J10.250
N3520G01X49.158
N3530X45.158
N3540X42.786
N3550G3Y20.750I5.214J-10.250
N3560G01Z-0.300F30.0
N3570G01X46.525F600.0
N3580X50.525
N3590X53.214
N3600G3Y41.250I-5.214J10.250
N3610G01X49.158
N3620X45.158
N3630X42.786
N3640G3Y20.750I5.214J-10.250
N3650G01Z-0.350F30.0
N3660G01X46.525F600.0
N3670X50.525
N3680X53.214
N3690G3Y41.250I-5.214J10.250
N3700G01X49.158
N3710X45.158
N3720X42.786
N3730G3Y20.750I5.214J-10.250
N3740G01Z-0.400F30.0
N3750G01X46.525F600.0
N3760X50.525
N3770X53.214
N3780G3Y41.250I-5.214J10.250
N3790G01X49.158
N3800X45.158
N3810X42.786
N3820G3Y20.750I5.214J-10.250
N3830G01Z-0.450F30.0
N3840G01X46.525F600.0
N3850X50.525
N3860X53.214
N3870G3Y41.250I-5.214J10.250
N3880G01X49.158
N3890X45.158
N3900X42.786
N3910G3Y20.750I5.214J-10.250
N3920G01Z-0.500F30.0
N3930G01X46.525F600.0
N3940X50.525
N3950X53.214
N3960G3Y41.250I-5.214J10.250
N3970G01X49.158
N3980X45.158
N3990X42.786
N4000G3Y20.750I5.214J-10.250
N4010G01Z-0.550F30.0
N4020G01X46.525F600.0
N4030X50.525
N4040X53.214
N4050G3Y41.250I-5.214J10.250
N4060G01X49.158
N4070X45.158
N4080X42.786
N4090G3Y20.750I5.214J-10.250
N4100G01Z-0.600F30.0
N4110G01X46.525F600.0
N4120X50.525
N4130X53.214
N4140G3Y41.250I-5.214J10.250
N4150G01X49.158
N4160X45.158
N4170X42.786
N4180G3Y20.750I5.214J-10.250
N4190G01Z-0.650F30.0
N4200G01X46.525F600.0
N4210X50.525
N4220X53.214
N4230G3Y41.250I-5.214J10.250
N4240G01X49.158
N4250X45.158
N4260X42.786
N4270G3Y20.750I5.214J-10.250
N4280G01Z-0.700F30.0
N4290G01X46.525F600.0
N4300X50.525
N4310X53.214
N4320G3Y41.250I-5.214J10.250
N4330G01X49.158
N4340X45.158
N4350X42.786
N4360G3Y20.750I5.214J-10.250
N4370G01Z-0.750F30.0
N4380G01X46.525F600.0
N4390X50.525
N4400X53.214
N4410G3Y41.250I-5.214J10.250
N4420G01X49.158
N4430X45.158
N4440X42.786
N4450G3Y20.750I5.214J-10.250
N4460G01Z-0.800F30.0
N4470G01X46.525F600.0
N4480X50.525
N4490X53.214
N4500G3Y41.250I-5.214J10.250
N4510G01X49.158
N4520X45.158
N4530X42.786
N4540G3Y20.750I5.214J-10.250
N4550G01Z-0.850F30.0
N4560G01X46.525F600.0
N4570X50.525
N4580X53.214
N4590G3Y41.250I-5.214J10.250
N4600G01X49.158
N4610X45.158
N4620X42.786
N4630G3Y20.750I5.214J-10.250
N4640G01Z-0.900F30.0
N4650G01X46.525F600.0
N4660X50.525
N4670X53.214
N4680G3Y41.250I-5.214J10.250
N4690G01X49.158
N4700X45.158
N4710X42.786
N4720G3Y20.750I5.214J-10.250
N4730G01Z-0.950F30.0
N4740G01X46.525F600.0
N4750X50.525
N4760X53.214
N4770G3Y41.250I-5.214J10.250
N4780G01X49.158
N4790X45.158
N4800X42.786
N4810G3Y20.750I5.214J-10.250
N4820G01Z-1.000F30.0
N4830G01X46.525F600.0
N4840X50.525
N4850X53.214
N4860G3Y41.250I-5.214J10.250
N4870G01X49.158
N4880X45.158
N4890X42.786
N4900G3Y20.750I5.214J-10.250
N4910G01Z-1.050F30.0
N4920G01X46.525F600.0
N4930X50.525
N4940X53.214
N4950G3Y41.250I-5.214J10.250
N4960G01X49.158
N4970X45.158
N4980X42.786
N4990G3Y20.750I5.214J-10.250
N5000G01Z-1.100F30.0
N5010G01X46.525F600.0
N5020X50.525
N5030X53.214
N5040G3Y41.250I-5.214J10.250
N5050G01X49.158
N5060X45.158
N5070X42.786
N5080G3Y20.750I5.214J-10.250
N5090G01Z-1.150F30.0
N5100G01X46.525F600.0
N5110X50.525
N5120X53.214
N5130G3Y41.250I-5.214J10.250
N5140G01X49.158
N5150X45.158
N5160X42.786
N5170G3Y20.750I5.214J-10.250
N5180G01Z-1.200F30.0
N5190G01X46.525F600.0
N5200X50.525
N5210X53.214
N5220G3Y41.250I-5.214J10.250
N5230G01X49.158
N5240X45.158
N5250X42.786
N5260G3Y20.750I5.214J-10.250
N5270G01Z-1.250F30.0
N5280G01X46.525F600.0
N5290X50.525
N5300X53.214
N5310G3Y41.250I-5.214J10.250
N5320G01X49.158
N5330X45.158
N5340X42.786
N5350G3Y20.750I5.214J-10.250
N5360G01Z-1.300F30.0
N5370G01X46.525F600.0
N5380X50.525
N5390X53.214
N5400G3Y41.250I-5.214J10.250
N5410G01X49.158
N5420X45.158
N5430X42.786
N5440G3Y20.750I5.214J-10.250
N5450G01Z-1.350F30.0
N5460G01X46.525F600.0
N5470X50.525
N5480X53.214
N5490G3Y41.250I-5.214J10.250
N5500G01X49.158
N5510X45.158
N5520X42.786
N5530G3Y20.750I5.214J-10.250
N5540G01Z-1.400F30.0
N5550G01X46.525F600.0
N5560X50.525
N5570X53.214
N5580G3Y41.250I-5.214J10.250
N5590G01X49.158
N5600X45.158
N5610X42.786
N5620G3Y20.750I5.214J-10.250
N5630G01Z-1.450F30.0
N5640G01X46.525F600.0
N5650X50.525
N5660X53.214
N5670G3Y41.250I-5.214J10.250
N5680G01X49.158
N5690X45.158
N5700X42.786
N5710G3Y20.750I5.214J-10.250
N5720G01Z-1.500F30.0
N5730G01X46.525F600.0
N5740X50.525
N5750X53.214
N5760G3Y41.250I-5.214J10.250
N5770G01X49.158
N5780X45.158
N5790X42.786
N5800G3Y20.750I5.214J-10.250
N5810G01Z-1.550F30.0
N5820G01X46.525F600.0
N5830X50.525
N5840X53.214
N5850G3Y41.250I-5.214J10.250
N5860G01X49.158
N5870X45.158
N5880X42.786
N5890G3Y20.750I5.214J-10.250
N5900G01Z-1.600F30.0
N5910G01X46.525F600.0
N5920X50.525
N5930X53.214
N5940G3Y41.250I-5.214J10.250
N5950G01X49.158
N5960X45.158
N5970X42.786
N5980G3Y20.750I5.214J-10.250
N5990G01Z-1.650F30.0
N6000G01X46.525F600.0
N6010X50.525
N6020X53.214
N6030G3Y41.250I-5.214J10.250
N6040G01X49.158
N6050X45.158
N6060X42.786
N6070G3Y20.750I5.214J-10.250
N6080G01Z-1.700F30.0
N6090G01X46.525F600.0
N6100X50.525
N6110X53.214
N6120G3Y41.250I-5.214J10.250
N6130G01X49.158
N6140X45.158
N6150X42.786
N6160G3Y20.750I5.214J-10.250
N6170G01Z-1.750F30.0
N6180G01X46.525F600.0
N6190X50.525
N6200X53.214
N6210G3Y41.250I-5.214J10.250
N6220G01X49.158
N6230X45.158
N6240X42.786
N6250G3Y20.750I5.214J-10.250
N6260G01Z-1.800F30.0
N6270G01X46.525F600.0
N6280X50.525
N6290X53.214
N6300G3Y41.250I-5.214J10.250
N6310G01X49.158
N6320X45.158
N6330X42.786
N6340G3Y20.750I5.214J-10.250
N6350G01Z-1.850F30.0
N6360G01X46.525F600.0
N6370X50.525
N6380X53.214
N6390G3Y41.250I-5.214J10.250
N6400G01X49.158
N6410X45.158
N6420X42.786
N6430G3Y20.750I5.214J-10.250
N6440G01Z-1.900F30.0
N6450G01X46.525F600.0
N6460X50.525
N6470X53.214
N6480G3Y41.250I-5.214J10.250
N6490G01X49.158
N6500X45.158
N6510X42.786
N6520G3Y20.750I5.214J-10.250
N6530G01Z-1.950F30.0
N6540G01X46.525F600.0
N6550X50.525
N6560X53.214
N6570G3Y41.250I-5.214J10.250
N6580G01X49.158
N6590X45.158
N6600X42.786
N6610G3Y20.750I5.214J-10.250
N6620G01Z-2.000F30.0
N6630G01X46.525F600.0
N6640X50.525
N6650X53.214
N6660G3Y41.250I-5.214J10.250
N6670G01X49.158
N6680X45.158
N6690X42.786
N6700G3Y20.750I5.214J-10.250
N6710G01Z-2.050F30.0
N6720G01X46.525F600.0
N6730X50.525
N6740X53.214
N6750G3Y41.250I-5.214J10.250
N6760G01X49.158
N6770X45.158
N6780X42.786
N6790G3Y20.750I5.214J-10.250
N6800G01Z-2.100F30.0
N6810G01X46.525F600.0
N6820X50.525
N6830X53.214
N6840G3Y41.250I-5.214J10.250
N6850G01X49.158
N6860X45.158
N6870X42.786
N6880G3Y20.750I5.214J-10.250
N6890G01Z-2.150F30.0
N6900G01X46.525F600.0
N6910X50.525
N6920X53.214
N6930G3Y41.250I-5.214J10.250
N6940G01X49.158
N6950X45.158
N6960X42.786
N6970G3Y20.750I5.214J-10.250
N6980G01Z-2.200F30.0
N6990G01X46.525F600.0
N7000X50.525
N7010X53.214
N7020G3Y41.250I-5.214J10.250
N7030G01X49.158
N7040X45.158
N7050X42.786
N7060G3Y20.750I5.214J-10.250
N7070G01Z-2.250F30.0
N7080G01X46.525F600.0
N7090X50.525
N7100X53.214
N7110G3Y41.250I-5.214J10.250
N7120G01X49.158
N7130X45.158
N7140X42.786
N7150G3Y20.750I5.214J-10.250
N7160G01Z-2.300F30.0
N7170G01X46.525F600.0
N7180X50.525
N7190X53.214
N7200G3Y41.250I-5.214J10.250
N7210G01X49.158
N7220X45.158
N7230X42.786
N7240G3Y20.750I5.214J-10.250
N7250G01Z-2.350F30.0
N7260G01X46.525F600.0
N7270X50.525
N7280X53.214
N7290G3Y41.250I-5.214J10.250
N7300G01X49.158
N7310X45.158
N7320X42.786
N7330G3Y20.750I5.214J-10.250
N7340G01Z-2.400F30.0
N7350G01X46.525F600.0
N7360X50.525
N7370X53.214
N7380G3Y41.250I-5.214J10.250
N7390G01X49.158
N7400X45.158
N7410X42.786
N7420G3Y20.750I5.214J-10.250
N7430G01Z-2.450F30.0
N7440G01X46.525F600.0
N7450X50.525
N7460X53.214
N7470G3Y41.250I-5.214J10.250
N7480G01X49.158
N7490X45.158
N7500X42.786
N7510G3Y20.750I5.214J-10.250
N7520G01Z-2.500F30.0
N7530G01X46.525F600.0
N7540X50.525
N7550X53.214
N7560G3Y41.250I-5.214J10.250
N7570G01X49.158
N7580X45.158
N7590X42.786
N7600G3Y20.750I5.214J-10.250
N7610G01Z-2.550F30.0
N7620G01X46.525F600.0
N7630X50.525
N7640X53.214
N7650G3Y41.250I-5.214J10.250
N7660G01X49.158
N7670X45.158
N7680X42.786
N7690G3Y20.750I5.214J-10.250
N7700G01Z-2.600F30.0
N7710G01X46.525F600.0
N7720X50.525
N7730X53.214
N7740G3Y41.250I-5.214J10.250
N7750G01X49.158
N7760X45.158
N7770X42.786
N7780G3Y20.750I5.214J-10.250
N7790G01Z-2.650F30.0
N7800G01X46.525F600.0
N7810X50.525
N7820X53.214
N7830G3Y41.250I-5.214J10.250
N7840G01X49.158
N7850X45.158
N7860X42.786
N7870G3Y20.750I5.214J-10.250
N7880G01Z-2.700F30.0
N7890G01X46.525F600.0
N7900X50.525
N7910X53.214
N7920G3Y41.250I-5.214J10.250
N7930G01X49.158
N7940X45.158
N7950X42.786
N7960G3Y20.750I5.214J-10.250
N7970G01Z-2.750F30.0
N7980G01X46.525F600.0
N7990X50.525
N8000X53.214
N8010G3Y41.250I-5.214J10.250
N8020G01X49.158
N8030X45.158
N8040X42.786
N8050G3Y20.750I5.214J-10.250
N8060G01Z-2.800F30.0
N8070G01X46.525F600.0
N8080X50.525
N8090X53.214
N8100G3Y41.250I-5.214J10.250
N8110G01X49.158
N8120X45.158
N8130X42.786
N8140G3Y20.750I5.214J-10.250
N8150G01Z-2.850F30.0
N8160G01X46.525F600.0
N8170Z-2.800
N8180X50.525
N8190G01Z-2.850F30.0
N8200G01X53.214F600.0
N8210G3Y41.250I-5.214J10.250
N8220G01X49.158
N8230Z-2.800
N8240X45.158
N8250G01Z-2.850F30.0
N8260G01X42.786F600.0
N8270G3Y20.750I5.214J-10.250
N8280G01Z-2.900F30.0
N8290G01X46.525F600.0
N8300Z-2.800
N8310X50.525
N8320G01Z-2.900F30.0
N8330G01X53.214F600.0
N8340G3Y41.250I-5.214J10.250
N8350G01X49.158
N8360Z-2.800
N8370X45.158
N8380G01Z-2.900F30.0
N8390G01X42.786F600.0
N8400G3Y20.750I5.214J-10.250
N8410G01Z-2.950F30.0
N8420G01X46.525F600.0
N8430Z-2.800
N8440X50.525
N8450G01Z-2.950F30.0
N8460G01X53.214F600.0
N8470G3Y41.250I-5.214J10.250
N8480G01X49.158
N8490Z-2.800
N8500X45.158
N8510G01Z-2.950F30.0
N8520G01X42.786F600.0
N8530G3Y20.750I5.214J-10.250
N8540G01Z-3.000F30.0
N8550G01X46.525F600.0
N8560Z-2.800
N8570X50.525
N8580G01Z-3.000F30.0
N8590G01X53.214F600.0
N8600G3Y41.250I-5.214J10.250
N8610G01X49.158
N8620Z-2.800
N8630X45.158
N8640G01Z-3.000F30.0
N8650G01X42.786F600.0
N8660G3Y20.750I5.214J-10.250
N8670G00Z6.000
N8680G00X60.874Y18.626
N8690G01Z-0.050F30.0
N8700G3X60.374Y19.126I-0.500J0.000F600.0
N8710G3X59.874Y18.626I0.000J-0.500
N8720G3X60.374Y18.126I0.500J0.000
N8730G3X60.874Y18.626I0.000J0.500
N8740G01Z-0.100F30.0
N8750G3X60.374Y19.126I-0.500J0.000F600.0
N8760G3X59.874Y18.626I0.000J-0.500
N8770G3X60.374Y18.126I0.500J0.000
N8780G3X60.874Y18.626I0.000J0.500
N8790G01Z-0.150F30.0
N8800G3X60.374Y19.126I-0.500J0.000F600.0
N8810G3X59.874Y18.626I0.000J-0.500
N8820G3X60.374Y18.126I0.500J0.000
N8830G3X60.874Y18.626I0.000J0.500
N8840G01Z-0.200F30.0
N8850G3X60.374Y19.126I-0.500J0.000F600.0
N8860G3X59.874Y18.626I0.000J-0.500
N8870G3X60.374Y18.126I0.500J0.000
N8880G3X60.874Y18.626I0.000J0.500
N8890G01Z-0.250F30.0
N8900G3X60.374Y19.126I-0.500J0.000F600.0
N8910G3X59.874Y18.626I0.000J-0.500
N8920G3X60.374Y18.126I0.500J0.000
N8930G3X60.874Y18.626I0.000J0.500
N8940G01Z-0.300F30.0
N8950G3X60.374Y19.126I-0.500J0.000F600.0
N8960G3X59.874Y18.626I0.000J-0.500
N8970G3X60.374Y18.126I0.500J0.000
N8980G3X60.874Y18.626I0.000J0.500
N8990G01Z-0.350F30.0
N9000G3X60.374Y19.126I-0.500J0.000F600.0
N9010G3X59.874Y18.626I0.000J-0.500
N9020G3X60.374Y18.126I0.500J0.000
N9030G3X60.874Y18.626I0.000J0.500
N9040G01Z-0.400F30.0
N9050G3X60.374Y19.126I-0.500J0.000F600.0
N9060G3X59.874Y18.626I0.000J-0.500
N9070G3X60.374Y18.126I0.500J0.000
N9080G3X60.874Y18.626I0.000J0.500
N9090G01Z-0.450F30.0
N9100G3X60.374Y19.126I-0.500J0.000F600.0
N9110G3X59.874Y18.626I0.000J-0.500
N9120G3X60.374Y18.126I0.500J0.000
N9130G3X60.874Y18.626I0.000J0.500
N9140G01Z-0.500F30.0
N9150G3X60.374Y19.126I-0.500J0.000F600.0
N9160G3X59.874Y18.626I0.000J-0.500
N9170G3X60.374Y18.126I0.500J0.000
N9180G3X60.874Y18.626I0.000J0.500
N9190G01Z-0.550F30.0
N9200G3X60.374Y19.126I-0.500J0.000F600.0
N9210G3X59.874Y18.626I0.000J-0.500
N9220G3X60.374Y18.126I0.500J0.000
N9230G3X60.874Y18.626I0.000J0.500
N9240G01Z-0.600F30.0
N9250G3X60.374Y19.126I-0.500J0.000F600.0
N9260G3X59.874Y18.626I0.000J-0.500
N9270G3X60.374Y18.126I0.500J0.000
N9280G3X60.874Y18.626I0.000J0.500
N9290G01Z-0.650F30.0
N9300G3X60.374Y19.126I-0.500J0.000F600.0
N9310G3X59.874Y18.626I0.000J-0.500
N9320G3X60.374Y18.126I0.500J0.000
N9330G3X60.874Y18.626I0.000J0.500
N9340G01Z-0.700F30.0
N9350G3X60.374Y19.126I-0.500J0.000F600.0
N9360G3X59.874Y18.626I0.000J-0.500
N9370G3X60.374Y18.126I0.500J0.000
N9380G3X60.874Y18.626I0.000J0.500
N9390G01Z-0.750F30.0
N9400G3X60.374Y19.126I-0.500J0.000F600.0
N9410G3X59.874Y18.626I0.000J-0.500
N9420G3X60.374Y18.126I0.500J0.000
N9430G3X60.874Y18.626I0.000J0.500
N9440G01Z-0.800F30.0
N9450G3X60.374Y19.126I-0.500J0.000F600.0
N9460G3X59.874Y18.626I0.000J-0.500
N9470G3X60.374Y18.126I0.500J0.000
N9480G3X60.874Y18.626I0.000J0.500
N9490G01Z-0.850F30.0
N9500G3X60.374Y19.126I-0.500J0.000F600.0
N9510G3X59.874Y18.626I0.000J-0.500
N9520G3X60.374Y18.126I0.500J0.000
N9530G3X60.874Y18.626I0.000J0.500
N9540G01Z-0.900F30.0
N9550G3X60.374Y19.126I-0.500J0.000F600.0
N9560G3X59.874Y18.626I0.000J-0.500
N9570G3X60.374Y18.126I0.500J0.000
N9580G3X60.874Y18.626I0.000J0.500
N9590G01Z-0.950F30.0
N9600G3X60.374Y19.126I-0.500J0.000F600.0
N9610G3X59.874Y18.626I0.000J-0.500
N9620G3X60.374Y18.126I0.500J0.000
N9630G3X60.874Y18.626I0.000J0.500
N9640G01Z-1.000F30.0
N9650G3X60.374Y19.126I-0.500J0.000F600.0
N9660G3X59.874Y18.626I0.000J-0.500
N9670G3X60.374Y18.126I0.500J0.000
N9680G3X60.874Y18.626I0.000J0.500
N9690G01Z-1.050F30.0
N9700G3X60.374Y19.126I-0.500J0.000F600.0
N9710G3X59.874Y18.626I0.000J-0.500
N9720G3X60.374Y18.126I0.500J0.000
N9730G3X60.874Y18.626I0.000J0.500
N9740G01Z-1.100F30.0
N9750G3X60.374Y19.126I-0.500J0.000F600.0
N9760G3X59.874Y18.626I0.000J-0.500
N9770G3X60.374Y18.126I0.500J0.000
N9780G3X60.874Y18.626I0.000J0.500
N9790G01Z-1.150F30.0
N9800G3X60.374Y19.126I-0.500J0.000F600.0
N9810G3X59.874Y18.626I0.000J-0.500
N9820G3X60.374Y18.126I0.500J0.000
N9830G3X60.874Y18.626I0.000J0.500
N9840G01Z-1.200F30.0
N9850G3X60.374Y19.126I-0.500J0.000F600.0
N9860G3X59.874Y18.626I0.000J-0.500
N9870G3X60.374Y18.126I0.500J0.000
N9880G3X60.874Y18.626I0.000J0.500
N9890G01Z-1.250F30.0
N9900G3X60.374Y19.126I-0.500J0.000F600.0
N9910G3X59.874Y18.626I0.000J-0.500
N9920G3X60.374Y18.126I0.500J0.000
N9930G3X60.874Y18.626I0.000J0.500
N9940G01Z-1.300F30.0
N9950G3X60.374Y19.126I-0.500J0.000F600.0
N9960G3X59.874Y18.626I0.000J-0.500
N9970G3X60.374Y18.126I0.500J0.000
N9980G3X60.874Y18.626I0.000J0.500
N9990G01Z-1.350F30.0
N10000G3X60.374Y19.126I-0.500J0.000F600.0
N10010G3X59.874Y18.626I0.000J-0.500
N10020G3X60.374Y18.126I0.500J0.000
N10030G3X60.874Y18.626I0.000J0.500
N10040G01Z-1.400F30.0
N10050G3X60.374Y19.126I-0.500J0.000F600.0
N10060G3X59.874Y18.626I0.000J-0.500
N10070G3X60.374Y18.126I0.500J0.000
N10080G3X60.874Y18.626I0.000J0.500
N10090G01Z-1.450F30.0
N10100G3X60.374Y19.126I-0.500J0.000F600.0
N10110G3X59.874Y18.626I0.000J-0.500
N10120G3X60.374Y18.126I0.500J0.000
N10130G3X60.874Y18.626I0.000J0.500
N10140G01Z-1.500F30.0
N10150G3X60.374Y19.126I-0.500J0.000F600.0
N10160G3X59.874Y18.626I0.000J-0.500
N10170G3X60.374Y18.126I0.500J0.000
N10180G3X60.874Y18.626I0.000J0.500
N10190G01Z-1.550F30.0
N10200G3X60.374Y19.126I-0.500J0.000F600.0
N10210G3X59.874Y18.626I0.000J-0.500
N10220G3X60.374Y18.126I0.500J0.000
N10230G3X60.874Y18.626I0.000J0.500
N10240G01Z-1.600F30.0
N10250G3X60.374Y19.126I-0.500J0.000F600.0
N10260G3X59.874Y18.626I0.000J-0.500
N10270G3X60.374Y18.126I0.500J0.000
N10280G3X60.874Y18.626I0.000J0.500
N10290G01Z-1.650F30.0
N10300G3X60.374Y19.126I-0.500J0.000F600.0
N10310G3X59.874Y18.626I0.000J-0.500
N10320G3X60.374Y18.126I0.500J0.000
N10330G3X60.874Y18.626I0.000J0.500
N10340G01Z-1.700F30.0
N10350G3X60.374Y19.126I-0.500J0.000F600.0
N10360G3X59.874Y18.626I0.000J-0.500
N10370G3X60.374Y18.126I0.500J0.000
N10380G3X60.874Y18.626I0.000J0.500
N10390G01Z-1.750F30.0
N10400G3X60.374Y19.126I-0.500J0.000F600.0
N10410G3X59.874Y18.626I0.000J-0.500
N10420G3X60.374Y18.126I0.500J0.000
N10430G3X60.874Y18.626I0.000J0.500
N10440G01Z-1.800F30.0
N10450G3X60.374Y19.126I-0.500J0.000F600.0
N10460G3X59.874Y18.626I0.000J-0.500
N10470G3X60.374Y18.126I0.500J0.000
N10480G3X60.874Y18.626I0.000J0.500
N10490G01Z-1.850F30.0
N10500G3X60.374Y19.126I-0.500J0.000F600.0
N10510G3X59.874Y18.626I0.000J-0.500
N10520G3X60.374Y18.126I0.500J0.000
N10530G3X60.874Y18.626I0.000J0.500
N10540G01Z-1.900F30.0
N10550G3X60.374Y19.126I-0.500J0.000F600.0
N10560G3X59.874Y18.626I0.000J-0.500
N10570G3X60.374Y18.126I0.500J0.000
N10580G3X60.874Y18.626I0.000J0.500
N10590G01Z-1.950F30.0
N10600G3X60.374Y19.126I-0.500J0.000F600.0
N10610G3X59.874Y18.626I0.000J-0.500
N10620G3X60.374Y18.126I0.500J0.000
N10630G3X60.874Y18.626I0.000J0.500
N10640G01Z-2.000F30.0
N10650G3X60.374Y19.126I-0.500J0.000F600.0
N10660G3X59.874Y18.626I0.000J-0.500
N10670G3X60.374Y18.126I0.500J0.000
N10680G3X60.874Y18.626I0.000J0.500
N10690G01Z-2.050F30.0
N10700G3X60.374Y19.126I-0.500J0.000F600.0
N10710G3X59.874Y18.626I0.000J-0.500
N10720G3X60.374Y18.126I0.500J0.000
N10730G3X60.874Y18.626I0.000J0.500
N10740G01Z-2.100F30.0
N10750G3X60.374Y19.126I-0.500J0.000F600.0
N10760G3X59.874Y18.626I0.000J-0.500
N10770G3X60.374Y18.126I0.500J0.000
N10780G3X60.874Y18.626I0.000J0.500
N10790G01Z-2.150F30.0
N10800G3X60.374Y19.126I-0.500J0.000F600.0
N10810G3X59.874Y18.626I0.000J-0.500
N10820G3X60.374Y18.126I0.500J0.000
N10830G3X60.874Y18.626I0.000J0.500
N10840G01Z-2.200F30.0
N10850G3X60.374Y19.126I-0.500J0.000F600.0
N10860G3X59.874Y18.626I0.000J-0.500
N10870G3X60.374Y18.126I0.500J0.000
N10880G3X60.874Y18.626I0.000J0.500
N10890G01Z-2.250F30.0
N10900G3X60.374Y19.126I-0.500J0.000F600.0
N10910G3X59.874Y18.626I0.000J-0.500
N10920G3X60.374Y18.126I0.500J0.000
N10930G3X60.874Y18.626I0.000J0.500
N10940G01Z-2.300F30.0
N10950G3X60.374Y19.126I-0.500J0.000F600.0
N10960G3X59.874Y18.626I0.000J-0.500
N10970G3X60.374Y18.126I0.500J0.000
N10980G3X60.874Y18.626I0.000J0.500
N10990G01Z-2.350F30.0
N11000G3X60.374Y19.126I-0.500J0.000F600.0
N11010G3X59.874Y18.626I0.000J-0.500
N11020G3X60.374Y18.126I0.500J0.000
N11030G3X60.874Y18.626I0.000J0.500
N11040G01Z-2.400F30.0
N11050G3X60.374Y19.126I-0.500J0.000F600.0
N11060G3X59.874Y18.626I0.000J-0.500
N11070G3X60.374Y18.126I0.500J0.000
N11080G3X60.874Y18.626I0.000J0.500
N11090G01Z-2.450F30.0
N11100G3X60.374Y19.126I-0.500J0.000F600.0
N11110G3X59.874Y18.626I0.000J-0.500
N11120G3X60.374Y18.126I0.500J0.000
N11130G3X60.874Y18.626I0.000J0.500
N11140G01Z-2.500F30.0
N11150G3X60.374Y19.126I-0.500J0.000F600.0
N11160G3X59.874Y18.626I0.000J-0.500
N11170G3X60.374Y18.126I0.500J0.000
N11180G3X60.874Y18.626I0.000J0.500
N11190G01Z-2.550F30.0
N11200G3X60.374Y19.126I-0.500J0.000F600.0
N11210G3X59.874Y18.626I0.000J-0.500
N11220G3X60.374Y18.126I0.500J0.000
N11230G3X60.874Y18.626I0.000J0.500
N11240G01Z-2.600F30.0
N11250G3X60.374Y19.126I-0.500J0.000F600.0
N11260G3X59.874Y18.626I0.000J-0.500
N11270G3X60.374Y18.126I0.500J0.000
N11280G3X60.874Y18.626I0.000J0.500
N11290G01Z-2.650F30.0
N11300G3X60.374Y19.126I-0.500J0.000F600.0
N11310G3X59.874Y18.626I0.000J-0.500
N11320G3X60.374Y18.126I0.500J0.000
N11330G3X60.874Y18.626I0.000J0.500
N11340G01Z-2.700F30.0
N11350G3X60.374Y19.126I-0.500J0.000F600.0
N11360G3X59.874Y18.626I0.000J-0.500
N11370G3X60.374Y18.126I0.500J0.000
N11380G3X60.874Y18.626I0.000J0.500
N11390G01Z-2.750F30.0
N11400G3X60.374Y19.126I-0.500J0.000F600.0
N11410G3X59.874Y18.626I0.000J-0.500
N11420G3X60.374Y18.126I0.500J0.000
N11430G3X60.874Y18.626I0.000J0.500
N11440G01Z-2.800F30.0
N11450G3X60.374Y19.126I-0.500J0.000F600.0
N11460G3X59.874Y18.626I0.000J-0.500
N11470G3X60.374Y18.126I0.500J0.000
N11480G3X60.874Y18.626I0.000J0.500
N11490G01Z-2.850F30.0
N11500G3X60.374Y19.126I-0.500J0.000F600.0
N11510G3X59.874Y18.626I0.000J-0.500
N11520G3X60.374Y18.126I0.500J0.000
N11530G3X60.874Y18.626I0.000J0.500
N11540G01Z-2.900F30.0
N11550G3X60.374Y19.126I-0.500J0.000F600.0
N11560G3X59.874Y18.626I0.000J-0.500
N11570G3X60.374Y18.126I0.500J0.000
N11580G3X60.874Y18.626I0.000J0.500
N11590G01Z-2.950F30.0
N11600G3X60.374Y19.126I-0.500J0.000F600.0
N11610G3X59.874Y18.626I0.000J-0.500
N11620G3X60.374Y18.126I0.500J0.000
N11630G3X60.874Y18.626I0.000J0.500
N11640G01Z-3.000F30.0
N11650G3X60.374Y19.126I-0.500J0.000F600.0
N11660G3X59.874Y18.626I0.000J-0.500
N11670G3X60.374Y18.126I0.500J0.000
N11680G3X60.874Y18.626I0.000J0.500
N11690G00Z6.000
N11700G00Y43.374
N11710G01Z-0.050F30.0
N11720G3X60.374Y43.874I-0.500J0.000F600.0
N11730G3X59.874Y43.374I0.000J-0.500
N11740G3X60.374Y42.874I0.500J0.000
N11750G3X60.874Y43.374I0.000J0.500
N11760G01Z-0.100F30.0
N11770G3X60.374Y43.874I-0.500J0.000F600.0
N11780G3X59.874Y43.374I0.000J-0.500
N11790G3X60.374Y42.874I0.500J0.000
N11800G3X60.874Y43.374I0.000J0.500
N11810G01Z-0.150F30.0
N11820G3X60.374Y43.874I-0.500J0.000F600.0
N11830G3X59.874Y43.374I0.000J-0.500
N11840G3X60.374Y42.874I0.500J0.000
N11850G3X60.874Y43.374I0.000J0.500
N11860G01Z-0.200F30.0
N11870G3X60.374Y43.874I-0.500J0.000F600.0
N11880G3X59.874Y43.374I0.000J-0.500
N11890G3X60.374Y42.874I0.500J0.000
N11900G3X60.874Y43.374I0.000J0.500
N11910G01Z-0.250F30.0
N11920G3X60.374Y43.874I-0.500J0.000F600.0
N11930G3X59.874Y43.374I0.000J-0.500
N11940G3X60.374Y42.874I0.500J0.000
N11950G3X60.874Y43.374I0.000J0.500
N11960G01Z-0.300F30.0
N11970G3X60.374Y43.874I-0.500J0.000F600.0
N11980G3X59.874Y43.374I0.000J-0.500
N11990G3X60.374Y42.874I0.500J0.000
N12000G3X60.874Y43.374I0.000J0.500
N12010G01Z-0.350F30.0
N12020G3X60.374Y43.874I-0.500J0.000F600.0
N12030G3X59.874Y43.374I0.000J-0.500
N12040G3X60.374Y42.874I0.500J0.000
N12050G3X60.874Y43.374I0.000J0.500
N12060G01Z-0.400F30.0
N12070G3X60.374Y43.874I-0.500J0.000F600.0
N12080G3X59.874Y43.374I0.000J-0.500
N12090G3X60.374Y42.874I0.500J0.000
N12100G3X60.874Y43.374I0.000J0.500
N12110G01Z-0.450F30.0
N12120G3X60.374Y43.874I-0.500J0.000F600.0
N12130G3X59.874Y43.374I0.000J-0.500
N12140G3X60.374Y42.874I0.500J0.000
N12150G3X60.874Y43.374I0.000J0.500
N12160G01Z-0.500F30.0
N12170G3X60.374Y43.874I-0.500J0.000F600.0
N12180G3X59.874Y43.374I0.000J-0.500
N12190G3X60.374Y42.874I0.500J0.000
N12200G3X60.874Y43.374I0.000J0.500
N12210G01Z-0.550F30.0
N12220G3X60.374Y43.874I-0.500J0.000F600.0
N12230G3X59.874Y43.374I0.000J-0.500
N12240G3X60.374Y42.874I0.500J0.000
N12250G3X60.874Y43.374I0.000J0.500
N12260G01Z-0.600F30.0
N12270G3X60.374Y43.874I-0.500J0.000F600.0
N12280G3X59.874Y43.374I0.000J-0.500
N12290G3X60.374Y42.874I0.500J0.000
N12300G3X60.874Y43.374I0.000J0.500
N12310G01Z-0.650F30.0
N12320G3X60.374Y43.874I-0.500J0.000F600.0
N12330G3X59.874Y43.374I0.000J-0.500
N12340G3X60.374Y42.874I0.500J0.000
N12350G3X60.874Y43.374I0.000J0.500
N12360G01Z-0.700F30.0
N12370G3X60.374Y43.874I-0.500J0.000F600.0
N12380G3X59.874Y43.374I0.000J-0.500
N12390G3X60.374Y42.874I0.500J0.000
N12400G3X60.874Y43.374I0.000J0.500
N12410G01Z-0.750F30.0
N12420G3X60.374Y43.874I-0.500J0.000F600.0
N12430G3X59.874Y43.374I0.000J-0.500
N12440G3X60.374Y42.874I0.500J0.000
N12450G3X60.874Y43.374I0.000J0.500
N12460G01Z-0.800F30.0
N12470G3X60.374Y43.874I-0.500J0.000F600.0
N12480G3X59.874Y43.374I0.000J-0.500
N12490G3X60.374Y42.874I0.500J0.000
N12500G3X60.874Y43.374I0.000J0.500
N12510G01Z-0.850F30.0
N12520G3X60.374Y43.874I-0.500J0.000F600.0
N12530G3X59.874Y43.374I0.000J-0.500
N12540G3X60.374Y42.874I0.500J0.000
N12550G3X60.874Y43.374I0.000J0.500
N12560G01Z-0.900F30.0
N12570G3X60.374Y43.874I-0.500J0.000F600.0
N12580G3X59.874Y43.374I0.000J-0.500
N12590G3X60.374Y42.874I0.500J0.000
N12600G3X60.874Y43.374I0.000J0.500
N12610G01Z-0.950F30.0
N12620G3X60.374Y43.874I-0.500J0.000F600.0
N12630G3X59.874Y43.374I0.000J-0.500
N12640G3X60.374Y42.874I0.500J0.000
N12650G3X60.874Y43.374I0.000J0.500
N12660G01Z-1.000F30.0
N12670G3X60.374Y43.874I-0.500J0.000F600.0
N12680G3X59.874Y43.374I0.000J-0.500
N12690G3X60.374Y42.874I0.500J0.000
N12700G3X60.874Y43.374I0.000J0.500
N12710G01Z-1.050F30.0
N12720G3X60.374Y43.874I-0.500J0.000F600.0
N12730G3X59.874Y43.374I0.000J-0.500
N12740G3X60.374Y42.874I0.500J0.000
N12750G3X60.874Y43.374I0.000J0.500
N12760G01Z-1.100F30.0
N12770G3X60.374Y43.874I-0.500J0.000F600.0
N12780G3X59.874Y43.374I0.000J-0.500
N12790G3X60.374Y42.874I0.500J0.000
N12800G3X60.874Y43.374I0.000J0.500
N12810G01Z-1.150F30.0
N12820G3X60.374Y43.874I-0.500J0.000F600.0
N12830G3X59.874Y43.374I0.000J-0.500
N12840G3X60.374Y42.874I0.500J0.000
N12850G3X60.874Y43.374I0.000J0.500
N12860G01Z-1.200F30.0
N12870G3X60.374Y43.874I-0.500J0.000F600.0
N12880G3X59.874Y43.374I0.000J-0.500
N12890G3X60.374Y42.874I0.500J0.000
N12900G3X60.874Y43.374I0.000J0.500
N12910G01Z-1.250F30.0
N12920G3X60.374Y43.874I-0.500J0.000F600.0
N12930G3X59.874Y43.374I0.000J-0.500
N12940G3X60.374Y42.874I0.500J0.000
N12950G3X60.874Y43.374I0.000J0.500
N12960G01Z-1.300F30.0
N12970G3X60.374Y43.874I-0.500J0.000F600.0
N12980G3X59.874Y43.374I0.000J-0.500
N12990G3X60.374Y42.874I0.500J0.000
N13000G3X60.874Y43.374I0.000J0.500
N13010G01Z-1.350F30.0
N13020G3X60.374Y43.874I-0.500J0.000F600.0
N13030G3X59.874Y43.374I0.000J-0.500
N13040G3X60.374Y42.874I0.500J0.000
N13050G3X60.874Y43.374I0.000J0.500
N13060G01Z-1.400F30.0
N13070G3X60.374Y43.874I-0.500J0.000F600.0
N13080G3X59.874Y43.374I0.000J-0.500
N13090G3X60.374Y42.874I0.500J0.000
N13100G3X60.874Y43.374I0.000J0.500
N13110G01Z-1.450F30.0
N13120G3X60.374Y43.874I-0.500J0.000F600.0
N13130G3X59.874Y43.374I0.000J-0.500
N13140G3X60.374Y42.874I0.500J0.000
N13150G3X60.874Y43.374I0.000J0.500
N13160G01Z-1.500F30.0
N13170G3X60.374Y43.874I-0.500J0.000F600.0
N13180G3X59.874Y43.374I0.000J-0.500
N13190G3X60.374Y42.874I0.500J0.000
N13200G3X60.874Y43.374I0.000J0.500
N13210G01Z-1.550F30.0
N13220G3X60.374Y43.874I-0.500J0.000F600.0
N13230G3X59.874Y43.374I0.000J-0.500
N13240G3X60.374Y42.874I0.500J0.000
N13250G3X60.874Y43.374I0.000J0.500
N13260G01Z-1.600F30.0
N13270G3X60.374Y43.874I-0.500J0.000F600.0
N13280G3X59.874Y43.374I0.000J-0.500
N13290G3X60.374Y42.874I0.500J0.000
N13300G3X60.874Y43.374I0.000J0.500
N13310G01Z-1.650F30.0
N13320G3X60.374Y43.874I-0.500J0.000F600.0
N13330G3X59.874Y43.374I0.000J-0.500
N13340G3X60.374Y42.874I0.500J0.000
N13350G3X60.874Y43.374I0.000J0.500
N13360G01Z-1.700F30.0
N13370G3X60.374Y43.874I-0.500J0.000F600.0
N13380G3X59.874Y43.374I0.000J-0.500
N13390G3X60.374Y42.874I0.500J0.000
N13400G3X60.874Y43.374I0.000J0.500
N13410G01Z-1.750F30.0
N13420G3X60.374Y43.874I-0.500J0.000F600.0
N13430G3X59.874Y43.374I0.000J-0.500
N13440G3X60.374Y42.874I0.500J0.000
N13450G3X60.874Y43.374I0.000J0.500
N13460G01Z-1.800F30.0
N13470G3X60.374Y43.874I-0.500J0.000F600.0
N13480G3X59.874Y43.374I0.000J-0.500
N13490G3X60.374Y42.874I0.500J0.000
N13500G3X60.874Y43.374I0.000J0.500
N13510G01Z-1.850F30.0
N13520G3X60.374Y43.874I-0.500J0.000F600.0
N13530G3X59.874Y43.374I0.000J-0.500
N13540G3X60.374Y42.874I0.500J0.000
N13550G3X60.874Y43.374I0.000J0.500
N13560G01Z-1.900F30.0
N13570G3X60.374Y43.874I-0.500J0.000F600.0
N13580G3X59.874Y43.374I0.000J-0.500
N13590G3X60.374Y42.874I0.500J0.000
N13600G3X60.874Y43.374I0.000J0.500
N13610G01Z-1.950F30.0
N13620G3X60.374Y43.874I-0.500J0.000F600.0
N13630G3X59.874Y43.374I0.000J-0.500
N13640G3X60.374Y42.874I0.500J0.000
N13650G3X60.874Y43.374I0.000J0.500
N13660G01Z-2.000F30.0
N13670G3X60.374Y43.874I-0.500J0.000F600.0
N13680G3X59.874Y43.374I0.000J-0.500
N13690G3X60.374Y42.874I0.500J0.000
N13700G3X60.874Y43.374I0.000J0.500
N13710G01Z-2.050F30.0
N13720G3X60.374Y43.874I-0.500J0.000F600.0
N13730G3X59.874Y43.374I0.000J-0.500
N13740G3X60.374Y42.874I0.500J0.000
N13750G3X60.874Y43.374I0.000J0.500
N13760G01Z-2.100F30.0
N13770G3X60.374Y43.874I-0.500J0.000F600.0
N13780G3X59.874Y43.374I0.000J-0.500
N13790G3X60.374Y42.874I0.500J0.000
N13800G3X60.874Y43.374I0.000J0.500
N13810G01Z-2.150F30.0
N13820G3X60.374Y43.874I-0.500J0.000F600.0
N13830G3X59.874Y43.374I0.000J-0.500
N13840G3X60.374Y42.874I0.500J0.000
N13850G3X60.874Y43.374I0.000J0.500
N13860G01Z-2.200F30.0
N13870G3X60.374Y43.874I-0.500J0.000F600.0
N13880G3X59.874Y43.374I0.000J-0.500
N13890G3X60.374Y42.874I0.500J0.000
N13900G3X60.874Y43.374I0.000J0.500
N13910G01Z-2.250F30.0
N13920G3X60.374Y43.874I-0.500J0.000F600.0
N13930G3X59.874Y43.374I0.000J-0.500
N13940G3X60.374Y42.874I0.500J0.000
N13950G3X60.874Y43.374I0.000J0.500
N13960G01Z-2.300F30.0
N13970G3X60.374Y43.874I-0.500J0.000F600.0
N13980G3X59.874Y43.374I0.000J-0.500
N13990G3X60.374Y42.874I0.500J0.000
N14000G3X60.874Y43.374I0.000J0.500
N14010G01Z-2.350F30.0
N14020G3X60.374Y43.874I-0.500J0.000F600.0
N14030G3X59.874Y43.374I0.000J-0.500
N14040G3X60.374Y42.874I0.500J0.000
N14050G3X60.874Y43.374I0.000J0.500
N14060G01Z-2.400F30.0
N14070G3X60.374Y43.874I-0.500J0.000F600.0
N14080G3X59.874Y43.374I0.000J-0.500
N14090G3X60.374Y42.874I0.500J0.000
N14100G3X60.874Y43.374I0.000J0.500
N14110G01Z-2.450F30.0
N14120G3X60.374Y43.874I-0.500J0.000F600.0
N14130G3X59.874Y43.374I0.000J-0.500
N14140G3X60.374Y42.874I0.500J0.000
N14150G3X60.874Y43.374I0.000J0.500
N14160G01Z-2.500F30.0
N14170G3X60.374Y43.874I-0.500J0.000F600.0
N14180G3X59.874Y43.374I0.000J-0.500
N14190G3X60.374Y42.874I0.500J0.000
N14200G3X60.874Y43.374I0.000J0.500
N14210G01Z-2.550F30.0
N14220G3X60.374Y43.874I-0.500J0.000F600.0
N14230G3X59.874Y43.374I0.000J-0.500
N14240G3X60.374Y42.874I0.500J0.000
N14250G3X60.874Y43.374I0.000J0.500
N14260G01Z-2.600F30.0
N14270G3X60.374Y43.874I-0.500J0.000F600.0
N14280G3X59.874Y43.374I0.000J-0.500
N14290G3X60.374Y42.874I0.500J0.000
N14300G3X60.874Y43.374I0.000J0.500
N14310G01Z-2.650F30.0
N14320G3X60.374Y43.874I-0.500J0.000F600.0
N14330G3X59.874Y43.374I0.000J-0.500
N14340G3X60.374Y42.874I0.500J0.000
N14350G3X60.874Y43.374I0.000J0.500
N14360G01Z-2.700F30.0
N14370G3X60.374Y43.874I-0.500J0.000F600.0
N14380G3X59.874Y43.374I0.000J-0.500
N14390G3X60.374Y42.874I0.500J0.000
N14400G3X60.874Y43.374I0.000J0.500
N14410G01Z-2.750F30.0
N14420G3X60.374Y43.874I-0.500J0.000F600.0
N14430G3X59.874Y43.374I0.000J-0.500
N14440G3X60.374Y42.874I0.500J0.000
N14450G3X60.874Y43.374I0.000J0.500
N14460G01Z-2.800F30.0
N14470G3X60.374Y43.874I-0.500J0.000F600.0
N14480G3X59.874Y43.374I0.000J-0.500
N14490G3X60.374Y42.874I0.500J0.000
N14500G3X60.874Y43.374I0.000J0.500
N14510G01Z-2.850F30.0
N14520G3X60.374Y43.874I-0.500J0.000F600.0
N14530G3X59.874Y43.374I0.000J-0.500
N14540G3X60.374Y42.874I0.500J0.000
N14550G3X60.874Y43.374I0.000J0.500
N14560G01Z-2.900F30.0
N14570G3X60.374Y43.874I-0.500J0.000F600.0
N14580G3X59.874Y43.374I0.000J-0.500
N14590G3X60.374Y42.874I0.500J0.000
N14600G3X60.874Y43.374I0.000J0.500
N14610G01Z-2.950F30.0
N14620G3X60.374Y43.874I-0.500J0.000F600.0
N14630G3X59.874Y43.374I0.000J-0.500
N14640G3X60.374Y42.874I0.500J0.000
N14650G3X60.874Y43.374I0.000J0.500
N14660G01Z-3.000F30.0
N14670G3X60.374Y43.874I-0.500J0.000F600.0
N14680G3X59.874Y43.374I0.000J-0.500
N14690G3X60.374Y42.874I0.500J0.000
N14700G3X60.874Y43.374I0.000J0.500
N14710G00Z6.000
N14720G00X36.126
N14730G01Z-0.050F30.0
N14740G3X35.626Y43.874I-0.500J0.000F600.0
N14750G3X35.126Y43.374I0.000J-0.500
N14760G3X35.626Y42.874I0.500J0.000
N14770G3X36.126Y43.374I0.000J0.500
N14780G01Z-0.100F30.0
N14790G3X35.626Y43.874I-0.500J0.000F600.0
N14800G3X35.126Y43.374I0.000J-0.500
N14810G3X35.626Y42.874I0.500J0.000
N14820G3X36.126Y43.374I0.000J0.500
N14830G01Z-0.150F30.0
N14840G3X35.626Y43.874I-0.500J0.000F600.0
N14850G3X35.126Y43.374I0.000J-0.500
N14860G3X35.626Y42.874I0.500J0.000
N14870G3X36.126Y43.374I0.000J0.500
N14880G01Z-0.200F30.0
N14890G3X35.626Y43.874I-0.500J0.000F600.0
N14900G3X35.126Y43.374I0.000J-0.500
N14910G3X35.626Y42.874I0.500J0.000
N14920G3X36.126Y43.374I0.000J0.500
N14930G01Z-0.250F30.0
N14940G3X35.626Y43.874I-0.500J0.000F600.0
N14950G3X35.126Y43.374I0.000J-0.500
N14960G3X35.626Y42.874I0.500J0.000
N14970G3X36.126Y43.374I0.000J0.500
N14980G01Z-0.300F30.0
N14990G3X35.626Y43.874I-0.500J0.000F600.0
N15000G3X35.126Y43.374I0.000J-0.500
N15010G3X35.626Y42.874I0.500J0.000
N15020G3X36.126Y43.374I0.000J0.500
N15030G01Z-0.350F30.0
N15040G3X35.626Y43.874I-0.500J0.000F600.0
N15050G3X35.126Y43.374I0.000J-0.500
N15060G3X35.626Y42.874I0.500J0.000
N15070G3X36.126Y43.374I0.000J0.500
N15080G01Z-0.400F30.0
N15090G3X35.626Y43.874I-0.500J0.000F600.0
N15100G3X35.126Y43.374I0.000J-0.500
N15110G3X35.626Y42.874I0.500J0.000
N15120G3X36.126Y43.374I0.000J0.500
N15130G01Z-0.450F30.0
N15140G3X35.626Y43.874I-0.500J0.000F600.0
N15150G3X35.126Y43.374I0.000J-0.500
N15160G3X35.626Y42.874I0.500J0.000
N15170G3X36.126Y43.374I0.000J0.500
N15180G01Z-0.500F30.0
N15190G3X35.626Y43.874I-0.500J0.000F600.0
N15200G3X35.126Y43.374I0.000J-0.500
N15210G3X35.626Y42.874I0.500J0.000
N15220G3X36.126Y43.374I0.000J0.500
N15230G01Z-0.550F30.0
N15240G3X35.626Y43.874I-0.500J0.000F600.0
N15250G3X35.126Y43.374I0.000J-0.500
N15260G3X35.626Y42.874I0.500J0.000
N15270G3X36.126Y43.374I0.000J0.500
N15280G01Z-0.600F30.0
N15290G3X35.626Y43.874I-0.500J0.000F600.0
N15300G3X35.126Y43.374I0.000J-0.500
N15310G3X35.626Y42.874I0.500J0.000
N15320G3X36.126Y43.374I0.000J0.500
N15330G01Z-0.650F30.0
N15340G3X35.626Y43.874I-0.500J0.000F600.0
N15350G3X35.126Y43.374I0.000J-0.500
N15360G3X35.626Y42.874I0.500J0.000
N15370G3X36.126Y43.374I0.000J0.500
N15380G01Z-0.700F30.0
N15390G3X35.626Y43.874I-0.500J0.000F600.0
N15400G3X35.126Y43.374I0.000J-0.500
N15410G3X35.626Y42.874I0.500J0.000
N15420G3X36.126Y43.374I0.000J0.500
N15430G01Z-0.750F30.0
N15440G3X35.626Y43.874I-0.500J0.000F600.0
N15450G3X35.126Y43.374I0.000J-0.500
N15460G3X35.626Y42.874I0.500J0.000
N15470G3X36.126Y43.374I0.000J0.500
N15480G01Z-0.800F30.0
N15490G3X35.626Y43.874I-0.500J0.000F600.0
N15500G3X35.126Y43.374I0.000J-0.500
N15510G3X35.626Y42.874I0.500J0.000
N15520G3X36.126Y43.374I0.000J0.500
N15530G01Z-0.850F30.0
N15540G3X35.626Y43.874I-0.500J0.000F600.0
N15550G3X35.126Y43.374I0.000J-0.500
N15560G3X35.626Y42.874I0.500J0.000
N15570G3X36.126Y43.374I0.000J0.500
N15580G01Z-0.900F30.0
N15590G3X35.626Y43.874I-0.500J0.000F600.0
N15600G3X35.126Y43.374I0.000J-0.500
N15610G3X35.626Y42.874I0.500J0.000
N15620G3X36.126Y43.374I0.000J0.500
N15630G01Z-0.950F30.0
N15640G3X35.626Y43.874I-0.500J0.000F600.0
N15650G3X35.126Y43.374I0.000J-0.500
N15660G3X35.626Y42.874I0.500J0.000
N15670G3X36.126Y43.374I0.000J0.500
N15680G01Z-1.000F30.0
N15690G3X35.626Y43.874I-0.500J0.000F600.0
N15700G3X35.126Y43.374I0.000J-0.500
N15710G3X35.626Y42.874I0.500J0.000
N15720G3X36.126Y43.374I0.000J0.500
N15730G01Z-1.050F30.0
N15740G3X35.626Y43.874I-0.500J0.000F600.0
N15750G3X35.126Y43.374I0.000J-0.500
N15760G3X35.626Y42.874I0.500J0.000
N15770G3X36.126Y43.374I0.000J0.500
N15780G01Z-1.100F30.0
N15790G3X35.626Y43.874I-0.500J0.000F600.0
N15800G3X35.126Y43.374I0.000J-0.500
N15810G3X35.626Y42.874I0.500J0.000
N15820G3X36.126Y43.374I0.000J0.500
N15830G01Z-1.150F30.0
N15840G3X35.626Y43.874I-0.500J0.000F600.0
N15850G3X35.126Y43.374I0.000J-0.500
N15860G3X35.626Y42.874I0.500J0.000
N15870G3X36.126Y43.374I0.000J0.500
N15880G01Z-1.200F30.0
N15890G3X35.626Y43.874I-0.500J0.000F600.0
N15900G3X35.126Y43.374I0.000J-0.500
N15910G3X35.626Y42.874I0.500J0.000
N15920G3X36.126Y43.374I0.000J0.500
N15930G01Z-1.250F30.0
N15940G3X35.626Y43.874I-0.500J0.000F600.0
N15950G3X35.126Y43.374I0.000J-0.500
N15960G3X35.626Y42.874I0.500J0.000
N15970G3X36.126Y43.374I0.000J0.500
N15980G01Z-1.300F30.0
N15990G3X35.626Y43.874I-0.500J0.000F600.0
N16000G3X35.126Y43.374I0.000J-0.500
N16010G3X35.626Y42.874I0.500J0.000
N16020G3X36.126Y43.374I0.000J0.500
N16030G01Z-1.350F30.0
N16040G3X35.626Y43.874I-0.500J0.000F600.0
N16050G3X35.126Y43.374I0.000J-0.500
N16060G3X35.626Y42.874I0.500J0.000
N16070G3X36.126Y43.374I0.000J0.500
N16080G01Z-1.400F30.0
N16090G3X35.626Y43.874I-0.500J0.000F600.0
N16100G3X35.126Y43.374I0.000J-0.500
N16110G3X35.626Y42.874I0.500J0.000
N16120G3X36.126Y43.374I0.000J0.500
N16130G01Z-1.450F30.0
N16140G3X35.626Y43.874I-0.500J0.000F600.0
N16150G3X35.126Y43.374I0.000J-0.500
N16160G3X35.626Y42.874I0.500J0.000
N16170G3X36.126Y43.374I0.000J0.500
N16180G01Z-1.500F30.0
N16190G3X35.626Y43.874I-0.500J0.000F600.0
N16200G3X35.126Y43.374I0.000J-0.500
N16210G3X35.626Y42.874I0.500J0.000
N16220G3X36.126Y43.374I0.000J0.500
N16230G01Z-1.550F30.0
N16240G3X35.626Y43.874I-0.500J0.000F600.0
N16250G3X35.126Y43.374I0.000J-0.500
N16260G3X35.626Y42.874I0.500J0.000
N16270G3X36.126Y43.374I0.000J0.500
N16280G01Z-1.600F30.0
N16290G3X35.626Y43.874I-0.500J0.000F600.0
N16300G3X35.126Y43.374I0.000J-0.500
N16310G3X35.626Y42.874I0.500J0.000
N16320G3X36.126Y43.374I0.000J0.500
N16330G01Z-1.650F30.0
N16340G3X35.626Y43.874I-0.500J0.000F600.0
N16350G3X35.126Y43.374I0.000J-0.500
N16360G3X35.626Y42.874I0.500J0.000
N16370G3X36.126Y43.374I0.000J0.500
N16380G01Z-1.700F30.0
N16390G3X35.626Y43.874I-0.500J0.000F600.0
N16400G3X35.126Y43.374I0.000J-0.500
N16410G3X35.626Y42.874I0.500J0.000
N16420G3X36.126Y43.374I0.000J0.500
N16430G01Z-1.750F30.0
N16440G3X35.626Y43.874I-0.500J0.000F600.0
N16450G3X35.126Y43.374I0.000J-0.500
N16460G3X35.626Y42.874I0.500J0.000
N16470G3X36.126Y43.374I0.000J0.500
N16480G01Z-1.800F30.0
N16490G3X35.626Y43.874I-0.500J0.000F600.0
N16500G3X35.126Y43.374I0.000J-0.500
N16510G3X35.626Y42.874I0.500J0.000
N16520G3X36.126Y43.374I0.000J0.500
N16530G01Z-1.850F30.0
N16540G3X35.626Y43.874I-0.500J0.000F600.0
N16550G3X35.126Y43.374I0.000J-0.500
N16560G3X35.626Y42.874I0.500J0.000
N16570G3X36.126Y43.374I0.000J0.500
N16580G01Z-1.900F30.0
N16590G3X35.626Y43.874I-0.500J0.000F600.0
N16600G3X35.126Y43.374I0.000J-0.500
N16610G3X35.626Y42.874I0.500J0.000
N16620G3X36.126Y43.374I0.000J0.500
N16630G01Z-1.950F30.0
N16640G3X35.626Y43.874I-0.500J0.000F600.0
N16650G3X35.126Y43.374I0.000J-0.500
N16660G3X35.626Y42.874I0.500J0.000
N16670G3X36.126Y43.374I0.000J0.500
N16680G01Z-2.000F30.0
N16690G3X35.626Y43.874I-0.500J0.000F600.0
N16700G3X35.126Y43.374I0.000J-0.500
N16710G3X35.626Y42.874I0.500J0.000
N16720G3X36.126Y43.374I0.000J0.500
N16730G01Z-2.050F30.0
N16740G3X35.626Y43.874I-0.500J0.000F600.0
N16750G3X35.126Y43.374I0.000J-0.500
N16760G3X35.626Y42.874I0.500J0.000
N16770G3X36.126Y43.374I0.000J0.500
N16780G01Z-2.100F30.0
N16790G3X35.626Y43.874I-0.500J0.000F600.0
N16800G3X35.126Y43.374I0.000J-0.500
N16810G3X35.626Y42.874I0.500J0.000
N16820G3X36.126Y43.374I0.000J0.500
N16830G01Z-2.150F30.0
N16840G3X35.626Y43.874I-0.500J0.000F600.0
N16850G3X35.126Y43.374I0.000J-0.500
N16860G3X35.626Y42.874I0.500J0.000
N16870G3X36.126Y43.374I0.000J0.500
N16880G01Z-2.200F30.0
N16890G3X35.626Y43.874I-0.500J0.000F600.0
N16900G3X35.126Y43.374I0.000J-0.500
N16910G3X35.626Y42.874I0.500J0.000
N16920G3X36.126Y43.374I0.000J0.500
N16930G01Z-2.250F30.0
N16940G3X35.626Y43.874I-0.500J0.000F600.0
N16950G3X35.126Y43.374I0.000J-0.500
N16960G3X35.626Y42.874I0.500J0.000
N16970G3X36.126Y43.374I0.000J0.500
N16980G01Z-2.300F30.0
N16990G3X35.626Y43.874I-0.500J0.000F600.0
N17000G3X35.126Y43.374I0.000J-0.500
N17010G3X35.626Y42.874I0.500J0.000
N17020G3X36.126Y43.374I0.000J0.500
N17030G01Z-2.350F30.0
N17040G3X35.626Y43.874I-0.500J0.000F600.0
N17050G3X35.126Y43.374I0.000J-0.500
N17060G3X35.626Y42.874I0.500J0.000
N17070G3X36.126Y43.374I0.000J0.500
N17080G01Z-2.400F30.0
N17090G3X35.626Y43.874I-0.500J0.000F600.0
N17100G3X35.126Y43.374I0.000J-0.500
N17110G3X35.626Y42.874I0.500J0.000
N17120G3X36.126Y43.374I0.000J0.500
N17130G01Z-2.450F30.0
N17140G3X35.626Y43.874I-0.500J0.000F600.0
N17150G3X35.126Y43.374I0.000J-0.500
N17160G3X35.626Y42.874I0.500J0.000
N17170G3X36.126Y43.374I0.000J0.500
N17180G01Z-2.500F30.0
N17190G3X35.626Y43.874I-0.500J0.000F600.0
N17200G3X35.126Y43.374I0.000J-0.500
N17210G3X35.626Y42.874I0.500J0.000
N17220G3X36.126Y43.374I0.000J0.500
N17230G01Z-2.550F30.0
N17240G3X35.626Y43.874I-0.500J0.000F600.0
N17250G3X35.126Y43.374I0.000J-0.500
N17260G3X35.626Y42.874I0.500J0.000
N17270G3X36.126Y43.374I0.000J0.500
N17280G01Z-2.600F30.0
N17290G3X35.626Y43.874I-0.500J0.000F600.0
N17300G3X35.126Y43.374I0.000J-0.500
N17310G3X35.626Y42.874I0.500J0.000
N17320G3X36.126Y43.374I0.000J0.500
N17330G01Z-2.650F30.0
N17340G3X35.626Y43.874I-0.500J0.000F600.0
N17350G3X35.126Y43.374I0.000J-0.500
N17360G3X35.626Y42.874I0.500J0.000
N17370G3X36.126Y43.374I0.000J0.500
N17380G01Z-2.700F30.0
N17390G3X35.626Y43.874I-0.500J0.000F600.0
N17400G3X35.126Y43.374I0.000J-0.500
N17410G3X35.626Y42.874I0.500J0.000
N17420G3X36.126Y43.374I0.000J0.500
N17430G01Z-2.750F30.0
N17440G3X35.626Y43.874I-0.500J0.000F600.0
N17450G3X35.126Y43.374I0.000J-0.500
N17460G3X35.626Y42.874I0.500J0.000
N17470G3X36.126Y43.374I0.000J0.500
N17480G01Z-2.800F30.0
N17490G3X35.626Y43.874I-0.500J0.000F600.0
N17500G3X35.126Y43.374I0.000J-0.500
N17510G3X35.626Y42.874I0.500J0.000
N17520G3X36.126Y43.374I0.000J0.500
N17530G01Z-2.850F30.0
N17540G3X35.626Y43.874I-0.500J0.000F600.0
N17550G3X35.126Y43.374I0.000J-0.500
N17560G3X35.626Y42.874I0.500J0.000
N17570G3X36.126Y43.374I0.000J0.500
N17580G01Z-2.900F30.0
N17590G3X35.626Y43.874I-0.500J0.000F600.0
N17600G3X35.126Y43.374I0.000J-0.500
N17610G3X35.626Y42.874I0.500J0.000
N17620G3X36.126Y43.374I0.000J0.500
N17630G01Z-2.950F30.0
N17640G3X35.626Y43.874I-0.500J0.000F600.0
N17650G3X35.126Y43.374I0.000J-0.500
N17660G3X35.626Y42.874I0.500J0.000
N17670G3X36.126Y43.374I0.000J0.500
N17680G01Z-3.000F30.0
N17690G3X35.626Y43.874I-0.500J0.000F600.0
N17700G3X35.126Y43.374I0.000J-0.500
N17710G3X35.626Y42.874I0.500J0.000
N17720G3X36.126Y43.374I0.000J0.500
N17730G00Z6.000
N17740G00Y73.064
N17750G01Z-0.050F30.0
N17760G3X35.626Y73.564I-0.500J0.000F600.0
N17770G3X35.126Y73.064I0.000J-0.500
N17780G3X35.626Y72.564I0.500J0.000
N17790G3X36.126Y73.064I0.000J0.500
N17800G01Z-0.100F30.0
N17810G3X35.626Y73.564I-0.500J0.000F600.0
N17820G3X35.126Y73.064I0.000J-0.500
N17830G3X35.626Y72.564I0.500J0.000
N17840G3X36.126Y73.064I0.000J0.500
N17850G01Z-0.150F30.0
N17860G3X35.626Y73.564I-0.500J0.000F600.0
N17870G3X35.126Y73.064I0.000J-0.500
N17880G3X35.626Y72.564I0.500J0.000
N17890G3X36.126Y73.064I0.000J0.500
N17900G01Z-0.200F30.0
N17910G3X35.626Y73.564I-0.500J0.000F600.0
N17920G3X35.126Y73.064I0.000J-0.500
N17930G3X35.626Y72.564I0.500J0.000
N17940G3X36.126Y73.064I0.000J0.500
N17950G01Z-0.250F30.0
N17960G3X35.626Y73.564I-0.500J0.000F600.0
N17970G3X35.126Y73.064I0.000J-0.500
N17980G3X35.626Y72.564I0.500J0.000
N17990G3X36.126Y73.064I0.000J0.500
N18000G01Z-0.300F30.0
N18010G3X35.626Y73.564I-0.500J0.000F600.0
N18020G3X35.126Y73.064I0.000J-0.500
N18030G3X35.626Y72.564I0.500J0.000
N18040G3X36.126Y73.064I0.000J0.500
N18050G01Z-0.350F30.0
N18060G3X35.626Y73.564I-0.500J0.000F600.0
N18070G3X35.126Y73.064I0.000J-0.500
N18080G3X35.626Y72.564I0.500J0.000
N18090G3X36.126Y73.064I0.000J0.500
N18100G01Z-0.400F30.0
N18110G3X35.626Y73.564I-0.500J0.000F600.0
N18120G3X35.126Y73.064I0.000J-0.500
N18130G3X35.626Y72.564I0.500J0.000
N18140G3X36.126Y73.064I0.000J0.500
N18150G01Z-0.450F30.0
N18160G3X35.626Y73.564I-0.500J0.000F600.0
N18170G3X35.126Y73.064I0.000J-0.500
N18180G3X35.626Y72.564I0.500J0.000
N18190G3X36.126Y73.064I0.000J0.500
N18200G01Z-0.500F30.0
N18210G3X35.626Y73.564I-0.500J0.000F600.0
N18220G3X35.126Y73.064I0.000J-0.500
N18230G3X35.626Y72.564I0.500J0.000
N18240G3X36.126Y73.064I0.000J0.500
N18250G01Z-0.550F30.0
N18260G3X35.626Y73.564I-0.500J0.000F600.0
N18270G3X35.126Y73.064I0.000J-0.500
N18280G3X35.626Y72.564I0.500J0.000
N18290G3X36.126Y73.064I0.000J0.500
N18300G01Z-0.600F30.0
N18310G3X35.626Y73.564I-0.500J0.000F600.0
N18320G3X35.126Y73.064I0.000J-0.500
N18330G3X35.626Y72.564I0.500J0.000
N18340G3X36.126Y73.064I0.000J0.500
N18350G01Z-0.650F30.0
N18360G3X35.626Y73.564I-0.500J0.000F600.0
N18370G3X35.126Y73.064I0.000J-0.500
N18380G3X35.626Y72.564I0.500J0.000
N18390G3X36.126Y73.064I0.000J0.500
N18400G01Z-0.700F30.0
N18410G3X35.626Y73.564I-0.500J0.000F600.0
N18420G3X35.126Y73.064I0.000J-0.500
N18430G3X35.626Y72.564I0.500J0.000
N18440G3X36.126Y73.064I0.000J0.500
N18450G01Z-0.750F30.0
N18460G3X35.626Y73.564I-0.500J0.000F600.0
N18470G3X35.126Y73.064I0.000J-0.500
N18480G3X35.626Y72.564I0.500J0.000
N18490G3X36.126Y73.064I0.000J0.500
N18500G01Z-0.800F30.0
N18510G3X35.626Y73.564I-0.500J0.000F600.0
N18520G3X35.126Y73.064I0.000J-0.500
N18530G3X35.626Y72.564I0.500J0.000
N18540G3X36.126Y73.064I0.000J0.500
N18550G01Z-0.850F30.0
N18560G3X35.626Y73.564I-0.500J0.000F600.0
N18570G3X35.126Y73.064I0.000J-0.500
N18580G3X35.626Y72.564I0.500J0.000
N18590G3X36.126Y73.064I0.000J0.500
N18600G01Z-0.900F30.0
N18610G3X35.626Y73.564I-0.500J0.000F600.0
N18620G3X35.126Y73.064I0.000J-0.500
N18630G3X35.626Y72.564I0.500J0.000
N18640G3X36.126Y73.064I0.000J0.500
N18650G01Z-0.950F30.0
N18660G3X35.626Y73.564I-0.500J0.000F600.0
N18670G3X35.126Y73.064I0.000J-0.500
N18680G3X35.626Y72.564I0.500J0.000
N18690G3X36.126Y73.064I0.000J0.500
N18700G01Z-1.000F30.0
N18710G3X35.626Y73.564I-0.500J0.000F600.0
N18720G3X35.126Y73.064I0.000J-0.500
N18730G3X35.626Y72.564I0.500J0.000
N18740G3X36.126Y73.064I0.000J0.500
N18750G01Z-1.050F30.0
N18760G3X35.626Y73.564I-0.500J0.000F600.0
N18770G3X35.126Y73.064I0.000J-0.500
N18780G3X35.626Y72.564I0.500J0.000
N18790G3X36.126Y73.064I0.000J0.500
N18800G01Z-1.100F30.0
N18810G3X35.626Y73.564I-0.500J0.000F600.0
N18820G3X35.126Y73.064I0.000J-0.500
N18830G3X35.626Y72.564I0.500J0.000
N18840G3X36.126Y73.064I0.000J0.500
N18850G01Z-1.150F30.0
N18860G3X35.626Y73.564I-0.500J0.000F600.0
N18870G3X35.126Y73.064I0.000J-0.500
N18880G3X35.626Y72.564I0.500J0.000
N18890G3X36.126Y73.064I0.000J0.500
N18900G01Z-1.200F30.0
N18910G3X35.626Y73.564I-0.500J0.000F600.0
N18920G3X35.126Y73.064I0.000J-0.500
N18930G3X35.626Y72.564I0.500J0.000
N18940G3X36.126Y73.064I0.000J0.500
N18950G01Z-1.250F30.0
N18960G3X35.626Y73.564I-0.500J0.000F600.0
N18970G3X35.126Y73.064I0.000J-0.500
N18980G3X35.626Y72.564I0.500J0.000
N18990G3X36.126Y73.064I0.000J0.500
N19000G01Z-1.300F30.0
N19010G3X35.626Y73.564I-0.500J0.000F600.0
N19020G3X35.126Y73.064I0.000J-0.500
N19030G3X35.626Y72.564I0.500J0.000
N19040G3X36.126Y73.064I0.000J0.500
N19050G01Z-1.350F30.0
N19060G3X35.626Y73.564I-0.500J0.000F600.0
N19070G3X35.126Y73.064I0.000J-0.500
N19080G3X35.626Y72.564I0.500J0.000
N19090G3X36.126Y73.064I0.000J0.500
N19100G01Z-1.400F30.0
N19110G3X35.626Y73.564I-0.500J0.000F600.0
N19120G3X35.126Y73.064I0.000J-0.500
N19130G3X35.626Y72.564I0.500J0.000
N19140G3X36.126Y73.064I0.000J0.500
N19150G01Z-1.450F30.0
N19160G3X35.626Y73.564I-0.500J0.000F600.0
N19170G3X35.126Y73.064I0.000J-0.500
N19180G3X35.626Y72.564I0.500J0.000
N19190G3X36.126Y73.064I0.000J0.500
N19200G01Z-1.500F30.0
N19210G3X35.626Y73.564I-0.500J0.000F600.0
N19220G3X35.126Y73.064I0.000J-0.500
N19230G3X35.626Y72.564I0.500J0.000
N19240G3X36.126Y73.064I0.000J0.500
N19250G01Z-1.550F30.0
N19260G3X35.626Y73.564I-0.500J0.000F600.0
N19270G3X35.126Y73.064I0.000J-0.500
N19280G3X35.626Y72.564I0.500J0.000
N19290G3X36.126Y73.064I0.000J0.500
N19300G01Z-1.600F30.0
N19310G3X35.626Y73.564I-0.500J0.000F600.0
N19320G3X35.126Y73.064I0.000J-0.500
N19330G3X35.626Y72.564I0.500J0.000
N19340G3X36.126Y73.064I0.000J0.500
N19350G01Z-1.650F30.0
N19360G3X35.626Y73.564I-0.500J0.000F600.0
N19370G3X35.126Y73.064I0.000J-0.500
N19380G3X35.626Y72.564I0.500J0.000
N19390G3X36.126Y73.064I0.000J0.500
N19400G01Z-1.700F30.0
N19410G3X35.626Y73.564I-0.500J0.000F600.0
N19420G3X35.126Y73.064I0.000J-0.500
N19430G3X35.626Y72.564I0.500J0.000
N19440G3X36.126Y73.064I0.000J0.500
N19450G01Z-1.750F30.0
N19460G3X35.626Y73.564I-0.500J0.000F600.0
N19470G3X35.126Y73.064I0.000J-0.500
N19480G3X35.626Y72.564I0.500J0.000
N19490G3X36.126Y73.064I0.000J0.500
N19500G01Z-1.800F30.0
N19510G3X35.626Y73.564I-0.500J0.000F600.0
N19520G3X35.126Y73.064I0.000J-0.500
N19530G3X35.626Y72.564I0.500J0.000
N19540G3X36.126Y73.064I0.000J0.500
N19550G01Z-1.850F30.0
N19560G3X35.626Y73.564I-0.500J0.000F600.0
N19570G3X35.126Y73.064I0.000J-0.500
N19580G3X35.626Y72.564I0.500J0.000
N19590G3X36.126Y73.064I0.000J0.500
N19600G01Z-1.900F30.0
N19610G3X35.626Y73.564I-0.500J0.000F600.0
N19620G3X35.126Y73.064I0.000J-0.500
N19630G3X35.626Y72.564I0.500J0.000
N19640G3X36.126Y73.064I0.000J0.500
N19650G01Z-1.950F30.0
N19660G3X35.626Y73.564I-0.500J0.000F600.0
N19670G3X35.126Y73.064I0.000J-0.500
N19680G3X35.626Y72.564I0.500J0.000
N19690G3X36.126Y73.064I0.000J0.500
N19700G01Z-2.000F30.0
N19710G3X35.626Y73.564I-0.500J0.000F600.0
N19720G3X35.126Y73.064I0.000J-0.500
N19730G3X35.626Y72.564I0.500J0.000
N19740G3X36.126Y73.064I0.000J0.500
N19750G01Z-2.050F30.0
N19760G3X35.626Y73.564I-0.500J0.000F600.0
N19770G3X35.126Y73.064I0.000J-0.500
N19780G3X35.626Y72.564I0.500J0.000
N19790G3X36.126Y73.064I0.000J0.500
N19800G01Z-2.100F30.0
N19810G3X35.626Y73.564I-0.500J0.000F600.0
N19820G3X35.126Y73.064I0.000J-0.500
N19830G3X35.626Y72.564I0.500J0.000
N19840G3X36.126Y73.064I0.000J0.500
N19850G01Z-2.150F30.0
N19860G3X35.626Y73.564I-0.500J0.000F600.0
N19870G3X35.126Y73.064I0.000J-0.500
N19880G3X35.626Y72.564I0.500J0.000
N19890G3X36.126Y73.064I0.000J0.500
N19900G01Z-2.200F30.0
N19910G3X35.626Y73.564I-0.500J0.000F600.0
N19920G3X35.126Y73.064I0.000J-0.500
N19930G3X35.626Y72.564I0.500J0.000
N19940G3X36.126Y73.064I0.000J0.500
N19950G01Z-2.250F30.0
N19960G3X35.626Y73.564I-0.500J0.000F600.0
N19970G3X35.126Y73.064I0.000J-0.500
N19980G3X35.626Y72.564I0.500J0.000
N19990G3X36.126Y73.064I0.000J0.500
N20000G01Z-2.300F30.0
N20010G3X35.626Y73.564I-0.500J0.000F600.0
N20020G3X35.126Y73.064I0.000J-0.500
N20030G3X35.626Y72.564I0.500J0.000
N20040G3X36.126Y73.064I0.000J0.500
N20050G01Z-2.350F30.0
N20060G3X35.626Y73.564I-0.500J0.000F600.0
N20070G3X35.126Y73.064I0.000J-0.500
N20080G3X35.626Y72.564I0.500J0.000
N20090G3X36.126Y73.064I0.000J0.500
N20100G01Z-2.400F30.0
N20110G3X35.626Y73.564I-0.500J0.000F600.0
N20120G3X35.126Y73.064I0.000J-0.500
N20130G3X35.626Y72.564I0.500J0.000
N20140G3X36.126Y73.064I0.000J0.500
N20150G01Z-2.450F30.0
N20160G3X35.626Y73.564I-0.500J0.000F600.0
N20170G3X35.126Y73.064I0.000J-0.500
N20180G3X35.626Y72.564I0.500J0.000
N20190G3X36.126Y73.064I0.000J0.500
N20200G01Z-2.500F30.0
N20210G3X35.626Y73.564I-0.500J0.000F600.0
N20220G3X35.126Y73.064I0.000J-0.500
N20230G3X35.626Y72.564I0.500J0.000
N20240G3X36.126Y73.064I0.000J0.500
N20250G01Z-2.550F30.0
N20260G3X35.626Y73.564I-0.500J0.000F600.0
N20270G3X35.126Y73.064I0.000J-0.500
N20280G3X35.626Y72.564I0.500J0.000
N20290G3X36.126Y73.064I0.000J0.500
N20300G01Z-2.600F30.0
N20310G3X35.626Y73.564I-0.500J0.000F600.0
N20320G3X35.126Y73.064I0.000J-0.500
N20330G3X35.626Y72.564I0.500J0.000
N20340G3X36.126Y73.064I0.000J0.500
N20350G01Z-2.650F30.0
N20360G3X35.626Y73.564I-0.500J0.000F600.0
N20370G3X35.126Y73.064I0.000J-0.500
N20380G3X35.626Y72.564I0.500J0.000
N20390G3X36.126Y73.064I0.000J0.500
N20400G01Z-2.700F30.0
N20410G3X35.626Y73.564I-0.500J0.000F600.0
N20420G3X35.126Y73.064I0.000J-0.500
N20430G3X35.626Y72.564I0.500J0.000
N20440G3X36.126Y73.064I0.000J0.500
N20450G01Z-2.750F30.0
N20460G3X35.626Y73.564I-0.500J0.000F600.0
N20470G3X35.126Y73.064I0.000J-0.500
N20480G3X35.626Y72.564I0.500J0.000
N20490G3X36.126Y73.064I0.000J0.500
N20500G01Z-2.800F30.0
N20510G3X35.626Y73.564I-0.500J0.000F600.0
N20520G3X35.126Y73.064I0.000J-0.500
N20530G3X35.626Y72.564I0.500J0.000
N20540G3X36.126Y73.064I0.000J0.500
N20550G01Z-2.850F30.0
N20560G3X35.626Y73.564I-0.500J0.000F600.0
N20570G3X35.126Y73.064I0.000J-0.500
N20580G3X35.626Y72.564I0.500J0.000
N20590G3X36.126Y73.064I0.000J0.500
N20600G01Z-2.900F30.0
N20610G3X35.626Y73.564I-0.500J0.000F600.0
N20620G3X35.126Y73.064I0.000J-0.500
N20630G3X35.626Y72.564I0.500J0.000
N20640G3X36.126Y73.064I0.000J0.500
N20650G01Z-2.950F30.0
N20660G3X35.626Y73.564I-0.500J0.000F600.0
N20670G3X35.126Y73.064I0.000J-0.500
N20680G3X35.626Y72.564I0.500J0.000
N20690G3X36.126Y73.064I0.000J0.500
N20700G01Z-3.000F30.0
N20710G3X35.626Y73.564I-0.500J0.000F600.0
N20720G3X35.126Y73.064I0.000J-0.500
N20730G3X35.626Y72.564I0.500J0.000
N20740G3X36.126Y73.064I0.000J0.500
N20750G00Z6.000
N20760G00X42.786Y75.188
N20770G01Z-0.050F30.0
N20780G01X46.525F600.0
N20790X50.525
N20800X53.214
N20810G3Y95.688I-5.214J10.250
N20820G01X49.614
N20830X45.614
N20840X42.786
N20850G3Y75.188I5.214J-10.250
N20860G01Z-0.100F30.0
N20870G01X46.525F600.0
N20880X50.525
N20890X53.214
N20900G3Y95.688I-5.214J10.250
N20910G01X49.614
N20920X45.614
N20930X42.786
N20940G3Y75.188I5.214J-10.250
N20950G01Z-0.150F30.0
N20960G01X46.525F600.0
N20970X50.525
N20980X53.214
N20990G3Y95.688I-5.214J10.250
N21000G01X49.614
N21010X45.614
N21020X42.786
N21030G3Y75.188I5.214J-10.250
N21040G01Z-0.200F30.0
N21050G01X46.525F600.0
N21060X50.525
N21070X53.214
N21080G3Y95.688I-5.214J10.250
N21090G01X49.614
N21100X45.614
N21110X42.786
N21120G3Y75.188I5.214J-10.250
N21130G01Z-0.250F30.0
N21140G01X46.525F600.0
N21150X50.525
N21160X53.214
N21170G3Y95.688I-5.214J10.250
N21180G01X49.614
N21190X45.614
N21200X42.786
N21210G3Y75.188I5.214J-10.250
N21220G01Z-0.300F30.0
N21230G01X46.525F600.0
N21240X50.525
N21250X53.214
N21260G3Y95.688I-5.214J10.250
N21270G01X49.614
N21280X45.614
N21290X42.786
N21300G3Y75.188I5.214J-10.250
N21310G01Z-0.350F30.0
N21320G01X46.525F600.0
N21330X50.525
N21340X53.214
N21350G3Y95.688I-5.214J10.250
N21360G01X49.614
N21370X45.614
N21380X42.786
N21390G3Y75.188I5.214J-10.250
N21400G01Z-0.400F30.0
N21410G01X46.525F600.0
N21420X50.525
N21430X53.214
N21440G3Y95.688I-5.214J10.250
N21450G01X49.614
N21460X45.614
N21470X42.786
N21480G3Y75.188I5.214J-10.250
N21490G01Z-0.450F30.0
N21500G01X46.525F600.0
N21510X50.525
N21520X53.214
N21530G3Y95.688I-5.214J10.250
N21540G01X49.614
N21550X45.614
N21560X42.786
N21570G3Y75.188I5.214J-10.250
N21580G01Z-0.500F30.0
N21590G01X46.525F600.0
N21600X50.525
N21610X53.214
N21620G3Y95.688I-5.214J10.250
N21630G01X49.614
N21640X45.614
N21650X42.786
N21660G3Y75.188I5.214J-10.250
N21670G01Z-0.550F30.0
N21680G01X46.525F600.0
N21690X50.525
N21700X53.214
N21710G3Y95.688I-5.214J10.250
N21720G01X49.614
N21730X45.614
N21740X42.786
N21750G3Y75.188I5.214J-10.250
N21760G01Z-0.600F30.0
N21770G01X46.525F600.0
N21780X50.525
N21790X53.214
N21800G3Y95.688I-5.214J10.250
N21810G01X49.614
N21820X45.614
N21830X42.786
N21840G3Y75.188I5.214J-10.250
N21850G01Z-0.650F30.0
N21860G01X46.525F600.0
N21870X50.525
N21880X53.214
N21890G3Y95.688I-5.214J10.250
N21900G01X49.614
N21910X45.614
N21920X42.786
N21930G3Y75.188I5.214J-10.250
N21940G01Z-0.700F30.0
N21950G01X46.525F600.0
N21960X50.525
N21970X53.214
N21980G3Y95.688I-5.214J10.250
N21990G01X49.614
N22000X45.614
N22010X42.786
N22020G3Y75.188I5.214J-10.250
N22030G01Z-0.750F30.0
N22040G01X46.525F600.0
N22050X50.525
N22060X53.214
N22070G3Y95.688I-5.214J10.250
N22080G01X49.614
N22090X45.614
N22100X42.786
N22110G3Y75.188I5.214J-10.250
N22120G01Z-0.800F30.0
N22130G01X46.525F600.0
N22140X50.525
N22150X53.214
N22160G3Y95.688I-5.214J10.250
N22170G01X49.614
N22180X45.614
N22190X42.786
N22200G3Y75.188I5.214J-10.250
N22210G01Z-0.850F30.0
N22220G01X46.525F600.0
N22230X50.525
N22240X53.214
N22250G3Y95.688I-5.214J10.250
N22260G01X49.614
N22270X45.614
N22280X42.786
N22290G3Y75.188I5.214J-10.250
N22300G01Z-0.900F30.0
N22310G01X46.525F600.0
N22320X50.525
N22330X53.214
N22340G3Y95.688I-5.214J10.250
N22350G01X49.614
N22360X45.614
N22370X42.786
N22380G3Y75.188I5.214J-10.250
N22390G01Z-0.950F30.0
N22400G01X46.525F600.0
N22410X50.525
N22420X53.214
N22430G3Y95.688I-5.214J10.250
N22440G01X49.614
N22450X45.614
N22460X42.786
N22470G3Y75.188I5.214J-10.250
N22480G01Z-1.000F30.0
N22490G01X46.525F600.0
N22500X50.525
N22510X53.214
N22520G3Y95.688I-5.214J10.250
N22530G01X49.614
N22540X45.614
N22550X42.786
N22560G3Y75.188I5.214J-10.250
N22570G01Z-1.050F30.0
N22580G01X46.525F600.0
N22590X50.525
N22600X53.214
N22610G3Y95.688I-5.214J10.250
N22620G01X49.614
N22630X45.614
N22640X42.786
N22650G3Y75.188I5.214J-10.250
N22660G01Z-1.100F30.0
N22670G01X46.525F600.0
N22680X50.525
N22690X53.214
N22700G3Y95.688I-5.214J10.250
N22710G01X49.614
N22720X45.614
N22730X42.786
N22740G3Y75.188I5.214J-10.250
N22750G01Z-1.150F30.0
N22760G01X46.525F600.0
N22770X50.525
N22780X53.214
N22790G3Y95.688I-5.214J10.250
N22800G01X49.614
N22810X45.614
N22820X42.786
N22830G3Y75.188I5.214J-10.250
N22840G01Z-1.200F30.0
N22850G01X46.525F600.0
N22860X50.525
N22870X53.214
N22880G3Y95.688I-5.214J10.250
N22890G01X49.614
N22900X45.614
N22910X42.786
N22920G3Y75.188I5.214J-10.250
N22930G01Z-1.250F30.0
N22940G01X46.525F600.0
N22950X50.525
N22960X53.214
N22970G3Y95.688I-5.214J10.250
N22980G01X49.614
N22990X45.614
N23000X42.786
N23010G3Y75.188I5.214J-10.250
N23020G01Z-1.300F30.0
N23030G01X46.525F600.0
N23040X50.525
N23050X53.214
N23060G3Y95.688I-5.214J10.250
N23070G01X49.614
N23080X45.614
N23090X42.786
N23100G3Y75.188I5.214J-10.250
N23110G01Z-1.350F30.0
N23120G01X46.525F600.0
N23130X50.525
N23140X53.214
N23150G3Y95.688I-5.214J10.250
N23160G01X49.614
N23170X45.614
N23180X42.786
N23190G3Y75.188I5.214J-10.250
N23200G01Z-1.400F30.0
N23210G01X46.525F600.0
N23220X50.525
N23230X53.214
N23240G3Y95.688I-5.214J10.250
N23250G01X49.614
N23260X45.614
N23270X42.786
N23280G3Y75.188I5.214J-10.250
N23290G01Z-1.450F30.0
N23300G01X46.525F600.0
N23310X50.525
N23320X53.214
N23330G3Y95.688I-5.214J10.250
N23340G01X49.614
N23350X45.614
N23360X42.786
N23370G3Y75.188I5.214J-10.250
N23380G01Z-1.500F30.0
N23390G01X46.525F600.0
N23400X50.525
N23410X53.214
N23420G3Y95.688I-5.214J10.250
N23430G01X49.614
N23440X45.614
N23450X42.786
N23460G3Y75.188I5.214J-10.250
N23470G01Z-1.550F30.0
N23480G01X46.525F600.0
N23490X50.525
N23500X53.214
N23510G3Y95.688I-5.214J10.250
N23520G01X49.614
N23530X45.614
N23540X42.786
N23550G3Y75.188I5.214J-10.250
N23560G01Z-1.600F30.0
N23570G01X46.525F600.0
N23580X50.525
N23590X53.214
N23600G3Y95.688I-5.214J10.250
N23610G01X49.614
N23620X45.614
N23630X42.786
N23640G3Y75.188I5.214J-10.250
N23650G01Z-1.650F30.0
N23660G01X46.525F600.0
N23670X50.525
N23680X53.214
N23690G3Y95.688I-5.214J10.250
N23700G01X49.614
N23710X45.614
N23720X42.786
N23730G3Y75.188I5.214J-10.250
N23740G01Z-1.700F30.0
N23750G01X46.525F600.0
N23760X50.525
N23770X53.214
N23780G3Y95.688I-5.214J10.250
N23790G01X49.614
N23800X45.614
N23810X42.786
N23820G3Y75.188I5.214J-10.250
N23830G01Z-1.750F30.0
N23840G01X46.525F600.0
N23850X50.525
N23860X53.214
N23870G3Y95.688I-5.214J10.250
N23880G01X49.614
N23890X45.614
N23900X42.786
N23910G3Y75.188I5.214J-10.250
N23920G01Z-1.800F30.0
N23930G01X46.525F600.0
N23940X50.525
N23950X53.214
N23960G3Y95.688I-5.214J10.250
N23970G01X49.614
N23980X45.614
N23990X42.786
N24000G3Y75.188I5.214J-10.250
N24010G01Z-1.850F30.0
N24020G01X46.525F600.0
N24030X50.525
N24040X53.214
N24050G3Y95.688I-5.214J10.250
N24060G01X49.614
N24070X45.614
N24080X42.786
N24090G3Y75.188I5.214J-10.250
N24100G01Z-1.900F30.0
N24110G01X46.525F600.0
N24120X50.525
N24130X53.214
N24140G3Y95.688I-5.214J10.250
N24150G01X49.614
N24160X45.614
N24170X42.786
N24180G3Y75.188I5.214J-10.250
N24190G01Z-1.950F30.0
N24200G01X46.525F600.0
N24210X50.525
N24220X53.214
N24230G3Y95.688I-5.214J10.250
N24240G01X49.614
N24250X45.614
N24260X42.786
N24270G3Y75.188I5.214J-10.250
N24280G01Z-2.000F30.0
N24290G01X46.525F600.0
N24300X50.525
N24310X53.214
N24320G3Y95.688I-5.214J10.250
N24330G01X49.614
N24340X45.614
N24350X42.786
N24360G3Y75.188I5.214J-10.250
N24370G01Z-2.050F30.0
N24380G01X46.525F600.0
N24390X50.525
N24400X53.214
N24410G3Y95.688I-5.214J10.250
N24420G01X49.614
N24430X45.614
N24440X42.786
N24450G3Y75.188I5.214J-10.250
N24460G01Z-2.100F30.0
N24470G01X46.525F600.0
N24480X50.525
N24490X53.214
N24500G3Y95.688I-5.214J10.250
N24510G01X49.614
N24520X45.614
N24530X42.786
N24540G3Y75.188I5.214J-10.250
N24550G01Z-2.150F30.0
N24560G01X46.525F600.0
N24570X50.525
N24580X53.214
N24590G3Y95.688I-5.214J10.250
N24600G01X49.614
N24610X45.614
N24620X42.786
N24630G3Y75.188I5.214J-10.250
N24640G01Z-2.200F30.0
N24650G01X46.525F600.0
N24660X50.525
N24670X53.214
N24680G3Y95.688I-5.214J10.250
N24690G01X49.614
N24700X45.614
N24710X42.786
N24720G3Y75.188I5.214J-10.250
N24730G01Z-2.250F30.0
N24740G01X46.525F600.0
N24750X50.525
N24760X53.214
N24770G3Y95.688I-5.214J10.250
N24780G01X49.614
N24790X45.614
N24800X42.786
N24810G3Y75.188I5.214J-10.250
N24820G01Z-2.300F30.0
N24830G01X46.525F600.0
N24840X50.525
N24850X53.214
N24860G3Y95.688I-5.214J10.250
N24870G01X49.614
N24880X45.614
N24890X42.786
N24900G3Y75.188I5.214J-10.250
N24910G01Z-2.350F30.0
N24920G01X46.525F600.0
N24930X50.525
N24940X53.214
N24950G3Y95.688I-5.214J10.250
N24960G01X49.614
N24970X45.614
N24980X42.786
N24990G3Y75.188I5.214J-10.250
N25000G01Z-2.400F30.0
N25010G01X46.525F600.0
N25020X50.525
N25030X53.214
N25040G3Y95.688I-5.214J10.250
N25050G01X49.614
N25060X45.614
N25070X42.786
N25080G3Y75.188I5.214J-10.250
N25090G01Z-2.450F30.0
N25100G01X46.525F600.0
N25110X50.525
N25120X53.214
N25130G3Y95.688I-5.214J10.250
N25140G01X49.614
N25150X45.614
N25160X42.786
N25170G3Y75.188I5.214J-10.250
N25180G01Z-2.500F30.0
N25190G01X46.525F600.0
N25200X50.525
N25210X53.214
N25220G3Y95.688I-5.214J10.250
N25230G01X49.614
N25240X45.614
N25250X42.786
N25260G3Y75.188I5.214J-10.250
N25270G01Z-2.550F30.0
N25280G01X46.525F600.0
N25290X50.525
N25300X53.214
N25310G3Y95.688I-5.214J10.250
N25320G01X49.614
N25330X45.614
N25340X42.786
N25350G3Y75.188I5.214J-10.250
N25360G01Z-2.600F30.0
N25370G01X46.525F600.0
N25380X50.525
N25390X53.214
N25400G3Y95.688I-5.214J10.250
N25410G01X49.614
N25420X45.614
N25430X42.786
N25440G3Y75.188I5.214J-10.250
N25450G01Z-2.650F30.0
N25460G01X46.525F600.0
N25470X50.525
N25480X53.214
N25490G3Y95.688I-5.214J10.250
N25500G01X49.614
N25510X45.614
N25520X42.786
N25530G3Y75.188I5.214J-10.250
N25540G01Z-2.700F30.0
N25550G01X46.525F600.0
N25560X50.525
N25570X53.214
N25580G3Y95.688I-5.214J10.250
N25590G01X49.614
N25600X45.614
N25610X42.786
N25620G3Y75.188I5.214J-10.250
N25630G01Z-2.750F30.0
N25640G01X46.525F600.0
N25650X50.525
N25660X53.214
N25670G3Y95.688I-5.214J10.250
N25680G01X49.614
N25690X45.614
N25700X42.786
N25710G3Y75.188I5.214J-10.250
N25720G01Z-2.800F30.0
N25730G01X46.525F600.0
N25740X50.525
N25750X53.214
N25760G3Y95.688I-5.214J10.250
N25770G01X49.614
N25780X45.614
N25790X42.786
N25800G3Y75.188I5.214J-10.250
N25810G01Z-2.850F30.0
N25820G01X46.525F600.0
N25830Z-2.800
N25840X50.525
N25850G01Z-2.850F30.0
N25860G01X53.214F600.0
N25870G3Y95.688I-5.214J10.250
N25880G01X49.614
N25890Z-2.800
N25900X45.614
N25910G01Z-2.850F30.0
N25920G01X42.786F600.0
N25930G3Y75.188I5.214J-10.250
N25940G01Z-2.900F30.0
N25950G01X46.525F600.0
N25960Z-2.800
N25970X50.525
N25980G01Z-2.900F30.0
N25990G01X53.214F600.0
N26000G3Y95.688I-5.214J10.250
N26010G01X49.614
N26020Z-2.800
N26030X45.614
N26040G01Z-2.900F30.0
N26050G01X42.786F600.0
N26060G3Y75.188I5.214J-10.250
N26070G01Z-2.950F30.0
N26080G01X46.525F600.0
N26090Z-2.800
N26100X50.525
N26110G01Z-2.950F30.0
N26120G01X53.214F600.0
N26130G3Y95.688I-5.214J10.250
N26140G01X49.614
N26150Z-2.800
N26160X45.614
N26170G01Z-2.950F30.0
N26180G01X42.786F600.0
N26190G3Y75.188I5.214J-10.250
N26200G01Z-3.000F30.0
N26210G01X46.525F600.0
N26220Z-2.800
N26230X50.525
N26240G01Z-3.000F30.0
N26250G01X53.214F600.0
N26260G3Y95.688I-5.214J10.250
N26270G01X49.614
N26280Z-2.800
N26290X45.614
N26300G01Z-3.000F30.0
N26310G01X42.786F600.0
N26320G3Y75.188I5.214J-10.250
N26330G00Z6.000
N26340G00X60.874Y73.064
N26350G01Z-0.050F30.0
N26360G3X60.374Y73.564I-0.500J0.000F600.0
N26370G3X59.874Y73.064I0.000J-0.500
N26380G3X60.374Y72.564I0.500J0.000
N26390G3X60.874Y73.064I0.000J0.500
N26400G01Z-0.100F30.0
N26410G3X60.374Y73.564I-0.500J0.000F600.0
N26420G3X59.874Y73.064I0.000J-0.500
N26430G3X60.374Y72.564I0.500J0.000
N26440G3X60.874Y73.064I0.000J0.500
N26450G01Z-0.150F30.0
N26460G3X60.374Y73.564I-0.500J0.000F600.0
N26470G3X59.874Y73.064I0.000J-0.500
N26480G3X60.374Y72.564I0.500J0.000
N26490G3X60.874Y73.064I0.000J0.500
N26500G01Z-0.200F30.0
N26510G3X60.374Y73.564I-0.500J0.000F600.0
N26520G3X59.874Y73.064I0.000J-0.500
N26530G3X60.374Y72.564I0.500J0.000
N26540G3X60.874Y73.064I0.000J0.500
N26550G01Z-0.250F30.0
N26560G3X60.374Y73.564I-0.500J0.000F600.0
N26570G3X59.874Y73.064I0.000J-0.500
N26580G3X60.374Y72.564I0.500J0.000
N26590G3X60.874Y73.064I0.000J0.500
N26600G01Z-0.300F30.0
N26610G3X60.374Y73.564I-0.500J0.000F600.0
N26620G3X59.874Y73.064I0.000J-0.500
N26630G3X60.374Y72.564I0.500J0.000
N26640G3X60.874Y73.064I0.000J0.500
N26650G01Z-0.350F30.0
N26660G3X60.374Y73.564I-0.500J0.000F600.0
N26670G3X59.874Y73.064I0.000J-0.500
N26680G3X60.374Y72.564I0.500J0.000
N26690G3X60.874Y73.064I0.000J0.500
N26700G01Z-0.400F30.0
N26710G3X60.374Y73.564I-0.500J0.000F600.0
N26720G3X59.874Y73.064I0.000J-0.500
N26730G3X60.374Y72.564I0.500J0.000
N26740G3X60.874Y73.064I0.000J0.500
N26750G01Z-0.450F30.0
N26760G3X60.374Y73.564I-0.500J0.000F600.0
N26770G3X59.874Y73.064I0.000J-0.500
N26780G3X60.374Y72.564I0.500J0.000
N26790G3X60.874Y73.064I0.000J0.500
N26800G01Z-0.500F30.0
N26810G3X60.374Y73.564I-0.500J0.000F600.0
N26820G3X59.874Y73.064I0.000J-0.500
N26830G3X60.374Y72.564I0.500J0.000
N26840G3X60.874Y73.064I0.000J0.500
N26850G01Z-0.550F30.0
N26860G3X60.374Y73.564I-0.500J0.000F600.0
N26870G3X59.874Y73.064I0.000J-0.500
N26880G3X60.374Y72.564I0.500J0.000
N26890G3X60.874Y73.064I0.000J0.500
N26900G01Z-0.600F30.0
N26910G3X60.374Y73.564I-0.500J0.000F600.0
N26920G3X59.874Y73.064I0.000J-0.500
N26930G3X60.374Y72.564I0.500J0.000
N26940G3X60.874Y73.064I0.000J0.500
N26950G01Z-0.650F30.0
N26960G3X60.374Y73.564I-0.500J0.000F600.0
N26970G3X59.874Y73.064I0.000J-0.500
N26980G3X60.374Y72.564I0.500J0.000
N26990G3X60.874Y73.064I0.000J0.500
N27000G01Z-0.700F30.0
N27010G3X60.374Y73.564I-0.500J0.000F600.0
N27020G3X59.874Y73.064I0.000J-0.500
N27030G3X60.374Y72.564I0.500J0.000
N27040G3X60.874Y73.064I0.000J0.500
N27050G01Z-0.750F30.0
N27060G3X60.374Y73.564I-0.500J0.000F600.0
N27070G3X59.874Y73.064I0.000J-0.500
N27080G3X60.374Y72.564I0.500J0.000
N27090G3X60.874Y73.064I0.000J0.500
N27100G01Z-0.800F30.0
N27110G3X60.374Y73.564I-0.500J0.000F600.0
N27120G3X59.874Y73.064I0.000J-0.500
N27130G3X60.374Y72.564I0.500J0.000
N27140G3X60.874Y73.064I0.000J0.500
N27150G01Z-0.850F30.0
N27160G3X60.374Y73.564I-0.500J0.000F600.0
N27170G3X59.874Y73.064I0.000J-0.500
N27180G3X60.374Y72.564I0.500J0.000
N27190G3X60.874Y73.064I0.000J0.500
N27200G01Z-0.900F30.0
N27210G3X60.374Y73.564I-0.500J0.000F600.0
N27220G3X59.874Y73.064I0.000J-0.500
N27230G3X60.374Y72.564I0.500J0.000
N27240G3X60.874Y73.064I0.000J0.500
N27250G01Z-0.950F30.0
N27260G3X60.374Y73.564I-0.500J0.000F600.0
N27270G3X59.874Y73.064I0.000J-0.500
N27280G3X60.374Y72.564I0.500J0.000
N27290G3X60.874Y73.064I0.000J0.500
N27300G01Z-1.000F30.0
N27310G3X60.374Y73.564I-0.500J0.000F600.0
N27320G3X59.874Y73.064I0.000J-0.500
N27330G3X60.374Y72.564I0.500J0.000
N27340G3X60.874Y73.064I0.000J0.500
N27350G01Z-1.050F30.0
N27360G3X60.374Y73.564I-0.500J0.000F600.0
N27370G3X59.874Y73.064I0.000J-0.500
N27380G3X60.374Y72.564I0.500J0.000
N27390G3X60.874Y73.064I0.000J0.500
N27400G01Z-1.100F30.0
N27410G3X60.374Y73.564I-0.500J0.000F600.0
N27420G3X59.874Y73.064I0.000J-0.500
N27430G3X60.374Y72.564I0.500J0.000
N27440G3X60.874Y73.064I0.000J0.500
N27450G01Z-1.150F30.0
N27460G3X60.374Y73.564I-0.500J0.000F600.0
N27470G3X59.874Y73.064I0.000J-0.500
N27480G3X60.374Y72.564I0.500J0.000
N27490G3X60.874Y73.064I0.000J0.500
N27500G01Z-1.200F30.0
N27510G3X60.374Y73.564I-0.500J0.000F600.0
N27520G3X59.874Y73.064I0.000J-0.500
N27530G3X60.374Y72.564I0.500J0.000
N27540G3X60.874Y73.064I0.000J0.500
N27550G01Z-1.250F30.0
N27560G3X60.374Y73.564I-0.500J0.000F600.0
N27570G3X59.874Y73.064I0.000J-0.500
N27580G3X60.374Y72.564I0.500J0.000
N27590G3X60.874Y73.064I0.000J0.500
N27600G01Z-1.300F30.0
N27610G3X60.374Y73.564I-0.500J0.000F600.0
N27620G3X59.874Y73.064I0.000J-0.500
N27630G3X60.374Y72.564I0.500J0.000
N27640G3X60.874Y73.064I0.000J0.500
N27650G01Z-1.350F30.0
N27660G3X60.374Y73.564I-0.500J0.000F600.0
N27670G3X59.874Y73.064I0.000J-0.500
N27680G3X60.374Y72.564I0.500J0.000
N27690G3X60.874Y73.064I0.000J0.500
N27700G01Z-1.400F30.0
N27710G3X60.374Y73.564I-0.500J0.000F600.0
N27720G3X59.874Y73.064I0.000J-0.500
N27730G3X60.374Y72.564I0.500J0.000
N27740G3X60.874Y73.064I0.000J0.500
N27750G01Z-1.450F30.0
N27760G3X60.374Y73.564I-0.500J0.000F600.0
N27770G3X59.874Y73.064I0.000J-0.500
N27780G3X60.374Y72.564I0.500J0.000
N27790G3X60.874Y73.064I0.000J0.500
N27800G01Z-1.500F30.0
N27810G3X60.374Y73.564I-0.500J0.000F600.0
N27820G3X59.874Y73.064I0.000J-0.500
N27830G3X60.374Y72.564I0.500J0.000
N27840G3X60.874Y73.064I0.000J0.500
N27850G01Z-1.550F30.0
N27860G3X60.374Y73.564I-0.500J0.000F600.0
N27870G3X59.874Y73.064I0.000J-0.500
N27880G3X60.374Y72.564I0.500J0.000
N27890G3X60.874Y73.064I0.000J0.500
N27900G01Z-1.600F30.0
N27910G3X60.374Y73.564I-0.500J0.000F600.0
N27920G3X59.874Y73.064I0.000J-0.500
N27930G3X60.374Y72.564I0.500J0.000
N27940G3X60.874Y73.064I0.000J0.500
N27950G01Z-1.650F30.0
N27960G3X60.374Y73.564I-0.500J0.000F600.0
N27970G3X59.874Y73.064I0.000J-0.500
N27980G3X60.374Y72.564I0.500J0.000
N27990G3X60.874Y73.064I0.000J0.500
N28000G01Z-1.700F30.0
N28010G3X60.374Y73.564I-0.500J0.000F600.0
N28020G3X59.874Y73.064I0.000J-0.500
N28030G3X60.374Y72.564I0.500J0.000
N28040G3X60.874Y73.064I0.000J0.500
N28050G01Z-1.750F30.0
N28060G3X60.374Y73.564I-0.500J0.000F600.0
N28070G3X59.874Y73.064I0.000J-0.500
N28080G3X60.374Y72.564I0.500J0.000
N28090G3X60.874Y73.064I0.000J0.500
N28100G01Z-1.800F30.0
N28110G3X60.374Y73.564I-0.500J0.000F600.0
N28120G3X59.874Y73.064I0.000J-0.500
N28130G3X60.374Y72.564I0.500J0.000
N28140G3X60.874Y73.064I0.000J0.500
N28150G01Z-1.850F30.0
N28160G3X60.374Y73.564I-0.500J0.000F600.0
N28170G3X59.874Y73.064I0.000J-0.500
N28180G3X60.374Y72.564I0.500J0.000
N28190G3X60.874Y73.064I0.000J0.500
N28200G01Z-1.900F30.0
N28210G3X60.374Y73.564I-0.500J0.000F600.0
N28220G3X59.874Y73.064I0.000J-0.500
N28230G3X60.374Y72.564I0.500J0.000
N28240G3X60.874Y73.064I0.000J0.500
N28250G01Z-1.950F30.0
N28260G3X60.374Y73.564I-0.500J0.000F600.0
N28270G3X59.874Y73.064I0.000J-0.500
N28280G3X60.374Y72.564I0.500J0.000
N28290G3X60.874Y73.064I0.000J0.500
N28300G01Z-2.000F30.0
N28310G3X60.374Y73.564I-0.500J0.000F600.0
N28320G3X59.874Y73.064I0.000J-0.500
N28330G3X60.374Y72.564I0.500J0.000
N28340G3X60.874Y73.064I0.000J0.500
N28350G01Z-2.050F30.0
N28360G3X60.374Y73.564I-0.500J0.000F600.0
N28370G3X59.874Y73.064I0.000J-0.500
N28380G3X60.374Y72.564I0.500J0.000
N28390G3X60.874Y73.064I0.000J0.500
N28400G01Z-2.100F30.0
N28410G3X60.374Y73.564I-0.500J0.000F600.0
N28420G3X59.874Y73.064I0.000J-0.500
N28430G3X60.374Y72.564I0.500J0.000
N28440G3X60.874Y73.064I0.000J0.500
N28450G01Z-2.150F30.0
N28460G3X60.374Y73.564I-0.500J0.000F600.0
N28470G3X59.874Y73.064I0.000J-0.500
N28480G3X60.374Y72.564I0.500J0.000
N28490G3X60.874Y73.064I0.000J0.500
N28500G01Z-2.200F30.0
N28510G3X60.374Y73.564I-0.500J0.000F600.0
N28520G3X59.874Y73.064I0.000J-0.500
N28530G3X60.374Y72.564I0.500J0.000
N28540G3X60.874Y73.064I0.000J0.500
N28550G01Z-2.250F30.0
N28560G3X60.374Y73.564I-0.500J0.000F600.0
N28570G3X59.874Y73.064I0.000J-0.500
N28580G3X60.374Y72.564I0.500J0.000
N28590G3X60.874Y73.064I0.000J0.500
N28600G01Z-2.300F30.0
N28610G3X60.374Y73.564I-0.500J0.000F600.0
N28620G3X59.874Y73.064I0.000J-0.500
N28630G3X60.374Y72.564I0.500J0.000
N28640G3X60.874Y73.064I0.000J0.500
N28650G01Z-2.350F30.0
N28660G3X60.374Y73.564I-0.500J0.000F600.0
N28670G3X59.874Y73.064I0.000J-0.500
N28680G3X60.374Y72.564I0.500J0.000
N28690G3X60.874Y73.064I0.000J0.500
N28700G01Z-2.400F30.0
N28710G3X60.374Y73.564I-0.500J0.000F600.0
N28720G3X59.874Y73.064I0.000J-0.500
N28730G3X60.374Y72.564I0.500J0.000
N28740G3X60.874Y73.064I0.000J0.500
N28750G01Z-2.450F30.0
N28760G3X60.374Y73.564I-0.500J0.000F600.0
N28770G3X59.874Y73.064I0.000J-0.500
N28780G3X60.374Y72.564I0.500J0.000
N28790G3X60.874Y73.064I0.000J0.500
N28800G01Z-2.500F30.0
N28810G3X60.374Y73.564I-0.500J0.000F600.0
N28820G3X59.874Y73.064I0.000J-0.500
N28830G3X60.374Y72.564I0.500J0.000
N28840G3X60.874Y73.064I0.000J0.500
N28850G01Z-2.550F30.0
N28860G3X60.374Y73.564I-0.500J0.000F600.0
N28870G3X59.874Y73.064I0.000J-0.500
N28880G3X60.374Y72.564I0.500J0.000
N28890G3X60.874Y73.064I0.000J0.500
N28900G01Z-2.600F30.0
N28910G3X60.374Y73.564I-0.500J0.000F600.0
N28920G3X59.874Y73.064I0.000J-0.500
N28930G3X60.374Y72.564I0.500J0.000
N28940G3X60.874Y73.064I0.000J0.500
N28950G01Z-2.650F30.0
N28960G3X60.374Y73.564I-0.500J0.000F600.0
N28970G3X59.874Y73.064I0.000J-0.500
N28980G3X60.374Y72.564I0.500J0.000
N28990G3X60.874Y73.064I0.000J0.500
N29000G01Z-2.700F30.0
N29010G3X60.374Y73.564I-0.500J0.000F600.0
N29020G3X59.874Y73.064I0.000J-0.500
N29030G3X60.374Y72.564I0.500J0.000
N29040G3X60.874Y73.064I0.000J0.500
N29050G01Z-2.750F30.0
N29060G3X60.374Y73.564I-0.500J0.000F600.0
N29070G3X59.874Y73.064I0.000J-0.500
N29080G3X60.374Y72.564I0.500J0.000
N29090G3X60.874Y73.064I0.000J0.500
N29100G01Z-2.800F30.0
N29110G3X60.374Y73.564I-0.500J0.000F600.0
N29120G3X59.874Y73.064I0.000J-0.500
N29130G3X60.374Y72.564I0.500J0.000
N29140G3X60.874Y73.064I0.000J0.500
N29150G01Z-2.850F30.0
N29160G3X60.374Y73.564I-0.500J0.000F600.0
N29170G3X59.874Y73.064I0.000J-0.500
N29180G3X60.374Y72.564I0.500J0.000
N29190G3X60.874Y73.064I0.000J0.500
N29200G01Z-2.900F30.0
N29210G3X60.374Y73.564I-0.500J0.000F600.0
N29220G3X59.874Y73.064I0.000J-0.500
N29230G3X60.374Y72.564I0.500J0.000
N29240G3X60.874Y73.064I0.000J0.500
N29250G01Z-2.950F30.0
N29260G3X60.374Y73.564I-0.500J0.000F600.0
N29270G3X59.874Y73.064I0.000J-0.500
N29280G3X60.374Y72.564I0.500J0.000
N29290G3X60.874Y73.064I0.000J0.500
N29300G01Z-3.000F30.0
N29310G3X60.374Y73.564I-0.500J0.000F600.0
N29320G3X59.874Y73.064I0.000J-0.500
N29330G3X60.374Y72.564I0.500J0.000
N29340G3X60.874Y73.064I0.000J0.500
N29350G00Z6.000
N29360G00Y97.813
N29370G01Z-0.050F30.0
N29380G3X60.374Y98.313I-0.500J0.000F600.0
N29390G3X59.874Y97.813I0.000J-0.500
N29400G3X60.374Y97.313I0.500J0.000
N29410G3X60.874Y97.813I0.000J0.500
N29420G01Z-0.100F30.0
N29430G3X60.374Y98.313I-0.500J0.000F600.0
N29440G3X59.874Y97.813I0.000J-0.500
N29450G3X60.374Y97.313I0.500J0.000
N29460G3X60.874Y97.813I0.000J0.500
N29470G01Z-0.150F30.0
N29480G3X60.374Y98.313I-0.500J0.000F600.0
N29490G3X59.874Y97.813I0.000J-0.500
N29500G3X60.374Y97.313I0.500J0.000
N29510G3X60.874Y97.813I0.000J0.500
N29520G01Z-0.200F30.0
N29530G3X60.374Y98.313I-0.500J0.000F600.0
N29540G3X59.874Y97.813I0.000J-0.500
N29550G3X60.374Y97.313I0.500J0.000
N29560G3X60.874Y97.813I0.000J0.500
N29570G01Z-0.250F30.0
N29580G3X60.374Y98.313I-0.500J0.000F600.0
N29590G3X59.874Y97.813I0.000J-0.500
N29600G3X60.374Y97.313I0.500J0.000
N29610G3X60.874Y97.813I0.000J0.500
N29620G01Z-0.300F30.0
N29630G3X60.374Y98.313I-0.500J0.000F600.0
N29640G3X59.874Y97.813I0.000J-0.500
N29650G3X60.374Y97.313I0.500J0.000
N29660G3X60.874Y97.813I0.000J0.500
N29670G01Z-0.350F30.0
N29680G3X60.374Y98.313I-0.500J0.000F600.0
N29690G3X59.874Y97.813I0.000J-0.500
N29700G3X60.374Y97.313I0.500J0.000
N29710G3X60.874Y97.813I0.000J0.500
N29720G01Z-0.400F30.0
N29730G3X60.374Y98.313I-0.500J0.000F600.0
N29740G3X59.874Y97.813I0.000J-0.500
N29750G3X60.374Y97.313I0.500J0.000
N29760G3X60.874Y97.813I0.000J0.500
N29770G01Z-0.450F30.0
N29780G3X60.374Y98.313I-0.500J0.000F600.0
N29790G3X59.874Y97.813I0.000J-0.500
N29800G3X60.374Y97.313I0.500J0.000
N29810G3X60.874Y97.813I0.000J0.500
N29820G01Z-0.500F30.0
N29830G3X60.374Y98.313I-0.500J0.000F600.0
N29840G3X59.874Y97.813I0.000J-0.500
N29850G3X60.374Y97.313I0.500J0.000
N29860G3X60.874Y97.813I0.000J0.500
N29870G01Z-0.550F30.0
N29880G3X60.374Y98.313I-0.500J0.000F600.0
N29890G3X59.874Y97.813I0.000J-0.500
N29900G3X60.374Y97.313I0.500J0.000
N29910G3X60.874Y97.813I0.000J0.500
N29920G01Z-0.600F30.0
N29930G3X60.374Y98.313I-0.500J0.000F600.0
N29940G3X59.874Y97.813I0.000J-0.500
N29950G3X60.374Y97.313I0.500J0.000
N29960G3X60.874Y97.813I0.000J0.500
N29970G01Z-0.650F30.0
N29980G3X60.374Y98.313I-0.500J0.000F600.0
N29990G3X59.874Y97.813I0.000J-0.500
N30000G3X60.374Y97.313I0.500J0.000
N30010G3X60.874Y97.813I0.000J0.500
N30020G01Z-0.700F30.0
N30030G3X60.374Y98.313I-0.500J0.000F600.0
N30040G3X59.874Y97.813I0.000J-0.500
N30050G3X60.374Y97.313I0.500J0.000
N30060G3X60.874Y97.813I0.000J0.500
N30070G01Z-0.750F30.0
N30080G3X60.374Y98.313I-0.500J0.000F600.0
N30090G3X59.874Y97.813I0.000J-0.500
N30100G3X60.374Y97.313I0.500J0.000
N30110G3X60.874Y97.813I0.000J0.500
N30120G01Z-0.800F30.0
N30130G3X60.374Y98.313I-0.500J0.000F600.0
N30140G3X59.874Y97.813I0.000J-0.500
N30150G3X60.374Y97.313I0.500J0.000
N30160G3X60.874Y97.813I0.000J0.500
N30170G01Z-0.850F30.0
N30180G3X60.374Y98.313I-0.500J0.000F600.0
N30190G3X59.874Y97.813I0.000J-0.500
N30200G3X60.374Y97.313I0.500J0.000
N30210G3X60.874Y97.813I0.000J0.500
N30220G01Z-0.900F30.0
N30230G3X60.374Y98.313I-0.500J0.000F600.0
N30240G3X59.874Y97.813I0.000J-0.500
N30250G3X60.374Y97.313I0.500J0.000
N30260G3X60.874Y97.813I0.000J0.500
N30270G01Z-0.950F30.0
N30280G3X60.374Y98.313I-0.500J0.000F600.0
N30290G3X59.874Y97.813I0.000J-0.500
N30300G3X60.374Y97.313I0.500J0.000
N30310G3X60.874Y97.813I0.000J0.500
N30320G01Z-1.000F30.0
N30330G3X60.374Y98.313I-0.500J0.000F600.0
N30340G3X59.874Y97.813I0.000J-0.500
N30350G3X60.374Y97.313I0.500J0.000
N30360G3X60.874Y97.813I0.000J0.500
N30370G01Z-1.050F30.0
N30380G3X60.374Y98.313I-0.500J0.000F600.0
N30390G3X59.874Y97.813I0.000J-0.500
N30400G3X60.374Y97.313I0.500J0.000
N30410G3X60.874Y97.813I0.000J0.500
N30420G01Z-1.100F30.0
N30430G3X60.374Y98.313I-0.500J0.000F600.0
N30440G3X59.874Y97.813I0.000J-0.500
N30450G3X60.374Y97.313I0.500J0.000
N30460G3X60.874Y97.813I0.000J0.500
N30470G01Z-1.150F30.0
N30480G3X60.374Y98.313I-0.500J0.000F600.0
N30490G3X59.874Y97.813I0.000J-0.500
N30500G3X60.374Y97.313I0.500J0.000
N30510G3X60.874Y97.813I0.000J0.500
N30520G01Z-1.200F30.0
N30530G3X60.374Y98.313I-0.500J0.000F600.0
N30540G3X59.874Y97.813I0.000J-0.500
N30550G3X60.374Y97.313I0.500J0.000
N30560G3X60.874Y97.813I0.000J0.500
N30570G01Z-1.250F30.0
N30580G3X60.374Y98.313I-0.500J0.000F600.0
N30590G3X59.874Y97.813I0.000J-0.500
N30600G3X60.374Y97.313I0.500J0.000
N30610G3X60.874Y97.813I0.000J0.500
N30620G01Z-1.300F30.0
N30630G3X60.374Y98.313I-0.500J0.000F600.0
N30640G3X59.874Y97.813I0.000J-0.500
N30650G3X60.374Y97.313I0.500J0.000
N30660G3X60.874Y97.813I0.000J0.500
N30670G01Z-1.350F30.0
N30680G3X60.374Y98.313I-0.500J0.000F600.0
N30690G3X59.874Y97.813I0.000J-0.500
N30700G3X60.374Y97.313I0.500J0.000
N30710G3X60.874Y97.813I0.000J0.500
N30720G01Z-1.400F30.0
N30730G3X60.374Y98.313I-0.500J0.000F600.0
N30740G3X59.874Y97.813I0.000J-0.500
N30750G3X60.374Y97.313I0.500J0.000
N30760G3X60.874Y97.813I0.000J0.500
N30770G01Z-1.450F30.0
N30780G3X60.374Y98.313I-0.500J0.000F600.0
N30790G3X59.874Y97.813I0.000J-0.500
N30800G3X60.374Y97.313I0.500J0.000
N30810G3X60.874Y97.813I0.000J0.500
N30820G01Z-1.500F30.0
N30830G3X60.374Y98.313I-0.500J0.000F600.0
N30840G3X59.874Y97.813I0.000J-0.500
N30850G3X60.374Y97.313I0.500J0.000
N30860G3X60.874Y97.813I0.000J0.500
N30870G01Z-1.550F30.0
N30880G3X60.374Y98.313I-0.500J0.000F600.0
N30890G3X59.874Y97.813I0.000J-0.500
N30900G3X60.374Y97.313I0.500J0.000
N30910G3X60.874Y97.813I0.000J0.500
N30920G01Z-1.600F30.0
N30930G3X60.374Y98.313I-0.500J0.000F600.0
N30940G3X59.874Y97.813I0.000J-0.500
N30950G3X60.374Y97.313I0.500J0.000
N30960G3X60.874Y97.813I0.000J0.500
N30970G01Z-1.650F30.0
N30980G3X60.374Y98.313I-0.500J0.000F600.0
N30990G3X59.874Y97.813I0.000J-0.500
N31000G3X60.374Y97.313I0.500J0.000
N31010G3X60.874Y97.813I0.000J0.500
N31020G01Z-1.700F30.0
N31030G3X60.374Y98.313I-0.500J0.000F600.0
N31040G3X59.874Y97.813I0.000J-0.500
N31050G3X60.374Y97.313I0.500J0.000
N31060G3X60.874Y97.813I0.000J0.500
N31070G01Z-1.750F30.0
N31080G3X60.374Y98.313I-0.500J0.000F600.0
N31090G3X59.874Y97.813I0.000J-0.500
N31100G3X60.374Y97.313I0.500J0.000
N31110G3X60.874Y97.813I0.000J0.500
N31120G01Z-1.800F30.0
N31130G3X60.374Y98.313I-0.500J0.000F600.0
N31140G3X59.874Y97.813I0.000J-0.500
N31150G3X60.374Y97.313I0.500J0.000
N31160G3X60.874Y97.813I0.000J0.500
N31170G01Z-1.850F30.0
N31180G3X60.374Y98.313I-0.500J0.000F600.0
N31190G3X59.874Y97.813I0.000J-0.500
N31200G3X60.374Y97.313I0.500J0.000
N31210G3X60.874Y97.813I0.000J0.500
N31220G01Z-1.900F30.0
N31230G3X60.374Y98.313I-0.500J0.000F600.0
N31240G3X59.874Y97.813I0.000J-0.500
N31250G3X60.374Y97.313I0.500J0.000
N31260G3X60.874Y97.813I0.000J0.500
N31270G01Z-1.950F30.0
N31280G3X60.374Y98.313I-0.500J0.000F600.0
N31290G3X59.874Y97.813I0.000J-0.500
N31300G3X60.374Y97.313I0.500J0.000
N31310G3X60.874Y97.813I0.000J0.500
N31320G01Z-2.000F30.0
N31330G3X60.374Y98.313I-0.500J0.000F600.0
N31340G3X59.874Y97.813I0.000J-0.500
N31350G3X60.374Y97.313I0.500J0.000
N31360G3X60.874Y97.813I0.000J0.500
N31370G01Z-2.050F30.0
N31380G3X60.374Y98.313I-0.500J0.000F600.0
N31390G3X59.874Y97.813I0.000J-0.500
N31400G3X60.374Y97.313I0.500J0.000
N31410G3X60.874Y97.813I0.000J0.500
N31420G01Z-2.100F30.0
N31430G3X60.374Y98.313I-0.500J0.000F600.0
N31440G3X59.874Y97.813I0.000J-0.500
N31450G3X60.374Y97.313I0.500J0.000
N31460G3X60.874Y97.813I0.000J0.500
N31470G01Z-2.150F30.0
N31480G3X60.374Y98.313I-0.500J0.000F600.0
N31490G3X59.874Y97.813I0.000J-0.500
N31500G3X60.374Y97.313I0.500J0.000
N31510G3X60.874Y97.813I0.000J0.500
N31520G01Z-2.200F30.0
N31530G3X60.374Y98.313I-0.500J0.000F600.0
N31540G3X59.874Y97.813I0.000J-0.500
N31550G3X60.374Y97.313I0.500J0.000
N31560G3X60.874Y97.813I0.000J0.500
N31570G01Z-2.250F30.0
N31580G3X60.374Y98.313I-0.500J0.000F600.0
N31590G3X59.874Y97.813I0.000J-0.500
N31600G3X60.374Y97.313I0.500J0.000
N31610G3X60.874Y97.813I0.000J0.500
N31620G01Z-2.300F30.0
N31630G3X60.374Y98.313I-0.500J0.000F600.0
N31640G3X59.874Y97.813I0.000J-0.500
N31650G3X60.374Y97.313I0.500J0.000
N31660G3X60.874Y97.813I0.000J0.500
N31670G01Z-2.350F30.0
N31680G3X60.374Y98.313I-0.500J0.000F600.0
N31690G3X59.874Y97.813I0.000J-0.500
N31700G3X60.374Y97.313I0.500J0.000
N31710G3X60.874Y97.813I0.000J0.500
N31720G01Z-2.400F30.0
N31730G3X60.374Y98.313I-0.500J0.000F600.0
N31740G3X59.874Y97.813I0.000J-0.500
N31750G3X60.374Y97.313I0.500J0.000
N31760G3X60.874Y97.813I0.000J0.500
N31770G01Z-2.450F30.0
N31780G3X60.374Y98.313I-0.500J0.000F600.0
N31790G3X59.874Y97.813I0.000J-0.500
N31800G3X60.374Y97.313I0.500J0.000
N31810G3X60.874Y97.813I0.000J0.500
N31820G01Z-2.500F30.0
N31830G3X60.374Y98.313I-0.500J0.000F600.0
N31840G3X59.874Y97.813I0.000J-0.500
N31850G3X60.374Y97.313I0.500J0.000
N31860G3X60.874Y97.813I0.000J0.500
N31870G01Z-2.550F30.0
N31880G3X60.374Y98.313I-0.500J0.000F600.0
N31890G3X59.874Y97.813I0.000J-0.500
N31900G3X60.374Y97.313I0.500J0.000
N31910G3X60.874Y97.813I0.000J0.500
N31920G01Z-2.600F30.0
N31930G3X60.374Y98.313I-0.500J0.000F600.0
N31940G3X59.874Y97.813I0.000J-0.500
N31950G3X60.374Y97.313I0.500J0.000
N31960G3X60.874Y97.813I0.000J0.500
N31970G01Z-2.650F30.0
N31980G3X60.374Y98.313I-0.500J0.000F600.0
N31990G3X59.874Y97.813I0.000J-0.500
N32000G3X60.374Y97.313I0.500J0.000
N32010G3X60.874Y97.813I0.000J0.500
N32020G01Z-2.700F30.0
N32030G3X60.374Y98.313I-0.500J0.000F600.0
N32040G3X59.874Y97.813I0.000J-0.500
N32050G3X60.374Y97.313I0.500J0.000
N32060G3X60.874Y97.813I0.000J0.500
N32070G01Z-2.750F30.0
N32080G3X60.374Y98.313I-0.500J0.000F600.0
N32090G3X59.874Y97.813I0.000J-0.500
N32100G3X60.374Y97.313I0.500J0.000
N32110G3X60.874Y97.813I0.000J0.500
N32120G01Z-2.800F30.0
N32130G3X60.374Y98.313I-0.500J0.000F600.0
N32140G3X59.874Y97.813I0.000J-0.500
N32150G3X60.374Y97.313I0.500J0.000
N32160G3X60.874Y97.813I0.000J0.500
N32170G01Z-2.850F30.0
N32180G3X60.374Y98.313I-0.500J0.000F600.0
N32190G3X59.874Y97.813I0.000J-0.500
N32200G3X60.374Y97.313I0.500J0.000
N32210G3X60.874Y97.813I0.000J0.500
N32220G01Z-2.900F30.0
N32230G3X60.374Y98.313I-0.500J0.000F600.0
N32240G3X59.874Y97.813I0.000J-0.500
N32250G3X60.374Y97.313I0.500J0.000
N32260G3X60.874Y97.813I0.000J0.500
N32270G01Z-2.950F30.0
N32280G3X60.374Y98.313I-0.500J0.000F600.0
N32290G3X59.874Y97.813I0.000J-0.500
N32300G3X60.374Y97.313I0.500J0.000
N32310G3X60.874Y97.813I0.000J0.500
N32320G01Z-3.000F30.0
N32330G3X60.374Y98.313I-0.500J0.000F600.0
N32340G3X59.874Y97.813I0.000J-0.500
N32350G3X60.374Y97.313I0.500J0.000
N32360G3X60.874Y97.813I0.000J0.500
N32370G00Z6.000
N32380G00X36.126
N32390G01Z-0.050F30.0
N32400G3X35.626Y98.313I-0.500J0.000F600.0
N32410G3X35.126Y97.813I0.000J-0.500
N32420G3X35.626Y97.313I0.500J0.000
N32430G3X36.126Y97.813I0.000J0.500
N32440G01Z-0.100F30.0
N32450G3X35.626Y98.313I-0.500J0.000F600.0
N32460G3X35.126Y97.813I0.000J-0.500
N32470G3X35.626Y97.313I0.500J0.000
N32480G3X36.126Y97.813I0.000J0.500
N32490G01Z-0.150F30.0
N32500G3X35.626Y98.313I-0.500J0.000F600.0
N32510G3X35.126Y97.813I0.000J-0.500
N32520G3X35.626Y97.313I0.500J0.000
N32530G3X36.126Y97.813I0.000J0.500
N32540G01Z-0.200F30.0
N32550G3X35.626Y98.313I-0.500J0.000F600.0
N32560G3X35.126Y97.813I0.000J-0.500
N32570G3X35.626Y97.313I0.500J0.000
N32580G3X36.126Y97.813I0.000J0.500
N32590G01Z-0.250F30.0
N32600G3X35.626Y98.313I-0.500J0.000F600.0
N32610G3X35.126Y97.813I0.000J-0.500
N32620G3X35.626Y97.313I0.500J0.000
N32630G3X36.126Y97.813I0.000J0.500
N32640G01Z-0.300F30.0
N32650G3X35.626Y98.313I-0.500J0.000F600.0
N32660G3X35.126Y97.813I0.000J-0.500
N32670G3X35.626Y97.313I0.500J0.000
N32680G3X36.126Y97.813I0.000J0.500
N32690G01Z-0.350F30.0
N32700G3X35.626Y98.313I-0.500J0.000F600.0
N32710G3X35.126Y97.813I0.000J-0.500
N32720G3X35.626Y97.313I0.500J0.000
N32730G3X36.126Y97.813I0.000J0.500
N32740G01Z-0.400F30.0
N32750G3X35.626Y98.313I-0.500J0.000F600.0
N32760G3X35.126Y97.813I0.000J-0.500
N32770G3X35.626Y97.313I0.500J0.000
N32780G3X36.126Y97.813I0.000J0.500
N32790G01Z-0.450F30.0
N32800G3X35.626Y98.313I-0.500J0.000F600.0
N32810G3X35.126Y97.813I0.000J-0.500
N32820G3X35.626Y97.313I0.500J0.000
N32830G3X36.126Y97.813I0.000J0.500
N32840G01Z-0.500F30.0
N32850G3X35.626Y98.313I-0.500J0.000F600.0
N32860G3X35.126Y97.813I0.000J-0.500
N32870G3X35.626Y97.313I0.500J0.000
N32880G3X36.126Y97.813I0.000J0.500
N32890G01Z-0.550F30.0
N32900G3X35.626Y98.313I-0.500J0.000F600.0
N32910G3X35.126Y97.813I0.000J-0.500
N32920G3X35.626Y97.313I0.500J0.000
N32930G3X36.126Y97.813I0.000J0.500
N32940G01Z-0.600F30.0
N32950G3X35.626Y98.313I-0.500J0.000F600.0
N32960G3X35.126Y97.813I0.000J-0.500
N32970G3X35.626Y97.313I0.500J0.000
N32980G3X36.126Y97.813I0.000J0.500
N32990G01Z-0.650F30.0
N33000G3X35.626Y98.313I-0.500J0.000F600.0
N33010G3X35.126Y97.813I0.000J-0.500
N33020G3X35.626Y97.313I0.500J0.000
N33030G3X36.126Y97.813I0.000J0.500
N33040G01Z-0.700F30.0
N33050G3X35.626Y98.313I-0.500J0.000F600.0
N33060G3X35.126Y97.813I0.000J-0.500
N33070G3X35.626Y97.313I0.500J0.000
N33080G3X36.126Y97.813I0.000J0.500
N33090G01Z-0.750F30.0
N33100G3X35.626Y98.313I-0.500J0.000F600.0
N33110G3X35.126Y97.813I0.000J-0.500
N33120G3X35.626Y97.313I0.500J0.000
N33130G3X36.126Y97.813I0.000J0.500
N33140G01Z-0.800F30.0
N33150G3X35.626Y98.313I-0.500J0.000F600.0
N33160G3X35.126Y97.813I0.000J-0.500
N33170G3X35.626Y97.313I0.500J0.000
N33180G3X36.126Y97.813I0.000J0.500
N33190G01Z-0.850F30.0
N33200G3X35.626Y98.313I-0.500J0.000F600.0
N33210G3X35.126Y97.813I0.000J-0.500
N33220G3X35.626Y97.313I0.500J0.000
N33230G3X36.126Y97.813I0.000J0.500
N33240G01Z-0.900F30.0
N33250G3X35.626Y98.313I-0.500J0.000F600.0
N33260G3X35.126Y97.813I0.000J-0.500
N33270G3X35.626Y97.313I0.500J0.000
N33280G3X36.126Y97.813I0.000J0.500
N33290G01Z-0.950F30.0
N33300G3X35.626Y98.313I-0.500J0.000F600.0
N33310G3X35.126Y97.813I0.000J-0.500
N33320G3X35.626Y97.313I0.500J0.000
N33330G3X36.126Y97.813I0.000J0.500
N33340G01Z-1.000F30.0
N33350G3X35.626Y98.313I-0.500J0.000F600.0
N33360G3X35.126Y97.813I0.000J-0.500
N33370G3X35.626Y97.313I0.500J0.000
N33380G3X36.126Y97.813I0.000J0.500
N33390G01Z-1.050F30.0
N33400G3X35.626Y98.313I-0.500J0.000F600.0
N33410G3X35.126Y97.813I0.000J-0.500
N33420G3X35.626Y97.313I0.500J0.000
N33430G3X36.126Y97.813I0.000J0.500
N33440G01Z-1.100F30.0
N33450G3X35.626Y98.313I-0.500J0.000F600.0
N33460G3X35.126Y97.813I0.000J-0.500
N33470G3X35.626Y97.313I0.500J0.000
N33480G3X36.126Y97.813I0.000J0.500
N33490G01Z-1.150F30.0
N33500G3X35.626Y98.313I-0.500J0.000F600.0
N33510G3X35.126Y97.813I0.000J-0.500
N33520G3X35.626Y97.313I0.500J0.000
N33530G3X36.126Y97.813I0.000J0.500
N33540G01Z-1.200F30.0
N33550G3X35.626Y98.313I-0.500J0.000F600.0
N33560G3X35.126Y97.813I0.000J-0.500
N33570G3X35.626Y97.313I0.500J0.000
N33580G3X36.126Y97.813I0.000J0.500
N33590G01Z-1.250F30.0
N33600G3X35.626Y98.313I-0.500J0.000F600.0
N33610G3X35.126Y97.813I0.000J-0.500
N33620G3X35.626Y97.313I0.500J0.000
N33630G3X36.126Y97.813I0.000J0.500
N33640G01Z-1.300F30.0
N33650G3X35.626Y98.313I-0.500J0.000F600.0
N33660G3X35.126Y97.813I0.000J-0.500
N33670G3X35.626Y97.313I0.500J0.000
N33680G3X36.126Y97.813I0.000J0.500
N33690G01Z-1.350F30.0
N33700G3X35.626Y98.313I-0.500J0.000F600.0
N33710G3X35.126Y97.813I0.000J-0.500
N33720G3X35.626Y97.313I0.500J0.000
N33730G3X36.126Y97.813I0.000J0.500
N33740G01Z-1.400F30.0
N33750G3X35.626Y98.313I-0.500J0.000F600.0
N33760G3X35.126Y97.813I0.000J-0.500
N33770G3X35.626Y97.313I0.500J0.000
N33780G3X36.126Y97.813I0.000J0.500
N33790G01Z-1.450F30.0
N33800G3X35.626Y98.313I-0.500J0.000F600.0
N33810G3X35.126Y97.813I0.000J-0.500
N33820G3X35.626Y97.313I0.500J0.000
N33830G3X36.126Y97.813I0.000J0.500
N33840G01Z-1.500F30.0
N33850G3X35.626Y98.313I-0.500J0.000F600.0
N33860G3X35.126Y97.813I0.000J-0.500
N33870G3X35.626Y97.313I0.500J0.000
N33880G3X36.126Y97.813I0.000J0.500
N33890G01Z-1.550F30.0
N33900G3X35.626Y98.313I-0.500J0.000F600.0
N33910G3X35.126Y97.813I0.000J-0.500
N33920G3X35.626Y97.313I0.500J0.000
N33930G3X36.126Y97.813I0.000J0.500
N33940G01Z-1.600F30.0
N33950G3X35.626Y98.313I-0.500J0.000F600.0
N33960G3X35.126Y97.813I0.000J-0.500
N33970G3X35.626Y97.313I0.500J0.000
N33980G3X36.126Y97.813I0.000J0.500
N33990G01Z-1.650F30.0
N34000G3X35.626Y98.313I-0.500J0.000F600.0
N34010G3X35.126Y97.813I0.000J-0.500
N34020G3X35.626Y97.313I0.500J0.000
N34030G3X36.126Y97.813I0.000J0.500
N34040G01Z-1.700F30.0
N34050G3X35.626Y98.313I-0.500J0.000F600.0
N34060G3X35.126Y97.813I0.000J-0.500
N34070G3X35.626Y97.313I0.500J0.000
N34080G3X36.126Y97.813I0.000J0.500
N34090G01Z-1.750F30.0
N34100G3X35.626Y98.313I-0.500J0.000F600.0
N34110G3X35.126Y97.813I0.000J-0.500
N34120G3X35.626Y97.313I0.500J0.000
N34130G3X36.126Y97.813I0.000J0.500
N34140G01Z-1.800F30.0
N34150G3X35.626Y98.313I-0.500J0.000F600.0
N34160G3X35.126Y97.813I0.000J-0.500
N34170G3X35.626Y97.313I0.500J0.000
N34180G3X36.126Y97.813I0.000J0.500
N34190G01Z-1.850F30.0
N34200G3X35.626Y98.313I-0.500J0.000F600.0
N34210G3X35.126Y97.813I0.000J-0.500
N34220G3X35.626Y97.313I0.500J0.000
N34230G3X36.126Y97.813I0.000J0.500
N34240G01Z-1.900F30.0
N34250G3X35.626Y98.313I-0.500J0.000F600.0
N34260G3X35.126Y97.813I0.000J-0.500
N34270G3X35.626Y97.313I0.500J0.000
N34280G3X36.126Y97.813I0.000J0.500
N34290G01Z-1.950F30.0
N34300G3X35.626Y98.313I-0.500J0.000F600.0
N34310G3X35.126Y97.813I0.000J-0.500
N34320G3X35.626Y97.313I0.500J0.000
N34330G3X36.126Y97.813I0.000J0.500
N34340G01Z-2.000F30.0
N34350G3X35.626Y98.313I-0.500J0.000F600.0
N34360G3X35.126Y97.813I0.000J-0.500
N34370G3X35.626Y97.313I0.500J0.000
N34380G3X36.126Y97.813I0.000J0.500
N34390G01Z-2.050F30.0
N34400G3X35.626Y98.313I-0.500J0.000F600.0
N34410G3X35.126Y97.813I0.000J-0.500
N34420G3X35.626Y97.313I0.500J0.000
N34430G3X36.126Y97.813I0.000J0.500
N34440G01Z-2.100F30.0
N34450G3X35.626Y98.313I-0.500J0.000F600.0
N34460G3X35.126Y97.813I0.000J-0.500
N34470G3X35.626Y97.313I0.500J0.000
