( Profile 3 )
( USBCNC Postprocessor )
N20G00G21G17G90G40G49
N30G80
N40G00G43Z20.000H5
N50S8000M03
N60G94
N70X0.000Y0.000F200.0
N80G00X16.992Y16.000Z6.000
N90G01Z-0.025F30.0
N100G01X16.892Y16.100F200.0
N110X16.792Y16.000
N120X16.892Y15.900
N130X16.992Y16.000
N140G01Z-0.050F30.0
N150G01X16.892Y16.100F200.0
N160X16.792Y16.000
N170X16.892Y15.900
N180X16.992Y16.000
N190G01Z-0.075F30.0
N200G01X16.892Y16.100F200.0
N210X16.792Y16.000
N220X16.892Y15.900
N230X16.992Y16.000
N240G01Z-0.100F30.0
N250G01X16.892Y16.100F200.0
N260X16.792Y16.000
N270X16.892Y15.900
N280X16.992Y16.000
N290G01Z-0.125F30.0
N300G01X16.892Y16.100F200.0
N310X16.792Y16.000
N320X16.892Y15.900
N330X16.992Y16.000
N340G01Z-0.150F30.0
N350G01X16.892Y16.100F200.0
N360X16.792Y16.000
N370X16.892Y15.900
N380X16.992Y16.000
N390G01Z-0.175F30.0
N400G01X16.892Y16.100F200.0
N410X16.792Y16.000
N420X16.892Y15.900
N430X16.992Y16.000
N440G01Z-0.200F30.0
N450G01X16.892Y16.100F200.0
N460X16.792Y16.000
N470X16.892Y15.900
N480X16.992Y16.000
N490G01Z-0.225F30.0
N500G01X16.892Y16.100F200.0
N510X16.792Y16.000
N520X16.892Y15.900
N530X16.992Y16.000
N540G01Z-0.250F30.0
N550G01X16.892Y16.100F200.0
N560X16.792Y16.000
N570X16.892Y15.900
N580X16.992Y16.000
N590G01Z-0.275F30.0
N600G01X16.892Y16.100F200.0
N610X16.792Y16.000
N620X16.892Y15.900
N630X16.992Y16.000
N640G01Z-0.300F30.0
N650G01X16.892Y16.100F200.0
N660X16.792Y16.000
N670X16.892Y15.900
N680X16.992Y16.000
N690G01Z-0.325F30.0
N700G01X16.892Y16.100F200.0
N710X16.792Y16.000
N720X16.892Y15.900
N730X16.992Y16.000
N740G01Z-0.350F30.0
N750G01X16.892Y16.100F200.0
N760X16.792Y16.000
N770X16.892Y15.900
N780X16.992Y16.000
N790G01Z-0.375F30.0
N800G01X16.892Y16.100F200.0
N810X16.792Y16.000
N820X16.892Y15.900
N830X16.992Y16.000
N840G01Z-0.400F30.0
N850G01X16.892Y16.100F200.0
N860X16.792Y16.000
N870X16.892Y15.900
N880X16.992Y16.000
N890G01Z-0.425F30.0
N900G01X16.892Y16.100F200.0
N910X16.792Y16.000
N920X16.892Y15.900
N930X16.992Y16.000
N940G01Z-0.450F30.0
N950G01X16.892Y16.100F200.0
N960X16.792Y16.000
N970X16.892Y15.900
N980X16.992Y16.000
N990G01Z-0.475F30.0
N1000G01X16.892Y16.100F200.0
N1010X16.792Y16.000
N1020X16.892Y15.900
N1030X16.992Y16.000
N1040G01Z-0.500F30.0
N1050G01X16.892Y16.100F200.0
N1060X16.792Y16.000
N1070X16.892Y15.900
N1080X16.992Y16.000
N1090G01Z-0.525F30.0
N1100G01X16.892Y16.100F200.0
N1110X16.792Y16.000
N1120X16.892Y15.900
N1130X16.992Y16.000
N1140G01Z-0.550F30.0
N1150G01X16.892Y16.100F200.0
N1160X16.792Y16.000
N1170X16.892Y15.900
N1180X16.992Y16.000
N1190G01Z-0.575F30.0
N1200G01X16.892Y16.100F200.0
N1210X16.792Y16.000
N1220X16.892Y15.900
N1230X16.992Y16.000
N1240G01Z-0.600F30.0
N1250G01X16.892Y16.100F200.0
N1260X16.792Y16.000
N1270X16.892Y15.900
N1280X16.992Y16.000
N1290G01Z-0.625F30.0
N1300G01X16.892Y16.100F200.0
N1310X16.792Y16.000
N1320X16.892Y15.900
N1330X16.992Y16.000
N1340G01Z-0.650F30.0
N1350G01X16.892Y16.100F200.0
N1360X16.792Y16.000
N1370X16.892Y15.900
N1380X16.992Y16.000
N1390G01Z-0.675F30.0
N1400G01X16.892Y16.100F200.0
N1410X16.792Y16.000
N1420X16.892Y15.900
N1430X16.992Y16.000
N1440G01Z-0.700F30.0
N1450G01X16.892Y16.100F200.0
N1460X16.792Y16.000
N1470X16.892Y15.900
N1480X16.992Y16.000
N1490G01Z-0.725F30.0
N1500G01X16.892Y16.100F200.0
N1510X16.792Y16.000
N1520X16.892Y15.900
N1530X16.992Y16.000
N1540G01Z-0.750F30.0
N1550G01X16.892Y16.100F200.0
N1560X16.792Y16.000
N1570X16.892Y15.900
N1580X16.992Y16.000
N1590G01Z-0.775F30.0
N1600G01X16.892Y16.100F200.0
N1610X16.792Y16.000
N1620X16.892Y15.900
N1630X16.992Y16.000
N1640G01Z-0.800F30.0
N1650G01X16.892Y16.100F200.0
N1660X16.792Y16.000
N1670X16.892Y15.900
N1680X16.992Y16.000
N1690G01Z-0.825F30.0
N1700G01X16.892Y16.100F200.0
N1710X16.792Y16.000
N1720X16.892Y15.900
N1730X16.992Y16.000
N1740G01Z-0.850F30.0
N1750G01X16.892Y16.100F200.0
N1760X16.792Y16.000
N1770X16.892Y15.900
N1780X16.992Y16.000
N1790G01Z-0.875F30.0
N1800G01X16.892Y16.100F200.0
N1810X16.792Y16.000
N1820X16.892Y15.900
N1830X16.992Y16.000
N1840G01Z-0.900F30.0
N1850G01X16.892Y16.100F200.0
N1860X16.792Y16.000
N1870X16.892Y15.900
N1880X16.992Y16.000
N1890G01Z-0.925F30.0
N1900G01X16.892Y16.100F200.0
N1910X16.792Y16.000
N1920X16.892Y15.900
N1930X16.992Y16.000
N1940G01Z-0.950F30.0
N1950G01X16.892Y16.100F200.0
N1960X16.792Y16.000
N1970X16.892Y15.900
N1980X16.992Y16.000
N1990G01Z-0.975F30.0
N2000G01X16.892Y16.100F200.0
N2010X16.792Y16.000
N2020X16.892Y15.900
N2030X16.992Y16.000
N2040G01Z-1.000F30.0
N2050G01X16.892Y16.100F200.0
N2060X16.792Y16.000
N2070X16.892Y15.900
N2080X16.992Y16.000
N2090G01Z-1.025F30.0
N2100G01X16.892Y16.100F200.0
N2110X16.792Y16.000
N2120X16.892Y15.900
N2130X16.992Y16.000
N2140G01Z-1.050F30.0
N2150G01X16.892Y16.100F200.0
N2160X16.792Y16.000
N2170X16.892Y15.900
N2180X16.992Y16.000
N2190G01Z-1.075F30.0
N2200G01X16.892Y16.100F200.0
N2210X16.792Y16.000
N2220X16.892Y15.900
N2230X16.992Y16.000
N2240G01Z-1.100F30.0
N2250G01X16.892Y16.100F200.0
N2260X16.792Y16.000
N2270X16.892Y15.900
N2280X16.992Y16.000
N2290G01Z-1.125F30.0
N2300G01X16.892Y16.100F200.0
N2310X16.792Y16.000
N2320X16.892Y15.900
N2330X16.992Y16.000
N2340G01Z-1.150F30.0
N2350G01X16.892Y16.100F200.0
N2360X16.792Y16.000
N2370X16.892Y15.900
N2380X16.992Y16.000
N2390G01Z-1.175F30.0
N2400G01X16.892Y16.100F200.0
N2410X16.792Y16.000
N2420X16.892Y15.900
N2430X16.992Y16.000
N2440G01Z-1.200F30.0
N2450G01X16.892Y16.100F200.0
N2460X16.792Y16.000
N2470X16.892Y15.900
N2480X16.992Y16.000
N2490G01Z-1.225F30.0
N2500G01X16.892Y16.100F200.0
N2510X16.792Y16.000
N2520X16.892Y15.900
N2530X16.992Y16.000
N2540G01Z-1.250F30.0
N2550G01X16.892Y16.100F200.0
N2560X16.792Y16.000
N2570X16.892Y15.900
N2580X16.992Y16.000
N2590G01Z-1.275F30.0
N2600G01X16.892Y16.100F200.0
N2610X16.792Y16.000
N2620X16.892Y15.900
N2630X16.992Y16.000
N2640G01Z-1.300F30.0
N2650G01X16.892Y16.100F200.0
N2660X16.792Y16.000
N2670X16.892Y15.900
N2680X16.992Y16.000
N2690G01Z-1.325F30.0
N2700G01X16.892Y16.100F200.0
N2710X16.792Y16.000
N2720X16.892Y15.900
N2730X16.992Y16.000
N2740G01Z-1.350F30.0
N2750G01X16.892Y16.100F200.0
N2760X16.792Y16.000
N2770X16.892Y15.900
N2780X16.992Y16.000
N2790G01Z-1.375F30.0
N2800G01X16.892Y16.100F200.0
N2810X16.792Y16.000
N2820X16.892Y15.900
N2830X16.992Y16.000
N2840G01Z-1.400F30.0
N2850G01X16.892Y16.100F200.0
N2860X16.792Y16.000
N2870X16.892Y15.900
N2880X16.992Y16.000
N2890G01Z-1.425F30.0
N2900G01X16.892Y16.100F200.0
N2910X16.792Y16.000
N2920X16.892Y15.900
N2930X16.992Y16.000
N2940G01Z-1.450F30.0
N2950G01X16.892Y16.100F200.0
N2960X16.792Y16.000
N2970X16.892Y15.900
N2980X16.992Y16.000
N2990G01Z-1.475F30.0
N3000G01X16.892Y16.100F200.0
N3010X16.792Y16.000
N3020X16.892Y15.900
N3030X16.992Y16.000
N3040G01Z-1.500F30.0
N3050G01X16.892Y16.100F200.0
N3060X16.792Y16.000
N3070X16.892Y15.900
N3080X16.992Y16.000
N3090G01Z-1.525F30.0
N3100G01X16.892Y16.100F200.0
N3110X16.792Y16.000
N3120X16.892Y15.900
N3130X16.992Y16.000
N3140G01Z-1.550F30.0
N3150G01X16.892Y16.100F200.0
N3160X16.792Y16.000
N3170X16.892Y15.900
N3180X16.992Y16.000
N3190G01Z-1.575F30.0
N3200G01X16.892Y16.100F200.0
N3210X16.792Y16.000
N3220X16.892Y15.900
N3230X16.992Y16.000
N3240G01Z-1.600F30.0
N3250G01X16.892Y16.100F200.0
N3260X16.792Y16.000
N3270X16.892Y15.900
N3280X16.992Y16.000
N3290G01Z-1.625F30.0
N3300G01X16.892Y16.100F200.0
N3310X16.792Y16.000
N3320X16.892Y15.900
N3330X16.992Y16.000
N3340G01Z-1.650F30.0
N3350G01X16.892Y16.100F200.0
N3360X16.792Y16.000
N3370X16.892Y15.900
N3380X16.992Y16.000
N3390G01Z-1.675F30.0
N3400G01X16.892Y16.100F200.0
N3410X16.792Y16.000
N3420X16.892Y15.900
N3430X16.992Y16.000
N3440G01Z-1.700F30.0
N3450G01X16.892Y16.100F200.0
N3460X16.792Y16.000
N3470X16.892Y15.900
N3480X16.992Y16.000
N3490G01Z-1.725F30.0
N3500G01X16.892Y16.100F200.0
N3510X16.792Y16.000
N3520X16.892Y15.900
N3530X16.992Y16.000
N3540G01Z-1.750F30.0
N3550G01X16.892Y16.100F200.0
N3560X16.792Y16.000
N3570X16.892Y15.900
N3580X16.992Y16.000
N3590G01Z-1.775F30.0
N3600G01X16.892Y16.100F200.0
N3610X16.792Y16.000
N3620X16.892Y15.900
N3630X16.992Y16.000
N3640G01Z-1.800F30.0
N3650G01X16.892Y16.100F200.0
N3660X16.792Y16.000
N3670X16.892Y15.900
N3680X16.992Y16.000
N3690G01Z-1.825F30.0
N3700G01X16.892Y16.100F200.0
N3710X16.792Y16.000
N3720X16.892Y15.900
N3730X16.992Y16.000
N3740G01Z-1.850F30.0
N3750G01X16.892Y16.100F200.0
N3760X16.792Y16.000
N3770X16.892Y15.900
N3780X16.992Y16.000
N3790G01Z-1.875F30.0
N3800G01X16.892Y16.100F200.0
N3810X16.792Y16.000
N3820X16.892Y15.900
N3830X16.992Y16.000
N3840G01Z-1.900F30.0
N3850G01X16.892Y16.100F200.0
N3860X16.792Y16.000
N3870X16.892Y15.900
N3880X16.992Y16.000
N3890G01Z-1.925F30.0
N3900G01X16.892Y16.100F200.0
N3910X16.792Y16.000
N3920X16.892Y15.900
N3930X16.992Y16.000
N3940G01Z-1.950F30.0
N3950G01X16.892Y16.100F200.0
N3960X16.792Y16.000
N3970X16.892Y15.900
N3980X16.992Y16.000
N3990G01Z-1.975F30.0
N4000G01X16.892Y16.100F200.0
N4010X16.792Y16.000
N4020X16.892Y15.900
N4030X16.992Y16.000
N4040G01Z-2.000F30.0
N4050G01X16.892Y16.100F200.0
N4060X16.792Y16.000
N4070X16.892Y15.900
N4080X16.992Y16.000
N4090G01Z-2.025F30.0
N4100G01X16.892Y16.100F200.0
N4110X16.792Y16.000
N4120X16.892Y15.900
N4130X16.992Y16.000
N4140G01Z-2.050F30.0
N4150G01X16.892Y16.100F200.0
N4160X16.792Y16.000
N4170X16.892Y15.900
N4180X16.992Y16.000
N4190G01Z-2.075F30.0
N4200G01X16.892Y16.100F200.0
N4210X16.792Y16.000
N4220X16.892Y15.900
N4230X16.992Y16.000
N4240G01Z-2.100F30.0
N4250G01X16.892Y16.100F200.0
N4260X16.792Y16.000
N4270X16.892Y15.900
N4280X16.992Y16.000
N4290G01Z-2.125F30.0
N4300G01X16.892Y16.100F200.0
N4310X16.792Y16.000
N4320X16.892Y15.900
N4330X16.992Y16.000
N4340G01Z-2.150F30.0
N4350G01X16.892Y16.100F200.0
N4360X16.792Y16.000
N4370X16.892Y15.900
N4380X16.992Y16.000
N4390G01Z-2.175F30.0
N4400G01X16.892Y16.100F200.0
N4410X16.792Y16.000
N4420X16.892Y15.900
N4430X16.992Y16.000
N4440G01Z-2.200F30.0
N4450G01X16.892Y16.100F200.0
N4460X16.792Y16.000
N4470X16.892Y15.900
N4480X16.992Y16.000
N4490G01Z-2.225F30.0
N4500G01X16.892Y16.100F200.0
N4510X16.792Y16.000
N4520X16.892Y15.900
N4530X16.992Y16.000
N4540G01Z-2.250F30.0
N4550G01X16.892Y16.100F200.0
N4560X16.792Y16.000
N4570X16.892Y15.900
N4580X16.992Y16.000
N4590G01Z-2.275F30.0
N4600G01X16.892Y16.100F200.0
N4610X16.792Y16.000
N4620X16.892Y15.900
N4630X16.992Y16.000
N4640G01Z-2.300F30.0
N4650G01X16.892Y16.100F200.0
N4660X16.792Y16.000
N4670X16.892Y15.900
N4680X16.992Y16.000
N4690G01Z-2.325F30.0
N4700G01X16.892Y16.100F200.0
N4710X16.792Y16.000
N4720X16.892Y15.900
N4730X16.992Y16.000
N4740G01Z-2.350F30.0
N4750G01X16.892Y16.100F200.0
N4760X16.792Y16.000
N4770X16.892Y15.900
N4780X16.992Y16.000
N4790G01Z-2.375F30.0
N4800G01X16.892Y16.100F200.0
N4810X16.792Y16.000
N4820X16.892Y15.900
N4830X16.992Y16.000
N4840G01Z-2.400F30.0
N4850G01X16.892Y16.100F200.0
N4860X16.792Y16.000
N4870X16.892Y15.900
N4880X16.992Y16.000
N4890G01Z-2.425F30.0
N4900G01X16.892Y16.100F200.0
N4910X16.792Y16.000
N4920X16.892Y15.900
N4930X16.992Y16.000
N4940G01Z-2.450F30.0
N4950G01X16.892Y16.100F200.0
N4960X16.792Y16.000
N4970X16.892Y15.900
N4980X16.992Y16.000
N4990G01Z-2.475F30.0
N5000G01X16.892Y16.100F200.0
N5010X16.792Y16.000
N5020X16.892Y15.900
N5030X16.992Y16.000
N5040G01Z-2.500F30.0
N5050G01X16.892Y16.100F200.0
N5060X16.792Y16.000
N5070X16.892Y15.900
N5080X16.992Y16.000
N5090G01Z-2.525F30.0
N5100G01X16.892Y16.100F200.0
N5110X16.792Y16.000
N5120X16.892Y15.900
N5130X16.992Y16.000
N5140G01Z-2.550F30.0
N5150G01X16.892Y16.100F200.0
N5160X16.792Y16.000
N5170X16.892Y15.900
N5180X16.992Y16.000
N5190G01Z-2.575F30.0
N5200G01X16.892Y16.100F200.0
N5210X16.792Y16.000
N5220X16.892Y15.900
N5230X16.992Y16.000
N5240G01Z-2.600F30.0
N5250G01X16.892Y16.100F200.0
N5260X16.792Y16.000
N5270X16.892Y15.900
N5280X16.992Y16.000
N5290G01Z-2.625F30.0
N5300G01X16.892Y16.100F200.0
N5310X16.792Y16.000
N5320X16.892Y15.900
N5330X16.992Y16.000
N5340G01Z-2.650F30.0
N5350G01X16.892Y16.100F200.0
N5360X16.792Y16.000
N5370X16.892Y15.900
N5380X16.992Y16.000
N5390G01Z-2.675F30.0
N5400G01X16.892Y16.100F200.0
N5410X16.792Y16.000
N5420X16.892Y15.900
N5430X16.992Y16.000
N5440G01Z-2.700F30.0
N5450G01X16.892Y16.100F200.0
N5460X16.792Y16.000
N5470X16.892Y15.900
N5480X16.992Y16.000
N5490G01Z-2.725F30.0
N5500G01X16.892Y16.100F200.0
N5510X16.792Y16.000
N5520X16.892Y15.900
N5530X16.992Y16.000
N5540G01Z-2.750F30.0
N5550G01X16.892Y16.100F200.0
N5560X16.792Y16.000
N5570X16.892Y15.900
N5580X16.992Y16.000
N5590G01Z-2.775F30.0
N5600G01X16.892Y16.100F200.0
N5610X16.792Y16.000
N5620X16.892Y15.900
N5630X16.992Y16.000
N5640G01Z-2.800F30.0
N5650G01X16.892Y16.100F200.0
N5660X16.792Y16.000
N5670X16.892Y15.900
N5680X16.992Y16.000
N5690G01Z-2.825F30.0
N5700G01X16.892Y16.100F200.0
N5710X16.792Y16.000
N5720X16.892Y15.900
N5730X16.992Y16.000
N5740G01Z-2.850F30.0
N5750G01X16.892Y16.100F200.0
N5760X16.792Y16.000
N5770X16.892Y15.900
N5780X16.992Y16.000
N5790G01Z-2.875F30.0
N5800G01X16.892Y16.100F200.0
N5810X16.792Y16.000
N5820X16.892Y15.900
N5830X16.992Y16.000
N5840G01Z-2.900F30.0
N5850G01X16.892Y16.100F200.0
N5860X16.792Y16.000
N5870X16.892Y15.900
N5880X16.992Y16.000
N5890G01Z-2.925F30.0
N5900G01X16.892Y16.100F200.0
N5910X16.792Y16.000
N5920X16.892Y15.900
N5930X16.992Y16.000
N5940G01Z-2.950F30.0
N5950G01X16.892Y16.100F200.0
N5960X16.792Y16.000
N5970X16.892Y15.900
N5980X16.992Y16.000
N5990G01Z-2.975F30.0
N6000G01X16.892Y16.100F200.0
N6010X16.792Y16.000
N6020X16.892Y15.900
N6030X16.992Y16.000
N6040G01Z-3.000F30.0
N6050G01X16.892Y16.100F200.0
N6060X16.792Y16.000
N6070X16.892Y15.900
N6080X16.992Y16.000
N6090G00Z6.000
N6100G00Y31.000
N6110G01Z-0.025F30.0
N6120G01X16.892Y31.100F200.0
N6130X16.792Y31.000
N6140X16.892Y30.900
N6150X16.992Y31.000
N6160G01Z-0.050F30.0
N6170G01X16.892Y31.100F200.0
N6180X16.792Y31.000
N6190X16.892Y30.900
N6200X16.992Y31.000
N6210G01Z-0.075F30.0
N6220G01X16.892Y31.100F200.0
N6230X16.792Y31.000
N6240X16.892Y30.900
N6250X16.992Y31.000
N6260G01Z-0.100F30.0
N6270G01X16.892Y31.100F200.0
N6280X16.792Y31.000
N6290X16.892Y30.900
N6300X16.992Y31.000
N6310G01Z-0.125F30.0
N6320G01X16.892Y31.100F200.0
N6330X16.792Y31.000
N6340X16.892Y30.900
N6350X16.992Y31.000
N6360G01Z-0.150F30.0
N6370G01X16.892Y31.100F200.0
N6380X16.792Y31.000
N6390X16.892Y30.900
N6400X16.992Y31.000
N6410G01Z-0.175F30.0
N6420G01X16.892Y31.100F200.0
N6430X16.792Y31.000
N6440X16.892Y30.900
N6450X16.992Y31.000
N6460G01Z-0.200F30.0
N6470G01X16.892Y31.100F200.0
N6480X16.792Y31.000
N6490X16.892Y30.900
N6500X16.992Y31.000
N6510G01Z-0.225F30.0
N6520G01X16.892Y31.100F200.0
N6530X16.792Y31.000
N6540X16.892Y30.900
N6550X16.992Y31.000
N6560G01Z-0.250F30.0
N6570G01X16.892Y31.100F200.0
N6580X16.792Y31.000
N6590X16.892Y30.900
N6600X16.992Y31.000
N6610G01Z-0.275F30.0
N6620G01X16.892Y31.100F200.0
N6630X16.792Y31.000
N6640X16.892Y30.900
N6650X16.992Y31.000
N6660G01Z-0.300F30.0
N6670G01X16.892Y31.100F200.0
N6680X16.792Y31.000
N6690X16.892Y30.900
N6700X16.992Y31.000
N6710G01Z-0.325F30.0
N6720G01X16.892Y31.100F200.0
N6730X16.792Y31.000
N6740X16.892Y30.900
N6750X16.992Y31.000
N6760G01Z-0.350F30.0
N6770G01X16.892Y31.100F200.0
N6780X16.792Y31.000
N6790X16.892Y30.900
N6800X16.992Y31.000
N6810G01Z-0.375F30.0
N6820G01X16.892Y31.100F200.0
N6830X16.792Y31.000
N6840X16.892Y30.900
N6850X16.992Y31.000
N6860G01Z-0.400F30.0
N6870G01X16.892Y31.100F200.0
N6880X16.792Y31.000
N6890X16.892Y30.900
N6900X16.992Y31.000
N6910G01Z-0.425F30.0
N6920G01X16.892Y31.100F200.0
N6930X16.792Y31.000
N6940X16.892Y30.900
N6950X16.992Y31.000
N6960G01Z-0.450F30.0
N6970G01X16.892Y31.100F200.0
N6980X16.792Y31.000
N6990X16.892Y30.900
N7000X16.992Y31.000
N7010G01Z-0.475F30.0
N7020G01X16.892Y31.100F200.0
N7030X16.792Y31.000
N7040X16.892Y30.900
N7050X16.992Y31.000
N7060G01Z-0.500F30.0
N7070G01X16.892Y31.100F200.0
N7080X16.792Y31.000
N7090X16.892Y30.900
N7100X16.992Y31.000
N7110G01Z-0.525F30.0
N7120G01X16.892Y31.100F200.0
N7130X16.792Y31.000
N7140X16.892Y30.900
N7150X16.992Y31.000
N7160G01Z-0.550F30.0
N7170G01X16.892Y31.100F200.0
N7180X16.792Y31.000
N7190X16.892Y30.900
N7200X16.992Y31.000
N7210G01Z-0.575F30.0
N7220G01X16.892Y31.100F200.0
N7230X16.792Y31.000
N7240X16.892Y30.900
N7250X16.992Y31.000
N7260G01Z-0.600F30.0
N7270G01X16.892Y31.100F200.0
N7280X16.792Y31.000
N7290X16.892Y30.900
N7300X16.992Y31.000
N7310G01Z-0.625F30.0
N7320G01X16.892Y31.100F200.0
N7330X16.792Y31.000
N7340X16.892Y30.900
N7350X16.992Y31.000
N7360G01Z-0.650F30.0
N7370G01X16.892Y31.100F200.0
N7380X16.792Y31.000
N7390X16.892Y30.900
N7400X16.992Y31.000
N7410G01Z-0.675F30.0
N7420G01X16.892Y31.100F200.0
N7430X16.792Y31.000
N7440X16.892Y30.900
N7450X16.992Y31.000
N7460G01Z-0.700F30.0
N7470G01X16.892Y31.100F200.0
N7480X16.792Y31.000
N7490X16.892Y30.900
N7500X16.992Y31.000
N7510G01Z-0.725F30.0
N7520G01X16.892Y31.100F200.0
N7530X16.792Y31.000
N7540X16.892Y30.900
N7550X16.992Y31.000
N7560G01Z-0.750F30.0
N7570G01X16.892Y31.100F200.0
N7580X16.792Y31.000
N7590X16.892Y30.900
N7600X16.992Y31.000
N7610G01Z-0.775F30.0
N7620G01X16.892Y31.100F200.0
N7630X16.792Y31.000
N7640X16.892Y30.900
N7650X16.992Y31.000
N7660G01Z-0.800F30.0
N7670G01X16.892Y31.100F200.0
N7680X16.792Y31.000
N7690X16.892Y30.900
N7700X16.992Y31.000
N7710G01Z-0.825F30.0
N7720G01X16.892Y31.100F200.0
N7730X16.792Y31.000
N7740X16.892Y30.900
N7750X16.992Y31.000
N7760G01Z-0.850F30.0
N7770G01X16.892Y31.100F200.0
N7780X16.792Y31.000
N7790X16.892Y30.900
N7800X16.992Y31.000
N7810G01Z-0.875F30.0
N7820G01X16.892Y31.100F200.0
N7830X16.792Y31.000
N7840X16.892Y30.900
N7850X16.992Y31.000
N7860G01Z-0.900F30.0
N7870G01X16.892Y31.100F200.0
N7880X16.792Y31.000
N7890X16.892Y30.900
N7900X16.992Y31.000
N7910G01Z-0.925F30.0
N7920G01X16.892Y31.100F200.0
N7930X16.792Y31.000
N7940X16.892Y30.900
N7950X16.992Y31.000
N7960G01Z-0.950F30.0
N7970G01X16.892Y31.100F200.0
N7980X16.792Y31.000
N7990X16.892Y30.900
N8000X16.992Y31.000
N8010G01Z-0.975F30.0
N8020G01X16.892Y31.100F200.0
N8030X16.792Y31.000
N8040X16.892Y30.900
N8050X16.992Y31.000
N8060G01Z-1.000F30.0
N8070G01X16.892Y31.100F200.0
N8080X16.792Y31.000
N8090X16.892Y30.900
N8100X16.992Y31.000
N8110G01Z-1.025F30.0
N8120G01X16.892Y31.100F200.0
N8130X16.792Y31.000
N8140X16.892Y30.900
N8150X16.992Y31.000
N8160G01Z-1.050F30.0
N8170G01X16.892Y31.100F200.0
N8180X16.792Y31.000
N8190X16.892Y30.900
N8200X16.992Y31.000
N8210G01Z-1.075F30.0
N8220G01X16.892Y31.100F200.0
N8230X16.792Y31.000
N8240X16.892Y30.900
N8250X16.992Y31.000
N8260G01Z-1.100F30.0
N8270G01X16.892Y31.100F200.0
N8280X16.792Y31.000
N8290X16.892Y30.900
N8300X16.992Y31.000
N8310G01Z-1.125F30.0
N8320G01X16.892Y31.100F200.0
N8330X16.792Y31.000
N8340X16.892Y30.900
N8350X16.992Y31.000
N8360G01Z-1.150F30.0
N8370G01X16.892Y31.100F200.0
N8380X16.792Y31.000
N8390X16.892Y30.900
N8400X16.992Y31.000
N8410G01Z-1.175F30.0
N8420G01X16.892Y31.100F200.0
N8430X16.792Y31.000
N8440X16.892Y30.900
N8450X16.992Y31.000
N8460G01Z-1.200F30.0
N8470G01X16.892Y31.100F200.0
N8480X16.792Y31.000
N8490X16.892Y30.900
N8500X16.992Y31.000
N8510G01Z-1.225F30.0
N8520G01X16.892Y31.100F200.0
N8530X16.792Y31.000
N8540X16.892Y30.900
N8550X16.992Y31.000
N8560G01Z-1.250F30.0
N8570G01X16.892Y31.100F200.0
N8580X16.792Y31.000
N8590X16.892Y30.900
N8600X16.992Y31.000
N8610G01Z-1.275F30.0
N8620G01X16.892Y31.100F200.0
N8630X16.792Y31.000
N8640X16.892Y30.900
N8650X16.992Y31.000
N8660G01Z-1.300F30.0
N8670G01X16.892Y31.100F200.0
N8680X16.792Y31.000
N8690X16.892Y30.900
N8700X16.992Y31.000
N8710G01Z-1.325F30.0
N8720G01X16.892Y31.100F200.0
N8730X16.792Y31.000
N8740X16.892Y30.900
N8750X16.992Y31.000
N8760G01Z-1.350F30.0
N8770G01X16.892Y31.100F200.0
N8780X16.792Y31.000
N8790X16.892Y30.900
N8800X16.992Y31.000
N8810G01Z-1.375F30.0
N8820G01X16.892Y31.100F200.0
N8830X16.792Y31.000
N8840X16.892Y30.900
N8850X16.992Y31.000
N8860G01Z-1.400F30.0
N8870G01X16.892Y31.100F200.0
N8880X16.792Y31.000
N8890X16.892Y30.900
N8900X16.992Y31.000
N8910G01Z-1.425F30.0
N8920G01X16.892Y31.100F200.0
N8930X16.792Y31.000
N8940X16.892Y30.900
N8950X16.992Y31.000
N8960G01Z-1.450F30.0
N8970G01X16.892Y31.100F200.0
N8980X16.792Y31.000
N8990X16.892Y30.900
N9000X16.992Y31.000
N9010G01Z-1.475F30.0
N9020G01X16.892Y31.100F200.0
N9030X16.792Y31.000
N9040X16.892Y30.900
N9050X16.992Y31.000
N9060G01Z-1.500F30.0
N9070G01X16.892Y31.100F200.0
N9080X16.792Y31.000
N9090X16.892Y30.900
N9100X16.992Y31.000
N9110G01Z-1.525F30.0
N9120G01X16.892Y31.100F200.0
N9130X16.792Y31.000
N9140X16.892Y30.900
N9150X16.992Y31.000
N9160G01Z-1.550F30.0
N9170G01X16.892Y31.100F200.0
N9180X16.792Y31.000
N9190X16.892Y30.900
N9200X16.992Y31.000
N9210G01Z-1.575F30.0
N9220G01X16.892Y31.100F200.0
N9230X16.792Y31.000
N9240X16.892Y30.900
N9250X16.992Y31.000
N9260G01Z-1.600F30.0
N9270G01X16.892Y31.100F200.0
N9280X16.792Y31.000
N9290X16.892Y30.900
N9300X16.992Y31.000
N9310G01Z-1.625F30.0
N9320G01X16.892Y31.100F200.0
N9330X16.792Y31.000
N9340X16.892Y30.900
N9350X16.992Y31.000
N9360G01Z-1.650F30.0
N9370G01X16.892Y31.100F200.0
N9380X16.792Y31.000
N9390X16.892Y30.900
N9400X16.992Y31.000
N9410G01Z-1.675F30.0
N9420G01X16.892Y31.100F200.0
N9430X16.792Y31.000
N9440X16.892Y30.900
N9450X16.992Y31.000
N9460G01Z-1.700F30.0
N9470G01X16.892Y31.100F200.0
N9480X16.792Y31.000
N9490X16.892Y30.900
N9500X16.992Y31.000
N9510G01Z-1.725F30.0
N9520G01X16.892Y31.100F200.0
N9530X16.792Y31.000
N9540X16.892Y30.900
N9550X16.992Y31.000
N9560G01Z-1.750F30.0
N9570G01X16.892Y31.100F200.0
N9580X16.792Y31.000
N9590X16.892Y30.900
N9600X16.992Y31.000
N9610G01Z-1.775F30.0
N9620G01X16.892Y31.100F200.0
N9630X16.792Y31.000
N9640X16.892Y30.900
N9650X16.992Y31.000
N9660G01Z-1.800F30.0
N9670G01X16.892Y31.100F200.0
N9680X16.792Y31.000
N9690X16.892Y30.900
N9700X16.992Y31.000
N9710G01Z-1.825F30.0
N9720G01X16.892Y31.100F200.0
N9730X16.792Y31.000
N9740X16.892Y30.900
N9750X16.992Y31.000
N9760G01Z-1.850F30.0
N9770G01X16.892Y31.100F200.0
N9780X16.792Y31.000
N9790X16.892Y30.900
N9800X16.992Y31.000
N9810G01Z-1.875F30.0
N9820G01X16.892Y31.100F200.0
N9830X16.792Y31.000
N9840X16.892Y30.900
N9850X16.992Y31.000
N9860G01Z-1.900F30.0
N9870G01X16.892Y31.100F200.0
N9880X16.792Y31.000
N9890X16.892Y30.900
N9900X16.992Y31.000
N9910G01Z-1.925F30.0
N9920G01X16.892Y31.100F200.0
N9930X16.792Y31.000
N9940X16.892Y30.900
N9950X16.992Y31.000
N9960G01Z-1.950F30.0
N9970G01X16.892Y31.100F200.0
N9980X16.792Y31.000
N9990X16.892Y30.900
N10000X16.992Y31.000
N10010G01Z-1.975F30.0
N10020G01X16.892Y31.100F200.0
N10030X16.792Y31.000
N10040X16.892Y30.900
N10050X16.992Y31.000
N10060G01Z-2.000F30.0
N10070G01X16.892Y31.100F200.0
N10080X16.792Y31.000
N10090X16.892Y30.900
N10100X16.992Y31.000
N10110G01Z-2.025F30.0
N10120G01X16.892Y31.100F200.0
N10130X16.792Y31.000
N10140X16.892Y30.900
N10150X16.992Y31.000
N10160G01Z-2.050F30.0
N10170G01X16.892Y31.100F200.0
N10180X16.792Y31.000
N10190X16.892Y30.900
N10200X16.992Y31.000
N10210G01Z-2.075F30.0
N10220G01X16.892Y31.100F200.0
N10230X16.792Y31.000
N10240X16.892Y30.900
N10250X16.992Y31.000
N10260G01Z-2.100F30.0
N10270G01X16.892Y31.100F200.0
N10280X16.792Y31.000
N10290X16.892Y30.900
N10300X16.992Y31.000
N10310G01Z-2.125F30.0
N10320G01X16.892Y31.100F200.0
N10330X16.792Y31.000
N10340X16.892Y30.900
N10350X16.992Y31.000
N10360G01Z-2.150F30.0
N10370G01X16.892Y31.100F200.0
N10380X16.792Y31.000
N10390X16.892Y30.900
N10400X16.992Y31.000
N10410G01Z-2.175F30.0
N10420G01X16.892Y31.100F200.0
N10430X16.792Y31.000
N10440X16.892Y30.900
N10450X16.992Y31.000
N10460G01Z-2.200F30.0
N10470G01X16.892Y31.100F200.0
N10480X16.792Y31.000
N10490X16.892Y30.900
N10500X16.992Y31.000
N10510G01Z-2.225F30.0
N10520G01X16.892Y31.100F200.0
N10530X16.792Y31.000
N10540X16.892Y30.900
N10550X16.992Y31.000
N10560G01Z-2.250F30.0
N10570G01X16.892Y31.100F200.0
N10580X16.792Y31.000
N10590X16.892Y30.900
N10600X16.992Y31.000
N10610G01Z-2.275F30.0
N10620G01X16.892Y31.100F200.0
N10630X16.792Y31.000
N10640X16.892Y30.900
N10650X16.992Y31.000
N10660G01Z-2.300F30.0
N10670G01X16.892Y31.100F200.0
N10680X16.792Y31.000
N10690X16.892Y30.900
N10700X16.992Y31.000
N10710G01Z-2.325F30.0
N10720G01X16.892Y31.100F200.0
N10730X16.792Y31.000
N10740X16.892Y30.900
N10750X16.992Y31.000
N10760G01Z-2.350F30.0
N10770G01X16.892Y31.100F200.0
N10780X16.792Y31.000
N10790X16.892Y30.900
N10800X16.992Y31.000
N10810G01Z-2.375F30.0
N10820G01X16.892Y31.100F200.0
N10830X16.792Y31.000
N10840X16.892Y30.900
N10850X16.992Y31.000
N10860G01Z-2.400F30.0
N10870G01X16.892Y31.100F200.0
N10880X16.792Y31.000
N10890X16.892Y30.900
N10900X16.992Y31.000
N10910G01Z-2.425F30.0
N10920G01X16.892Y31.100F200.0
N10930X16.792Y31.000
N10940X16.892Y30.900
N10950X16.992Y31.000
N10960G01Z-2.450F30.0
N10970G01X16.892Y31.100F200.0
N10980X16.792Y31.000
N10990X16.892Y30.900
N11000X16.992Y31.000
N11010G01Z-2.475F30.0
N11020G01X16.892Y31.100F200.0
N11030X16.792Y31.000
N11040X16.892Y30.900
N11050X16.992Y31.000
N11060G01Z-2.500F30.0
N11070G01X16.892Y31.100F200.0
N11080X16.792Y31.000
N11090X16.892Y30.900
N11100X16.992Y31.000
N11110G01Z-2.525F30.0
N11120G01X16.892Y31.100F200.0
N11130X16.792Y31.000
N11140X16.892Y30.900
N11150X16.992Y31.000
N11160G01Z-2.550F30.0
N11170G01X16.892Y31.100F200.0
N11180X16.792Y31.000
N11190X16.892Y30.900
N11200X16.992Y31.000
N11210G01Z-2.575F30.0
N11220G01X16.892Y31.100F200.0
N11230X16.792Y31.000
N11240X16.892Y30.900
N11250X16.992Y31.000
N11260G01Z-2.600F30.0
N11270G01X16.892Y31.100F200.0
N11280X16.792Y31.000
N11290X16.892Y30.900
N11300X16.992Y31.000
N11310G01Z-2.625F30.0
N11320G01X16.892Y31.100F200.0
N11330X16.792Y31.000
N11340X16.892Y30.900
N11350X16.992Y31.000
N11360G01Z-2.650F30.0
N11370G01X16.892Y31.100F200.0
N11380X16.792Y31.000
N11390X16.892Y30.900
N11400X16.992Y31.000
N11410G01Z-2.675F30.0
N11420G01X16.892Y31.100F200.0
N11430X16.792Y31.000
N11440X16.892Y30.900
N11450X16.992Y31.000
N11460G01Z-2.700F30.0
N11470G01X16.892Y31.100F200.0
N11480X16.792Y31.000
N11490X16.892Y30.900
N11500X16.992Y31.000
N11510G01Z-2.725F30.0
N11520G01X16.892Y31.100F200.0
N11530X16.792Y31.000
N11540X16.892Y30.900
N11550X16.992Y31.000
N11560G01Z-2.750F30.0
N11570G01X16.892Y31.100F200.0
N11580X16.792Y31.000
N11590X16.892Y30.900
N11600X16.992Y31.000
N11610G01Z-2.775F30.0
N11620G01X16.892Y31.100F200.0
N11630X16.792Y31.000
N11640X16.892Y30.900
N11650X16.992Y31.000
N11660G01Z-2.800F30.0
N11670G01X16.892Y31.100F200.0
N11680X16.792Y31.000
N11690X16.892Y30.900
N11700X16.992Y31.000
N11710G01Z-2.825F30.0
N11720G01X16.892Y31.100F200.0
N11730X16.792Y31.000
N11740X16.892Y30.900
N11750X16.992Y31.000
N11760G01Z-2.850F30.0
N11770G01X16.892Y31.100F200.0
N11780X16.792Y31.000
N11790X16.892Y30.900
N11800X16.992Y31.000
N11810G01Z-2.875F30.0
N11820G01X16.892Y31.100F200.0
N11830X16.792Y31.000
N11840X16.892Y30.900
N11850X16.992Y31.000
N11860G01Z-2.900F30.0
N11870G01X16.892Y31.100F200.0
N11880X16.792Y31.000
N11890X16.892Y30.900
N11900X16.992Y31.000
N11910G01Z-2.925F30.0
N11920G01X16.892Y31.100F200.0
N11930X16.792Y31.000
N11940X16.892Y30.900
N11950X16.992Y31.000
N11960G01Z-2.950F30.0
N11970G01X16.892Y31.100F200.0
N11980X16.792Y31.000
N11990X16.892Y30.900
N12000X16.992Y31.000
N12010G01Z-2.975F30.0
N12020G01X16.892Y31.100F200.0
N12030X16.792Y31.000
N12040X16.892Y30.900
N12050X16.992Y31.000
N12060G01Z-3.000F30.0
N12070G01X16.892Y31.100F200.0
N12080X16.792Y31.000
N12090X16.892Y30.900
N12100X16.992Y31.000
N12110G00Z6.000
N12120G00Y46.000
N12130G01Z-0.025F30.0
N12140G01X16.892Y46.100F200.0
N12150X16.792Y46.000
N12160X16.892Y45.900
N12170X16.992Y46.000
N12180G01Z-0.050F30.0
N12190G01X16.892Y46.100F200.0
N12200X16.792Y46.000
N12210X16.892Y45.900
N12220X16.992Y46.000
N12230G01Z-0.075F30.0
N12240G01X16.892Y46.100F200.0
N12250X16.792Y46.000
N12260X16.892Y45.900
N12270X16.992Y46.000
N12280G01Z-0.100F30.0
N12290G01X16.892Y46.100F200.0
N12300X16.792Y46.000
N12310X16.892Y45.900
N12320X16.992Y46.000
N12330G01Z-0.125F30.0
N12340G01X16.892Y46.100F200.0
N12350X16.792Y46.000
N12360X16.892Y45.900
N12370X16.992Y46.000
N12380G01Z-0.150F30.0
N12390G01X16.892Y46.100F200.0
N12400X16.792Y46.000
N12410X16.892Y45.900
N12420X16.992Y46.000
N12430G01Z-0.175F30.0
N12440G01X16.892Y46.100F200.0
N12450X16.792Y46.000
N12460X16.892Y45.900
N12470X16.992Y46.000
N12480G01Z-0.200F30.0
N12490G01X16.892Y46.100F200.0
N12500X16.792Y46.000
N12510X16.892Y45.900
N12520X16.992Y46.000
N12530G01Z-0.225F30.0
N12540G01X16.892Y46.100F200.0
N12550X16.792Y46.000
N12560X16.892Y45.900
N12570X16.992Y46.000
N12580G01Z-0.250F30.0
N12590G01X16.892Y46.100F200.0
N12600X16.792Y46.000
N12610X16.892Y45.900
N12620X16.992Y46.000
N12630G01Z-0.275F30.0
N12640G01X16.892Y46.100F200.0
N12650X16.792Y46.000
N12660X16.892Y45.900
N12670X16.992Y46.000
N12680G01Z-0.300F30.0
N12690G01X16.892Y46.100F200.0
N12700X16.792Y46.000
N12710X16.892Y45.900
N12720X16.992Y46.000
N12730G01Z-0.325F30.0
N12740G01X16.892Y46.100F200.0
N12750X16.792Y46.000
N12760X16.892Y45.900
N12770X16.992Y46.000
N12780G01Z-0.350F30.0
N12790G01X16.892Y46.100F200.0
N12800X16.792Y46.000
N12810X16.892Y45.900
N12820X16.992Y46.000
N12830G01Z-0.375F30.0
N12840G01X16.892Y46.100F200.0
N12850X16.792Y46.000
N12860X16.892Y45.900
N12870X16.992Y46.000
N12880G01Z-0.400F30.0
N12890G01X16.892Y46.100F200.0
N12900X16.792Y46.000
N12910X16.892Y45.900
N12920X16.992Y46.000
N12930G01Z-0.425F30.0
N12940G01X16.892Y46.100F200.0
N12950X16.792Y46.000
N12960X16.892Y45.900
N12970X16.992Y46.000
N12980G01Z-0.450F30.0
N12990G01X16.892Y46.100F200.0
N13000X16.792Y46.000
N13010X16.892Y45.900
N13020X16.992Y46.000
N13030G01Z-0.475F30.0
N13040G01X16.892Y46.100F200.0
N13050X16.792Y46.000
N13060X16.892Y45.900
N13070X16.992Y46.000
N13080G01Z-0.500F30.0
N13090G01X16.892Y46.100F200.0
N13100X16.792Y46.000
N13110X16.892Y45.900
N13120X16.992Y46.000
N13130G01Z-0.525F30.0
N13140G01X16.892Y46.100F200.0
N13150X16.792Y46.000
N13160X16.892Y45.900
N13170X16.992Y46.000
N13180G01Z-0.550F30.0
N13190G01X16.892Y46.100F200.0
N13200X16.792Y46.000
N13210X16.892Y45.900
N13220X16.992Y46.000
N13230G01Z-0.575F30.0
N13240G01X16.892Y46.100F200.0
N13250X16.792Y46.000
N13260X16.892Y45.900
N13270X16.992Y46.000
N13280G01Z-0.600F30.0
N13290G01X16.892Y46.100F200.0
N13300X16.792Y46.000
N13310X16.892Y45.900
N13320X16.992Y46.000
N13330G01Z-0.625F30.0
N13340G01X16.892Y46.100F200.0
N13350X16.792Y46.000
N13360X16.892Y45.900
N13370X16.992Y46.000
N13380G01Z-0.650F30.0
N13390G01X16.892Y46.100F200.0
N13400X16.792Y46.000
N13410X16.892Y45.900
N13420X16.992Y46.000
N13430G01Z-0.675F30.0
N13440G01X16.892Y46.100F200.0
N13450X16.792Y46.000
N13460X16.892Y45.900
N13470X16.992Y46.000
N13480G01Z-0.700F30.0
N13490G01X16.892Y46.100F200.0
N13500X16.792Y46.000
N13510X16.892Y45.900
N13520X16.992Y46.000
N13530G01Z-0.725F30.0
N13540G01X16.892Y46.100F200.0
N13550X16.792Y46.000
N13560X16.892Y45.900
N13570X16.992Y46.000
N13580G01Z-0.750F30.0
N13590G01X16.892Y46.100F200.0
N13600X16.792Y46.000
N13610X16.892Y45.900
N13620X16.992Y46.000
N13630G01Z-0.775F30.0
N13640G01X16.892Y46.100F200.0
N13650X16.792Y46.000
N13660X16.892Y45.900
N13670X16.992Y46.000
N13680G01Z-0.800F30.0
N13690G01X16.892Y46.100F200.0
N13700X16.792Y46.000
N13710X16.892Y45.900
N13720X16.992Y46.000
N13730G01Z-0.825F30.0
N13740G01X16.892Y46.100F200.0
N13750X16.792Y46.000
N13760X16.892Y45.900
N13770X16.992Y46.000
N13780G01Z-0.850F30.0
N13790G01X16.892Y46.100F200.0
N13800X16.792Y46.000
N13810X16.892Y45.900
N13820X16.992Y46.000
N13830G01Z-0.875F30.0
N13840G01X16.892Y46.100F200.0
N13850X16.792Y46.000
N13860X16.892Y45.900
N13870X16.992Y46.000
N13880G01Z-0.900F30.0
N13890G01X16.892Y46.100F200.0
N13900X16.792Y46.000
N13910X16.892Y45.900
N13920X16.992Y46.000
N13930G01Z-0.925F30.0
N13940G01X16.892Y46.100F200.0
N13950X16.792Y46.000
N13960X16.892Y45.900
N13970X16.992Y46.000
N13980G01Z-0.950F30.0
N13990G01X16.892Y46.100F200.0
N14000X16.792Y46.000
N14010X16.892Y45.900
N14020X16.992Y46.000
N14030G01Z-0.975F30.0
N14040G01X16.892Y46.100F200.0
N14050X16.792Y46.000
N14060X16.892Y45.900
N14070X16.992Y46.000
N14080G01Z-1.000F30.0
N14090G01X16.892Y46.100F200.0
N14100X16.792Y46.000
N14110X16.892Y45.900
N14120X16.992Y46.000
N14130G01Z-1.025F30.0
N14140G01X16.892Y46.100F200.0
N14150X16.792Y46.000
N14160X16.892Y45.900
N14170X16.992Y46.000
N14180G01Z-1.050F30.0
N14190G01X16.892Y46.100F200.0
N14200X16.792Y46.000
N14210X16.892Y45.900
N14220X16.992Y46.000
N14230G01Z-1.075F30.0
N14240G01X16.892Y46.100F200.0
N14250X16.792Y46.000
N14260X16.892Y45.900
N14270X16.992Y46.000
N14280G01Z-1.100F30.0
N14290G01X16.892Y46.100F200.0
N14300X16.792Y46.000
N14310X16.892Y45.900
N14320X16.992Y46.000
N14330G01Z-1.125F30.0
N14340G01X16.892Y46.100F200.0
N14350X16.792Y46.000
N14360X16.892Y45.900
N14370X16.992Y46.000
N14380G01Z-1.150F30.0
N14390G01X16.892Y46.100F200.0
N14400X16.792Y46.000
N14410X16.892Y45.900
N14420X16.992Y46.000
N14430G01Z-1.175F30.0
N14440G01X16.892Y46.100F200.0
N14450X16.792Y46.000
N14460X16.892Y45.900
N14470X16.992Y46.000
N14480G01Z-1.200F30.0
N14490G01X16.892Y46.100F200.0
N14500X16.792Y46.000
N14510X16.892Y45.900
N14520X16.992Y46.000
N14530G01Z-1.225F30.0
N14540G01X16.892Y46.100F200.0
N14550X16.792Y46.000
N14560X16.892Y45.900
N14570X16.992Y46.000
N14580G01Z-1.250F30.0
N14590G01X16.892Y46.100F200.0
N14600X16.792Y46.000
N14610X16.892Y45.900
N14620X16.992Y46.000
N14630G01Z-1.275F30.0
N14640G01X16.892Y46.100F200.0
N14650X16.792Y46.000
N14660X16.892Y45.900
N14670X16.992Y46.000
N14680G01Z-1.300F30.0
N14690G01X16.892Y46.100F200.0
N14700X16.792Y46.000
N14710X16.892Y45.900
N14720X16.992Y46.000
N14730G01Z-1.325F30.0
N14740G01X16.892Y46.100F200.0
N14750X16.792Y46.000
N14760X16.892Y45.900
N14770X16.992Y46.000
N14780G01Z-1.350F30.0
N14790G01X16.892Y46.100F200.0
N14800X16.792Y46.000
N14810X16.892Y45.900
N14820X16.992Y46.000
N14830G01Z-1.375F30.0
N14840G01X16.892Y46.100F200.0
N14850X16.792Y46.000
N14860X16.892Y45.900
N14870X16.992Y46.000
N14880G01Z-1.400F30.0
N14890G01X16.892Y46.100F200.0
N14900X16.792Y46.000
N14910X16.892Y45.900
N14920X16.992Y46.000
N14930G01Z-1.425F30.0
N14940G01X16.892Y46.100F200.0
N14950X16.792Y46.000
N14960X16.892Y45.900
N14970X16.992Y46.000
N14980G01Z-1.450F30.0
N14990G01X16.892Y46.100F200.0
N15000X16.792Y46.000
N15010X16.892Y45.900
N15020X16.992Y46.000
N15030G01Z-1.475F30.0
N15040G01X16.892Y46.100F200.0
N15050X16.792Y46.000
N15060X16.892Y45.900
N15070X16.992Y46.000
N15080G01Z-1.500F30.0
N15090G01X16.892Y46.100F200.0
N15100X16.792Y46.000
N15110X16.892Y45.900
N15120X16.992Y46.000
N15130G01Z-1.525F30.0
N15140G01X16.892Y46.100F200.0
N15150X16.792Y46.000
N15160X16.892Y45.900
N15170X16.992Y46.000
N15180G01Z-1.550F30.0
N15190G01X16.892Y46.100F200.0
N15200X16.792Y46.000
N15210X16.892Y45.900
N15220X16.992Y46.000
N15230G01Z-1.575F30.0
N15240G01X16.892Y46.100F200.0
N15250X16.792Y46.000
N15260X16.892Y45.900
N15270X16.992Y46.000
N15280G01Z-1.600F30.0
N15290G01X16.892Y46.100F200.0
N15300X16.792Y46.000
N15310X16.892Y45.900
N15320X16.992Y46.000
N15330G01Z-1.625F30.0
N15340G01X16.892Y46.100F200.0
N15350X16.792Y46.000
N15360X16.892Y45.900
N15370X16.992Y46.000
N15380G01Z-1.650F30.0
N15390G01X16.892Y46.100F200.0
N15400X16.792Y46.000
N15410X16.892Y45.900
N15420X16.992Y46.000
N15430G01Z-1.675F30.0
N15440G01X16.892Y46.100F200.0
N15450X16.792Y46.000
N15460X16.892Y45.900
N15470X16.992Y46.000
N15480G01Z-1.700F30.0
N15490G01X16.892Y46.100F200.0
N15500X16.792Y46.000
N15510X16.892Y45.900
N15520X16.992Y46.000
N15530G01Z-1.725F30.0
N15540G01X16.892Y46.100F200.0
N15550X16.792Y46.000
N15560X16.892Y45.900
N15570X16.992Y46.000
N15580G01Z-1.750F30.0
N15590G01X16.892Y46.100F200.0
N15600X16.792Y46.000
N15610X16.892Y45.900
N15620X16.992Y46.000
N15630G01Z-1.775F30.0
N15640G01X16.892Y46.100F200.0
N15650X16.792Y46.000
N15660X16.892Y45.900
N15670X16.992Y46.000
N15680G01Z-1.800F30.0
N15690G01X16.892Y46.100F200.0
N15700X16.792Y46.000
N15710X16.892Y45.900
N15720X16.992Y46.000
N15730G01Z-1.825F30.0
N15740G01X16.892Y46.100F200.0
N15750X16.792Y46.000
N15760X16.892Y45.900
N15770X16.992Y46.000
N15780G01Z-1.850F30.0
N15790G01X16.892Y46.100F200.0
N15800X16.792Y46.000
N15810X16.892Y45.900
N15820X16.992Y46.000
N15830G01Z-1.875F30.0
N15840G01X16.892Y46.100F200.0
N15850X16.792Y46.000
N15860X16.892Y45.900
N15870X16.992Y46.000
N15880G01Z-1.900F30.0
N15890G01X16.892Y46.100F200.0
N15900X16.792Y46.000
N15910X16.892Y45.900
N15920X16.992Y46.000
N15930G01Z-1.925F30.0
N15940G01X16.892Y46.100F200.0
N15950X16.792Y46.000
N15960X16.892Y45.900
N15970X16.992Y46.000
N15980G01Z-1.950F30.0
N15990G01X16.892Y46.100F200.0
N16000X16.792Y46.000
N16010X16.892Y45.900
N16020X16.992Y46.000
N16030G01Z-1.975F30.0
N16040G01X16.892Y46.100F200.0
N16050X16.792Y46.000
N16060X16.892Y45.900
N16070X16.992Y46.000
N16080G01Z-2.000F30.0
N16090G01X16.892Y46.100F200.0
N16100X16.792Y46.000
N16110X16.892Y45.900
N16120X16.992Y46.000
N16130G01Z-2.025F30.0
N16140G01X16.892Y46.100F200.0
N16150X16.792Y46.000
N16160X16.892Y45.900
N16170X16.992Y46.000
N16180G01Z-2.050F30.0
N16190G01X16.892Y46.100F200.0
N16200X16.792Y46.000
N16210X16.892Y45.900
N16220X16.992Y46.000
N16230G01Z-2.075F30.0
N16240G01X16.892Y46.100F200.0
N16250X16.792Y46.000
N16260X16.892Y45.900
N16270X16.992Y46.000
N16280G01Z-2.100F30.0
N16290G01X16.892Y46.100F200.0
N16300X16.792Y46.000
N16310X16.892Y45.900
N16320X16.992Y46.000
N16330G01Z-2.125F30.0
N16340G01X16.892Y46.100F200.0
N16350X16.792Y46.000
N16360X16.892Y45.900
N16370X16.992Y46.000
N16380G01Z-2.150F30.0
N16390G01X16.892Y46.100F200.0
N16400X16.792Y46.000
N16410X16.892Y45.900
N16420X16.992Y46.000
N16430G01Z-2.175F30.0
N16440G01X16.892Y46.100F200.0
N16450X16.792Y46.000
N16460X16.892Y45.900
N16470X16.992Y46.000
N16480G01Z-2.200F30.0
N16490G01X16.892Y46.100F200.0
N16500X16.792Y46.000
N16510X16.892Y45.900
N16520X16.992Y46.000
N16530G01Z-2.225F30.0
N16540G01X16.892Y46.100F200.0
N16550X16.792Y46.000
N16560X16.892Y45.900
N16570X16.992Y46.000
N16580G01Z-2.250F30.0
N16590G01X16.892Y46.100F200.0
N16600X16.792Y46.000
N16610X16.892Y45.900
N16620X16.992Y46.000
N16630G01Z-2.275F30.0
N16640G01X16.892Y46.100F200.0
N16650X16.792Y46.000
N16660X16.892Y45.900
N16670X16.992Y46.000
N16680G01Z-2.300F30.0
N16690G01X16.892Y46.100F200.0
N16700X16.792Y46.000
N16710X16.892Y45.900
N16720X16.992Y46.000
N16730G01Z-2.325F30.0
N16740G01X16.892Y46.100F200.0
N16750X16.792Y46.000
N16760X16.892Y45.900
N16770X16.992Y46.000
N16780G01Z-2.350F30.0
N16790G01X16.892Y46.100F200.0
N16800X16.792Y46.000
N16810X16.892Y45.900
N16820X16.992Y46.000
N16830G01Z-2.375F30.0
N16840G01X16.892Y46.100F200.0
N16850X16.792Y46.000
N16860X16.892Y45.900
N16870X16.992Y46.000
N16880G01Z-2.400F30.0
N16890G01X16.892Y46.100F200.0
N16900X16.792Y46.000
N16910X16.892Y45.900
N16920X16.992Y46.000
N16930G01Z-2.425F30.0
N16940G01X16.892Y46.100F200.0
N16950X16.792Y46.000
N16960X16.892Y45.900
N16970X16.992Y46.000
N16980G01Z-2.450F30.0
N16990G01X16.892Y46.100F200.0
N17000X16.792Y46.000
N17010X16.892Y45.900
N17020X16.992Y46.000
N17030G01Z-2.475F30.0
N17040G01X16.892Y46.100F200.0
N17050X16.792Y46.000
N17060X16.892Y45.900
N17070X16.992Y46.000
N17080G01Z-2.500F30.0
N17090G01X16.892Y46.100F200.0
N17100X16.792Y46.000
N17110X16.892Y45.900
N17120X16.992Y46.000
N17130G01Z-2.525F30.0
N17140G01X16.892Y46.100F200.0
N17150X16.792Y46.000
N17160X16.892Y45.900
N17170X16.992Y46.000
N17180G01Z-2.550F30.0
N17190G01X16.892Y46.100F200.0
N17200X16.792Y46.000
N17210X16.892Y45.900
N17220X16.992Y46.000
N17230G01Z-2.575F30.0
N17240G01X16.892Y46.100F200.0
N17250X16.792Y46.000
N17260X16.892Y45.900
N17270X16.992Y46.000
N17280G01Z-2.600F30.0
N17290G01X16.892Y46.100F200.0
N17300X16.792Y46.000
N17310X16.892Y45.900
N17320X16.992Y46.000
N17330G01Z-2.625F30.0
N17340G01X16.892Y46.100F200.0
N17350X16.792Y46.000
N17360X16.892Y45.900
N17370X16.992Y46.000
N17380G01Z-2.650F30.0
N17390G01X16.892Y46.100F200.0
N17400X16.792Y46.000
N17410X16.892Y45.900
N17420X16.992Y46.000
N17430G01Z-2.675F30.0
N17440G01X16.892Y46.100F200.0
N17450X16.792Y46.000
N17460X16.892Y45.900
N17470X16.992Y46.000
N17480G01Z-2.700F30.0
N17490G01X16.892Y46.100F200.0
N17500X16.792Y46.000
N17510X16.892Y45.900
N17520X16.992Y46.000
N17530G01Z-2.725F30.0
N17540G01X16.892Y46.100F200.0
N17550X16.792Y46.000
N17560X16.892Y45.900
N17570X16.992Y46.000
N17580G01Z-2.750F30.0
N17590G01X16.892Y46.100F200.0
N17600X16.792Y46.000
N17610X16.892Y45.900
N17620X16.992Y46.000
N17630G01Z-2.775F30.0
N17640G01X16.892Y46.100F200.0
N17650X16.792Y46.000
N17660X16.892Y45.900
N17670X16.992Y46.000
N17680G01Z-2.800F30.0
N17690G01X16.892Y46.100F200.0
N17700X16.792Y46.000
N17710X16.892Y45.900
N17720X16.992Y46.000
N17730G01Z-2.825F30.0
N17740G01X16.892Y46.100F200.0
N17750X16.792Y46.000
N17760X16.892Y45.900
N17770X16.992Y46.000
N17780G01Z-2.850F30.0
N17790G01X16.892Y46.100F200.0
N17800X16.792Y46.000
N17810X16.892Y45.900
N17820X16.992Y46.000
N17830G01Z-2.875F30.0
N17840G01X16.892Y46.100F200.0
N17850X16.792Y46.000
N17860X16.892Y45.900
N17870X16.992Y46.000
N17880G01Z-2.900F30.0
N17890G01X16.892Y46.100F200.0
N17900X16.792Y46.000
N17910X16.892Y45.900
N17920X16.992Y46.000
N17930G01Z-2.925F30.0
N17940G01X16.892Y46.100F200.0
N17950X16.792Y46.000
N17960X16.892Y45.900
N17970X16.992Y46.000
N17980G01Z-2.950F30.0
N17990G01X16.892Y46.100F200.0
N18000X16.792Y46.000
N18010X16.892Y45.900
N18020X16.992Y46.000
N18030G01Z-2.975F30.0
N18040G01X16.892Y46.100F200.0
N18050X16.792Y46.000
N18060X16.892Y45.900
N18070X16.992Y46.000
N18080G01Z-3.000F30.0
N18090G01X16.892Y46.100F200.0
N18100X16.792Y46.000
N18110X16.892Y45.900
N18120X16.992Y46.000
N18130G00Z6.000
N18140G00X36.992Y42.715
N18150G01Z-0.025F30.0
N18160G3X36.392Y43.315I-0.600J0.000F200.0
N18170G3X35.792Y42.715I0.000J-0.600
N18180G3X36.392Y42.115I0.600J0.000
N18190G3X36.992Y42.715I0.000J0.600
N18200G01Z-0.050F30.0
N18210G3X36.392Y43.315I-0.600J0.000F200.0
N18220G3X35.792Y42.715I0.000J-0.600
N18230G3X36.392Y42.115I0.600J0.000
N18240G3X36.992Y42.715I0.000J0.600
N18250G01Z-0.075F30.0
N18260G3X36.392Y43.315I-0.600J0.000F200.0
N18270G3X35.792Y42.715I0.000J-0.600
N18280G3X36.392Y42.115I0.600J0.000
N18290G3X36.992Y42.715I0.000J0.600
N18300G01Z-0.100F30.0
N18310G3X36.392Y43.315I-0.600J0.000F200.0
N18320G3X35.792Y42.715I0.000J-0.600
N18330G3X36.392Y42.115I0.600J0.000
N18340G3X36.992Y42.715I0.000J0.600
N18350G01Z-0.125F30.0
N18360G3X36.392Y43.315I-0.600J0.000F200.0
N18370G3X35.792Y42.715I0.000J-0.600
N18380G3X36.392Y42.115I0.600J0.000
N18390G3X36.992Y42.715I0.000J0.600
N18400G01Z-0.150F30.0
N18410G3X36.392Y43.315I-0.600J0.000F200.0
N18420G3X35.792Y42.715I0.000J-0.600
N18430G3X36.392Y42.115I0.600J0.000
N18440G3X36.992Y42.715I0.000J0.600
N18450G01Z-0.175F30.0
N18460G3X36.392Y43.315I-0.600J0.000F200.0
N18470G3X35.792Y42.715I0.000J-0.600
N18480G3X36.392Y42.115I0.600J0.000
N18490G3X36.992Y42.715I0.000J0.600
N18500G01Z-0.200F30.0
N18510G3X36.392Y43.315I-0.600J0.000F200.0
N18520G3X35.792Y42.715I0.000J-0.600
N18530G3X36.392Y42.115I0.600J0.000
N18540G3X36.992Y42.715I0.000J0.600
N18550G01Z-0.225F30.0
N18560G3X36.392Y43.315I-0.600J0.000F200.0
N18570G3X35.792Y42.715I0.000J-0.600
N18580G3X36.392Y42.115I0.600J0.000
N18590G3X36.992Y42.715I0.000J0.600
N18600G01Z-0.250F30.0
N18610G3X36.392Y43.315I-0.600J0.000F200.0
N18620G3X35.792Y42.715I0.000J-0.600
N18630G3X36.392Y42.115I0.600J0.000
N18640G3X36.992Y42.715I0.000J0.600
N18650G01Z-0.275F30.0
N18660G3X36.392Y43.315I-0.600J0.000F200.0
N18670G3X35.792Y42.715I0.000J-0.600
N18680G3X36.392Y42.115I0.600J0.000
N18690G3X36.992Y42.715I0.000J0.600
N18700G01Z-0.300F30.0
N18710G3X36.392Y43.315I-0.600J0.000F200.0
N18720G3X35.792Y42.715I0.000J-0.600
N18730G3X36.392Y42.115I0.600J0.000
N18740G3X36.992Y42.715I0.000J0.600
N18750G01Z-0.325F30.0
N18760G3X36.392Y43.315I-0.600J0.000F200.0
N18770G3X35.792Y42.715I0.000J-0.600
N18780G3X36.392Y42.115I0.600J0.000
N18790G3X36.992Y42.715I0.000J0.600
N18800G01Z-0.350F30.0
N18810G3X36.392Y43.315I-0.600J0.000F200.0
N18820G3X35.792Y42.715I0.000J-0.600
N18830G3X36.392Y42.115I0.600J0.000
N18840G3X36.992Y42.715I0.000J0.600
N18850G01Z-0.375F30.0
N18860G3X36.392Y43.315I-0.600J0.000F200.0
N18870G3X35.792Y42.715I0.000J-0.600
N18880G3X36.392Y42.115I0.600J0.000
N18890G3X36.992Y42.715I0.000J0.600
N18900G01Z-0.400F30.0
N18910G3X36.392Y43.315I-0.600J0.000F200.0
N18920G3X35.792Y42.715I0.000J-0.600
N18930G3X36.392Y42.115I0.600J0.000
N18940G3X36.992Y42.715I0.000J0.600
N18950G01Z-0.425F30.0
N18960G3X36.392Y43.315I-0.600J0.000F200.0
N18970G3X35.792Y42.715I0.000J-0.600
N18980G3X36.392Y42.115I0.600J0.000
N18990G3X36.992Y42.715I0.000J0.600
N19000G01Z-0.450F30.0
N19010G3X36.392Y43.315I-0.600J0.000F200.0
N19020G3X35.792Y42.715I0.000J-0.600
N19030G3X36.392Y42.115I0.600J0.000
N19040G3X36.992Y42.715I0.000J0.600
N19050G01Z-0.475F30.0
N19060G3X36.392Y43.315I-0.600J0.000F200.0
N19070G3X35.792Y42.715I0.000J-0.600
N19080G3X36.392Y42.115I0.600J0.000
N19090G3X36.992Y42.715I0.000J0.600
N19100G01Z-0.500F30.0
N19110G3X36.392Y43.315I-0.600J0.000F200.0
N19120G3X35.792Y42.715I0.000J-0.600
N19130G3X36.392Y42.115I0.600J0.000
N19140G3X36.992Y42.715I0.000J0.600
N19150G01Z-0.525F30.0
N19160G3X36.392Y43.315I-0.600J0.000F200.0
N19170G3X35.792Y42.715I0.000J-0.600
N19180G3X36.392Y42.115I0.600J0.000
N19190G3X36.992Y42.715I0.000J0.600
N19200G01Z-0.550F30.0
N19210G3X36.392Y43.315I-0.600J0.000F200.0
N19220G3X35.792Y42.715I0.000J-0.600
N19230G3X36.392Y42.115I0.600J0.000
N19240G3X36.992Y42.715I0.000J0.600
N19250G01Z-0.575F30.0
N19260G3X36.392Y43.315I-0.600J0.000F200.0
N19270G3X35.792Y42.715I0.000J-0.600
N19280G3X36.392Y42.115I0.600J0.000
N19290G3X36.992Y42.715I0.000J0.600
N19300G01Z-0.600F30.0
N19310G3X36.392Y43.315I-0.600J0.000F200.0
N19320G3X35.792Y42.715I0.000J-0.600
N19330G3X36.392Y42.115I0.600J0.000
N19340G3X36.992Y42.715I0.000J0.600
N19350G01Z-0.625F30.0
N19360G3X36.392Y43.315I-0.600J0.000F200.0
N19370G3X35.792Y42.715I0.000J-0.600
N19380G3X36.392Y42.115I0.600J0.000
N19390G3X36.992Y42.715I0.000J0.600
N19400G01Z-0.650F30.0
N19410G3X36.392Y43.315I-0.600J0.000F200.0
N19420G3X35.792Y42.715I0.000J-0.600
N19430G3X36.392Y42.115I0.600J0.000
N19440G3X36.992Y42.715I0.000J0.600
N19450G01Z-0.675F30.0
N19460G3X36.392Y43.315I-0.600J0.000F200.0
N19470G3X35.792Y42.715I0.000J-0.600
N19480G3X36.392Y42.115I0.600J0.000
N19490G3X36.992Y42.715I0.000J0.600
N19500G01Z-0.700F30.0
N19510G3X36.392Y43.315I-0.600J0.000F200.0
N19520G3X35.792Y42.715I0.000J-0.600
N19530G3X36.392Y42.115I0.600J0.000
N19540G3X36.992Y42.715I0.000J0.600
N19550G01Z-0.725F30.0
N19560G3X36.392Y43.315I-0.600J0.000F200.0
N19570G3X35.792Y42.715I0.000J-0.600
N19580G3X36.392Y42.115I0.600J0.000
N19590G3X36.992Y42.715I0.000J0.600
N19600G01Z-0.750F30.0
N19610G3X36.392Y43.315I-0.600J0.000F200.0
N19620G3X35.792Y42.715I0.000J-0.600
N19630G3X36.392Y42.115I0.600J0.000
N19640G3X36.992Y42.715I0.000J0.600
N19650G01Z-0.775F30.0
N19660G3X36.392Y43.315I-0.600J0.000F200.0
N19670G3X35.792Y42.715I0.000J-0.600
N19680G3X36.392Y42.115I0.600J0.000
N19690G3X36.992Y42.715I0.000J0.600
N19700G01Z-0.800F30.0
N19710G3X36.392Y43.315I-0.600J0.000F200.0
N19720G3X35.792Y42.715I0.000J-0.600
N19730G3X36.392Y42.115I0.600J0.000
N19740G3X36.992Y42.715I0.000J0.600
N19750G01Z-0.825F30.0
N19760G3X36.392Y43.315I-0.600J0.000F200.0
N19770G3X35.792Y42.715I0.000J-0.600
N19780G3X36.392Y42.115I0.600J0.000
N19790G3X36.992Y42.715I0.000J0.600
N19800G01Z-0.850F30.0
N19810G3X36.392Y43.315I-0.600J0.000F200.0
N19820G3X35.792Y42.715I0.000J-0.600
N19830G3X36.392Y42.115I0.600J0.000
N19840G3X36.992Y42.715I0.000J0.600
N19850G01Z-0.875F30.0
N19860G3X36.392Y43.315I-0.600J0.000F200.0
N19870G3X35.792Y42.715I0.000J-0.600
N19880G3X36.392Y42.115I0.600J0.000
N19890G3X36.992Y42.715I0.000J0.600
N19900G01Z-0.900F30.0
N19910G3X36.392Y43.315I-0.600J0.000F200.0
N19920G3X35.792Y42.715I0.000J-0.600
N19930G3X36.392Y42.115I0.600J0.000
N19940G3X36.992Y42.715I0.000J0.600
N19950G01Z-0.925F30.0
N19960G3X36.392Y43.315I-0.600J0.000F200.0
N19970G3X35.792Y42.715I0.000J-0.600
N19980G3X36.392Y42.115I0.600J0.000
N19990G3X36.992Y42.715I0.000J0.600
N20000G01Z-0.950F30.0
N20010G3X36.392Y43.315I-0.600J0.000F200.0
N20020G3X35.792Y42.715I0.000J-0.600
N20030G3X36.392Y42.115I0.600J0.000
N20040G3X36.992Y42.715I0.000J0.600
N20050G01Z-0.975F30.0
N20060G3X36.392Y43.315I-0.600J0.000F200.0
N20070G3X35.792Y42.715I0.000J-0.600
N20080G3X36.392Y42.115I0.600J0.000
N20090G3X36.992Y42.715I0.000J0.600
N20100G01Z-1.000F30.0
N20110G3X36.392Y43.315I-0.600J0.000F200.0
N20120G3X35.792Y42.715I0.000J-0.600
N20130G3X36.392Y42.115I0.600J0.000
N20140G3X36.992Y42.715I0.000J0.600
N20150G01Z-1.025F30.0
N20160G3X36.392Y43.315I-0.600J0.000F200.0
N20170G3X35.792Y42.715I0.000J-0.600
N20180G3X36.392Y42.115I0.600J0.000
N20190G3X36.992Y42.715I0.000J0.600
N20200G01Z-1.050F30.0
N20210G3X36.392Y43.315I-0.600J0.000F200.0
N20220G3X35.792Y42.715I0.000J-0.600
N20230G3X36.392Y42.115I0.600J0.000
N20240G3X36.992Y42.715I0.000J0.600
N20250G01Z-1.075F30.0
N20260G3X36.392Y43.315I-0.600J0.000F200.0
N20270G3X35.792Y42.715I0.000J-0.600
N20280G3X36.392Y42.115I0.600J0.000
N20290G3X36.992Y42.715I0.000J0.600
N20300G01Z-1.100F30.0
N20310G3X36.392Y43.315I-0.600J0.000F200.0
N20320G3X35.792Y42.715I0.000J-0.600
N20330G3X36.392Y42.115I0.600J0.000
N20340G3X36.992Y42.715I0.000J0.600
N20350G01Z-1.125F30.0
N20360G3X36.392Y43.315I-0.600J0.000F200.0
N20370G3X35.792Y42.715I0.000J-0.600
N20380G3X36.392Y42.115I0.600J0.000
N20390G3X36.992Y42.715I0.000J0.600
N20400G01Z-1.150F30.0
N20410G3X36.392Y43.315I-0.600J0.000F200.0
N20420G3X35.792Y42.715I0.000J-0.600
N20430G3X36.392Y42.115I0.600J0.000
N20440G3X36.992Y42.715I0.000J0.600
N20450G01Z-1.175F30.0
N20460G3X36.392Y43.315I-0.600J0.000F200.0
N20470G3X35.792Y42.715I0.000J-0.600
N20480G3X36.392Y42.115I0.600J0.000
N20490G3X36.992Y42.715I0.000J0.600
N20500G01Z-1.200F30.0
N20510G3X36.392Y43.315I-0.600J0.000F200.0
N20520G3X35.792Y42.715I0.000J-0.600
N20530G3X36.392Y42.115I0.600J0.000
N20540G3X36.992Y42.715I0.000J0.600
N20550G01Z-1.225F30.0
N20560G3X36.392Y43.315I-0.600J0.000F200.0
N20570G3X35.792Y42.715I0.000J-0.600
N20580G3X36.392Y42.115I0.600J0.000
N20590G3X36.992Y42.715I0.000J0.600
N20600G01Z-1.250F30.0
N20610G3X36.392Y43.315I-0.600J0.000F200.0
N20620G3X35.792Y42.715I0.000J-0.600
N20630G3X36.392Y42.115I0.600J0.000
N20640G3X36.992Y42.715I0.000J0.600
N20650G01Z-1.275F30.0
N20660G3X36.392Y43.315I-0.600J0.000F200.0
N20670G3X35.792Y42.715I0.000J-0.600
N20680G3X36.392Y42.115I0.600J0.000
N20690G3X36.992Y42.715I0.000J0.600
N20700G01Z-1.300F30.0
N20710G3X36.392Y43.315I-0.600J0.000F200.0
N20720G3X35.792Y42.715I0.000J-0.600
N20730G3X36.392Y42.115I0.600J0.000
N20740G3X36.992Y42.715I0.000J0.600
N20750G01Z-1.325F30.0
N20760G3X36.392Y43.315I-0.600J0.000F200.0
N20770G3X35.792Y42.715I0.000J-0.600
N20780G3X36.392Y42.115I0.600J0.000
N20790G3X36.992Y42.715I0.000J0.600
N20800G01Z-1.350F30.0
N20810G3X36.392Y43.315I-0.600J0.000F200.0
N20820G3X35.792Y42.715I0.000J-0.600
N20830G3X36.392Y42.115I0.600J0.000
N20840G3X36.992Y42.715I0.000J0.600
N20850G01Z-1.375F30.0
N20860G3X36.392Y43.315I-0.600J0.000F200.0
N20870G3X35.792Y42.715I0.000J-0.600
N20880G3X36.392Y42.115I0.600J0.000
N20890G3X36.992Y42.715I0.000J0.600
N20900G01Z-1.400F30.0
N20910G3X36.392Y43.315I-0.600J0.000F200.0
N20920G3X35.792Y42.715I0.000J-0.600
N20930G3X36.392Y42.115I0.600J0.000
N20940G3X36.992Y42.715I0.000J0.600
N20950G01Z-1.425F30.0
N20960G3X36.392Y43.315I-0.600J0.000F200.0
N20970G3X35.792Y42.715I0.000J-0.600
N20980G3X36.392Y42.115I0.600J0.000
N20990G3X36.992Y42.715I0.000J0.600
N21000G01Z-1.450F30.0
N21010G3X36.392Y43.315I-0.600J0.000F200.0
N21020G3X35.792Y42.715I0.000J-0.600
N21030G3X36.392Y42.115I0.600J0.000
N21040G3X36.992Y42.715I0.000J0.600
N21050G01Z-1.475F30.0
N21060G3X36.392Y43.315I-0.600J0.000F200.0
N21070G3X35.792Y42.715I0.000J-0.600
N21080G3X36.392Y42.115I0.600J0.000
N21090G3X36.992Y42.715I0.000J0.600
N21100G01Z-1.500F30.0
N21110G3X36.392Y43.315I-0.600J0.000F200.0
N21120G3X35.792Y42.715I0.000J-0.600
N21130G3X36.392Y42.115I0.600J0.000
N21140G3X36.992Y42.715I0.000J0.600
N21150G01Z-1.525F30.0
N21160G3X36.392Y43.315I-0.600J0.000F200.0
N21170G3X35.792Y42.715I0.000J-0.600
N21180G3X36.392Y42.115I0.600J0.000
N21190G3X36.992Y42.715I0.000J0.600
N21200G01Z-1.550F30.0
N21210G3X36.392Y43.315I-0.600J0.000F200.0
N21220G3X35.792Y42.715I0.000J-0.600
N21230G3X36.392Y42.115I0.600J0.000
N21240G3X36.992Y42.715I0.000J0.600
N21250G01Z-1.575F30.0
N21260G3X36.392Y43.315I-0.600J0.000F200.0
N21270G3X35.792Y42.715I0.000J-0.600
N21280G3X36.392Y42.115I0.600J0.000
N21290G3X36.992Y42.715I0.000J0.600
N21300G01Z-1.600F30.0
N21310G3X36.392Y43.315I-0.600J0.000F200.0
N21320G3X35.792Y42.715I0.000J-0.600
N21330G3X36.392Y42.115I0.600J0.000
N21340G3X36.992Y42.715I0.000J0.600
N21350G01Z-1.625F30.0
N21360G3X36.392Y43.315I-0.600J0.000F200.0
N21370G3X35.792Y42.715I0.000J-0.600
N21380G3X36.392Y42.115I0.600J0.000
N21390G3X36.992Y42.715I0.000J0.600
N21400G01Z-1.650F30.0
N21410G3X36.392Y43.315I-0.600J0.000F200.0
N21420G3X35.792Y42.715I0.000J-0.600
N21430G3X36.392Y42.115I0.600J0.000
N21440G3X36.992Y42.715I0.000J0.600
N21450G01Z-1.675F30.0
N21460G3X36.392Y43.315I-0.600J0.000F200.0
N21470G3X35.792Y42.715I0.000J-0.600
N21480G3X36.392Y42.115I0.600J0.000
N21490G3X36.992Y42.715I0.000J0.600
N21500G01Z-1.700F30.0
N21510G3X36.392Y43.315I-0.600J0.000F200.0
N21520G3X35.792Y42.715I0.000J-0.600
N21530G3X36.392Y42.115I0.600J0.000
N21540G3X36.992Y42.715I0.000J0.600
N21550G01Z-1.725F30.0
N21560G3X36.392Y43.315I-0.600J0.000F200.0
N21570G3X35.792Y42.715I0.000J-0.600
N21580G3X36.392Y42.115I0.600J0.000
N21590G3X36.992Y42.715I0.000J0.600
N21600G01Z-1.750F30.0
N21610G3X36.392Y43.315I-0.600J0.000F200.0
N21620G3X35.792Y42.715I0.000J-0.600
N21630G3X36.392Y42.115I0.600J0.000
N21640G3X36.992Y42.715I0.000J0.600
N21650G01Z-1.775F30.0
N21660G3X36.392Y43.315I-0.600J0.000F200.0
N21670G3X35.792Y42.715I0.000J-0.600
N21680G3X36.392Y42.115I0.600J0.000
N21690G3X36.992Y42.715I0.000J0.600
N21700G01Z-1.800F30.0
N21710G3X36.392Y43.315I-0.600J0.000F200.0
N21720G3X35.792Y42.715I0.000J-0.600
N21730G3X36.392Y42.115I0.600J0.000
N21740G3X36.992Y42.715I0.000J0.600
N21750G01Z-1.825F30.0
N21760G3X36.392Y43.315I-0.600J0.000F200.0
N21770G3X35.792Y42.715I0.000J-0.600
N21780G3X36.392Y42.115I0.600J0.000
N21790G3X36.992Y42.715I0.000J0.600
N21800G01Z-1.850F30.0
N21810G3X36.392Y43.315I-0.600J0.000F200.0
N21820G3X35.792Y42.715I0.000J-0.600
N21830G3X36.392Y42.115I0.600J0.000
N21840G3X36.992Y42.715I0.000J0.600
N21850G01Z-1.875F30.0
N21860G3X36.392Y43.315I-0.600J0.000F200.0
N21870G3X35.792Y42.715I0.000J-0.600
N21880G3X36.392Y42.115I0.600J0.000
N21890G3X36.992Y42.715I0.000J0.600
N21900G01Z-1.900F30.0
N21910G3X36.392Y43.315I-0.600J0.000F200.0
N21920G3X35.792Y42.715I0.000J-0.600
N21930G3X36.392Y42.115I0.600J0.000
N21940G3X36.992Y42.715I0.000J0.600
N21950G01Z-1.925F30.0
N21960G3X36.392Y43.315I-0.600J0.000F200.0
N21970G3X35.792Y42.715I0.000J-0.600
N21980G3X36.392Y42.115I0.600J0.000
N21990G3X36.992Y42.715I0.000J0.600
N22000G01Z-1.950F30.0
N22010G3X36.392Y43.315I-0.600J0.000F200.0
N22020G3X35.792Y42.715I0.000J-0.600
N22030G3X36.392Y42.115I0.600J0.000
N22040G3X36.992Y42.715I0.000J0.600
N22050G01Z-1.975F30.0
N22060G3X36.392Y43.315I-0.600J0.000F200.0
N22070G3X35.792Y42.715I0.000J-0.600
N22080G3X36.392Y42.115I0.600J0.000
N22090G3X36.992Y42.715I0.000J0.600
N22100G01Z-2.000F30.0
N22110G3X36.392Y43.315I-0.600J0.000F200.0
N22120G3X35.792Y42.715I0.000J-0.600
N22130G3X36.392Y42.115I0.600J0.000
N22140G3X36.992Y42.715I0.000J0.600
N22150G01Z-2.025F30.0
N22160G3X36.392Y43.315I-0.600J0.000F200.0
N22170G3X35.792Y42.715I0.000J-0.600
N22180G3X36.392Y42.115I0.600J0.000
N22190G3X36.992Y42.715I0.000J0.600
N22200G01Z-2.050F30.0
N22210G3X36.392Y43.315I-0.600J0.000F200.0
N22220G3X35.792Y42.715I0.000J-0.600
N22230G3X36.392Y42.115I0.600J0.000
N22240G3X36.992Y42.715I0.000J0.600
N22250G01Z-2.075F30.0
N22260G3X36.392Y43.315I-0.600J0.000F200.0
N22270G3X35.792Y42.715I0.000J-0.600
N22280G3X36.392Y42.115I0.600J0.000
N22290G3X36.992Y42.715I0.000J0.600
N22300G01Z-2.100F30.0
N22310G3X36.392Y43.315I-0.600J0.000F200.0
N22320G3X35.792Y42.715I0.000J-0.600
N22330G3X36.392Y42.115I0.600J0.000
N22340G3X36.992Y42.715I0.000J0.600
N22350G01Z-2.125F30.0
N22360G3X36.392Y43.315I-0.600J0.000F200.0
N22370G3X35.792Y42.715I0.000J-0.600
N22380G3X36.392Y42.115I0.600J0.000
N22390G3X36.992Y42.715I0.000J0.600
N22400G01Z-2.150F30.0
N22410G3X36.392Y43.315I-0.600J0.000F200.0
N22420G3X35.792Y42.715I0.000J-0.600
N22430G3X36.392Y42.115I0.600J0.000
N22440G3X36.992Y42.715I0.000J0.600
N22450G01Z-2.175F30.0
N22460G3X36.392Y43.315I-0.600J0.000F200.0
N22470G3X35.792Y42.715I0.000J-0.600
N22480G3X36.392Y42.115I0.600J0.000
N22490G3X36.992Y42.715I0.000J0.600
N22500G01Z-2.200F30.0
N22510G3X36.392Y43.315I-0.600J0.000F200.0
N22520G3X35.792Y42.715I0.000J-0.600
N22530G3X36.392Y42.115I0.600J0.000
N22540G3X36.992Y42.715I0.000J0.600
N22550G01Z-2.225F30.0
N22560G3X36.392Y43.315I-0.600J0.000F200.0
N22570G3X35.792Y42.715I0.000J-0.600
N22580G3X36.392Y42.115I0.600J0.000
N22590G3X36.992Y42.715I0.000J0.600
N22600G01Z-2.250F30.0
N22610G3X36.392Y43.315I-0.600J0.000F200.0
N22620G3X35.792Y42.715I0.000J-0.600
N22630G3X36.392Y42.115I0.600J0.000
N22640G3X36.992Y42.715I0.000J0.600
N22650G01Z-2.275F30.0
N22660G3X36.392Y43.315I-0.600J0.000F200.0
N22670G3X35.792Y42.715I0.000J-0.600
N22680G3X36.392Y42.115I0.600J0.000
N22690G3X36.992Y42.715I0.000J0.600
N22700G01Z-2.300F30.0
N22710G3X36.392Y43.315I-0.600J0.000F200.0
N22720G3X35.792Y42.715I0.000J-0.600
N22730G3X36.392Y42.115I0.600J0.000
N22740G3X36.992Y42.715I0.000J0.600
N22750G01Z-2.325F30.0
N22760G3X36.392Y43.315I-0.600J0.000F200.0
N22770G3X35.792Y42.715I0.000J-0.600
N22780G3X36.392Y42.115I0.600J0.000
N22790G3X36.992Y42.715I0.000J0.600
N22800G01Z-2.350F30.0
N22810G3X36.392Y43.315I-0.600J0.000F200.0
N22820G3X35.792Y42.715I0.000J-0.600
N22830G3X36.392Y42.115I0.600J0.000
N22840G3X36.992Y42.715I0.000J0.600
N22850G01Z-2.375F30.0
N22860G3X36.392Y43.315I-0.600J0.000F200.0
N22870G3X35.792Y42.715I0.000J-0.600
N22880G3X36.392Y42.115I0.600J0.000
N22890G3X36.992Y42.715I0.000J0.600
N22900G01Z-2.400F30.0
N22910G3X36.392Y43.315I-0.600J0.000F200.0
N22920G3X35.792Y42.715I0.000J-0.600
N22930G3X36.392Y42.115I0.600J0.000
N22940G3X36.992Y42.715I0.000J0.600
N22950G01Z-2.425F30.0
N22960G3X36.392Y43.315I-0.600J0.000F200.0
N22970G3X35.792Y42.715I0.000J-0.600
N22980G3X36.392Y42.115I0.600J0.000
N22990G3X36.992Y42.715I0.000J0.600
N23000G01Z-2.450F30.0
N23010G3X36.392Y43.315I-0.600J0.000F200.0
N23020G3X35.792Y42.715I0.000J-0.600
N23030G3X36.392Y42.115I0.600J0.000
N23040G3X36.992Y42.715I0.000J0.600
N23050G01Z-2.475F30.0
N23060G3X36.392Y43.315I-0.600J0.000F200.0
N23070G3X35.792Y42.715I0.000J-0.600
N23080G3X36.392Y42.115I0.600J0.000
N23090G3X36.992Y42.715I0.000J0.600
N23100G01Z-2.500F30.0
N23110G3X36.392Y43.315I-0.600J0.000F200.0
N23120G3X35.792Y42.715I0.000J-0.600
N23130G3X36.392Y42.115I0.600J0.000
N23140G3X36.992Y42.715I0.000J0.600
N23150G01Z-2.525F30.0
N23160G3X36.392Y43.315I-0.600J0.000F200.0
N23170G3X35.792Y42.715I0.000J-0.600
N23180G3X36.392Y42.115I0.600J0.000
N23190G3X36.992Y42.715I0.000J0.600
N23200G01Z-2.550F30.0
N23210G3X36.392Y43.315I-0.600J0.000F200.0
N23220G3X35.792Y42.715I0.000J-0.600
N23230G3X36.392Y42.115I0.600J0.000
N23240G3X36.992Y42.715I0.000J0.600
N23250G01Z-2.575F30.0
N23260G3X36.392Y43.315I-0.600J0.000F200.0
N23270G3X35.792Y42.715I0.000J-0.600
N23280G3X36.392Y42.115I0.600J0.000
N23290G3X36.992Y42.715I0.000J0.600
N23300G01Z-2.600F30.0
N23310G3X36.392Y43.315I-0.600J0.000F200.0
N23320G3X35.792Y42.715I0.000J-0.600
N23330G3X36.392Y42.115I0.600J0.000
N23340G3X36.992Y42.715I0.000J0.600
N23350G01Z-2.625F30.0
N23360G3X36.392Y43.315I-0.600J0.000F200.0
N23370G3X35.792Y42.715I0.000J-0.600
N23380G3X36.392Y42.115I0.600J0.000
N23390G3X36.992Y42.715I0.000J0.600
N23400G01Z-2.650F30.0
N23410G3X36.392Y43.315I-0.600J0.000F200.0
N23420G3X35.792Y42.715I0.000J-0.600
N23430G3X36.392Y42.115I0.600J0.000
N23440G3X36.992Y42.715I0.000J0.600
N23450G01Z-2.675F30.0
N23460G3X36.392Y43.315I-0.600J0.000F200.0
N23470G3X35.792Y42.715I0.000J-0.600
N23480G3X36.392Y42.115I0.600J0.000
N23490G3X36.992Y42.715I0.000J0.600
N23500G01Z-2.700F30.0
N23510G3X36.392Y43.315I-0.600J0.000F200.0
N23520G3X35.792Y42.715I0.000J-0.600
N23530G3X36.392Y42.115I0.600J0.000
N23540G3X36.992Y42.715I0.000J0.600
N23550G01Z-2.725F30.0
N23560G3X36.392Y43.315I-0.600J0.000F200.0
N23570G3X35.792Y42.715I0.000J-0.600
N23580G3X36.392Y42.115I0.600J0.000
N23590G3X36.992Y42.715I0.000J0.600
N23600G01Z-2.750F30.0
N23610G3X36.392Y43.315I-0.600J0.000F200.0
N23620G3X35.792Y42.715I0.000J-0.600
N23630G3X36.392Y42.115I0.600J0.000
N23640G3X36.992Y42.715I0.000J0.600
N23650G01Z-2.775F30.0
N23660G3X36.392Y43.315I-0.600J0.000F200.0
N23670G3X35.792Y42.715I0.000J-0.600
N23680G3X36.392Y42.115I0.600J0.000
N23690G3X36.992Y42.715I0.000J0.600
N23700G01Z-2.800F30.0
N23710G3X36.392Y43.315I-0.600J0.000F200.0
N23720G3X35.792Y42.715I0.000J-0.600
N23730G3X36.392Y42.115I0.600J0.000
N23740G3X36.992Y42.715I0.000J0.600
N23750G01Z-2.825F30.0
N23760G3X36.392Y43.315I-0.600J0.000F200.0
N23770G3X35.792Y42.715I0.000J-0.600
N23780G3X36.392Y42.115I0.600J0.000
N23790G3X36.992Y42.715I0.000J0.600
N23800G01Z-2.850F30.0
N23810G3X36.392Y43.315I-0.600J0.000F200.0
N23820G3X35.792Y42.715I0.000J-0.600
N23830G3X36.392Y42.115I0.600J0.000
N23840G3X36.992Y42.715I0.000J0.600
N23850G01Z-2.875F30.0
N23860G3X36.392Y43.315I-0.600J0.000F200.0
N23870G3X35.792Y42.715I0.000J-0.600
N23880G3X36.392Y42.115I0.600J0.000
N23890G3X36.992Y42.715I0.000J0.600
N23900G01Z-2.900F30.0
N23910G3X36.392Y43.315I-0.600J0.000F200.0
N23920G3X35.792Y42.715I0.000J-0.600
N23930G3X36.392Y42.115I0.600J0.000
N23940G3X36.992Y42.715I0.000J0.600
N23950G01Z-2.925F30.0
N23960G3X36.392Y43.315I-0.600J0.000F200.0
N23970G3X35.792Y42.715I0.000J-0.600
N23980G3X36.392Y42.115I0.600J0.000
N23990G3X36.992Y42.715I0.000J0.600
N24000G01Z-2.950F30.0
N24010G3X36.392Y43.315I-0.600J0.000F200.0
N24020G3X35.792Y42.715I0.000J-0.600
N24030G3X36.392Y42.115I0.600J0.000
N24040G3X36.992Y42.715I0.000J0.600
N24050G01Z-2.975F30.0
N24060G3X36.392Y43.315I-0.600J0.000F200.0
N24070G3X35.792Y42.715I0.000J-0.600
N24080G3X36.392Y42.115I0.600J0.000
N24090G3X36.992Y42.715I0.000J0.600
N24100G01Z-3.000F30.0
N24110G3X36.392Y43.315I-0.600J0.000F200.0
N24120G3X35.792Y42.715I0.000J-0.600
N24130G3X36.392Y42.115I0.600J0.000
N24140G3X36.992Y42.715I0.000J0.600
N24150G00Z6.000
N24160G00X37.618Y18.626
N24170G01Z-0.025F30.0
N24180G3X37.018Y19.226I-0.600J0.000F200.0
N24190G3X36.418Y18.626I0.000J-0.600
N24200G3X37.018Y18.026I0.600J0.000
N24210G3X37.618Y18.626I0.000J0.600
N24220G01Z-0.050F30.0
N24230G3X37.018Y19.226I-0.600J0.000F200.0
N24240G3X36.418Y18.626I0.000J-0.600
N24250G3X37.018Y18.026I0.600J0.000
N24260G3X37.618Y18.626I0.000J0.600
N24270G01Z-0.075F30.0
N24280G3X37.018Y19.226I-0.600J0.000F200.0
N24290G3X36.418Y18.626I0.000J-0.600
N24300G3X37.018Y18.026I0.600J0.000
N24310G3X37.618Y18.626I0.000J0.600
N24320G01Z-0.100F30.0
N24330G3X37.018Y19.226I-0.600J0.000F200.0
N24340G3X36.418Y18.626I0.000J-0.600
N24350G3X37.018Y18.026I0.600J0.000
N24360G3X37.618Y18.626I0.000J0.600
N24370G01Z-0.125F30.0
N24380G3X37.018Y19.226I-0.600J0.000F200.0
N24390G3X36.418Y18.626I0.000J-0.600
N24400G3X37.018Y18.026I0.600J0.000
N24410G3X37.618Y18.626I0.000J0.600
N24420G01Z-0.150F30.0
N24430G3X37.018Y19.226I-0.600J0.000F200.0
N24440G3X36.418Y18.626I0.000J-0.600
N24450G3X37.018Y18.026I0.600J0.000
N24460G3X37.618Y18.626I0.000J0.600
N24470G01Z-0.175F30.0
N24480G3X37.018Y19.226I-0.600J0.000F200.0
N24490G3X36.418Y18.626I0.000J-0.600
N24500G3X37.018Y18.026I0.600J0.000
N24510G3X37.618Y18.626I0.000J0.600
N24520G01Z-0.200F30.0
N24530G3X37.018Y19.226I-0.600J0.000F200.0
N24540G3X36.418Y18.626I0.000J-0.600
N24550G3X37.018Y18.026I0.600J0.000
N24560G3X37.618Y18.626I0.000J0.600
N24570G01Z-0.225F30.0
N24580G3X37.018Y19.226I-0.600J0.000F200.0
N24590G3X36.418Y18.626I0.000J-0.600
N24600G3X37.018Y18.026I0.600J0.000
N24610G3X37.618Y18.626I0.000J0.600
N24620G01Z-0.250F30.0
N24630G3X37.018Y19.226I-0.600J0.000F200.0
N24640G3X36.418Y18.626I0.000J-0.600
N24650G3X37.018Y18.026I0.600J0.000
N24660G3X37.618Y18.626I0.000J0.600
N24670G01Z-0.275F30.0
N24680G3X37.018Y19.226I-0.600J0.000F200.0
N24690G3X36.418Y18.626I0.000J-0.600
N24700G3X37.018Y18.026I0.600J0.000
N24710G3X37.618Y18.626I0.000J0.600
N24720G01Z-0.300F30.0
N24730G3X37.018Y19.226I-0.600J0.000F200.0
N24740G3X36.418Y18.626I0.000J-0.600
N24750G3X37.018Y18.026I0.600J0.000
N24760G3X37.618Y18.626I0.000J0.600
N24770G01Z-0.325F30.0
N24780G3X37.018Y19.226I-0.600J0.000F200.0
N24790G3X36.418Y18.626I0.000J-0.600
N24800G3X37.018Y18.026I0.600J0.000
N24810G3X37.618Y18.626I0.000J0.600
N24820G01Z-0.350F30.0
N24830G3X37.018Y19.226I-0.600J0.000F200.0
N24840G3X36.418Y18.626I0.000J-0.600
N24850G3X37.018Y18.026I0.600J0.000
N24860G3X37.618Y18.626I0.000J0.600
N24870G01Z-0.375F30.0
N24880G3X37.018Y19.226I-0.600J0.000F200.0
N24890G3X36.418Y18.626I0.000J-0.600
N24900G3X37.018Y18.026I0.600J0.000
N24910G3X37.618Y18.626I0.000J0.600
N24920G01Z-0.400F30.0
N24930G3X37.018Y19.226I-0.600J0.000F200.0
N24940G3X36.418Y18.626I0.000J-0.600
N24950G3X37.018Y18.026I0.600J0.000
N24960G3X37.618Y18.626I0.000J0.600
N24970G01Z-0.425F30.0
N24980G3X37.018Y19.226I-0.600J0.000F200.0
N24990G3X36.418Y18.626I0.000J-0.600
N25000G3X37.018Y18.026I0.600J0.000
N25010G3X37.618Y18.626I0.000J0.600
N25020G01Z-0.450F30.0
N25030G3X37.018Y19.226I-0.600J0.000F200.0
N25040G3X36.418Y18.626I0.000J-0.600
N25050G3X37.018Y18.026I0.600J0.000
N25060G3X37.618Y18.626I0.000J0.600
N25070G01Z-0.475F30.0
N25080G3X37.018Y19.226I-0.600J0.000F200.0
N25090G3X36.418Y18.626I0.000J-0.600
N25100G3X37.018Y18.026I0.600J0.000
N25110G3X37.618Y18.626I0.000J0.600
N25120G01Z-0.500F30.0
N25130G3X37.018Y19.226I-0.600J0.000F200.0
N25140G3X36.418Y18.626I0.000J-0.600
N25150G3X37.018Y18.026I0.600J0.000
N25160G3X37.618Y18.626I0.000J0.600
N25170G01Z-0.525F30.0
N25180G3X37.018Y19.226I-0.600J0.000F200.0
N25190G3X36.418Y18.626I0.000J-0.600
N25200G3X37.018Y18.026I0.600J0.000
N25210G3X37.618Y18.626I0.000J0.600
N25220G01Z-0.550F30.0
N25230G3X37.018Y19.226I-0.600J0.000F200.0
N25240G3X36.418Y18.626I0.000J-0.600
N25250G3X37.018Y18.026I0.600J0.000
N25260G3X37.618Y18.626I0.000J0.600
N25270G01Z-0.575F30.0
N25280G3X37.018Y19.226I-0.600J0.000F200.0
N25290G3X36.418Y18.626I0.000J-0.600
N25300G3X37.018Y18.026I0.600J0.000
N25310G3X37.618Y18.626I0.000J0.600
N25320G01Z-0.600F30.0
N25330G3X37.018Y19.226I-0.600J0.000F200.0
N25340G3X36.418Y18.626I0.000J-0.600
N25350G3X37.018Y18.026I0.600J0.000
N25360G3X37.618Y18.626I0.000J0.600
N25370G01Z-0.625F30.0
N25380G3X37.018Y19.226I-0.600J0.000F200.0
N25390G3X36.418Y18.626I0.000J-0.600
N25400G3X37.018Y18.026I0.600J0.000
N25410G3X37.618Y18.626I0.000J0.600
N25420G01Z-0.650F30.0
N25430G3X37.018Y19.226I-0.600J0.000F200.0
N25440G3X36.418Y18.626I0.000J-0.600
N25450G3X37.018Y18.026I0.600J0.000
N25460G3X37.618Y18.626I0.000J0.600
N25470G01Z-0.675F30.0
N25480G3X37.018Y19.226I-0.600J0.000F200.0
N25490G3X36.418Y18.626I0.000J-0.600
N25500G3X37.018Y18.026I0.600J0.000
N25510G3X37.618Y18.626I0.000J0.600
N25520G01Z-0.700F30.0
N25530G3X37.018Y19.226I-0.600J0.000F200.0
N25540G3X36.418Y18.626I0.000J-0.600
N25550G3X37.018Y18.026I0.600J0.000
N25560G3X37.618Y18.626I0.000J0.600
N25570G01Z-0.725F30.0
N25580G3X37.018Y19.226I-0.600J0.000F200.0
N25590G3X36.418Y18.626I0.000J-0.600
N25600G3X37.018Y18.026I0.600J0.000
N25610G3X37.618Y18.626I0.000J0.600
N25620G01Z-0.750F30.0
N25630G3X37.018Y19.226I-0.600J0.000F200.0
N25640G3X36.418Y18.626I0.000J-0.600
N25650G3X37.018Y18.026I0.600J0.000
N25660G3X37.618Y18.626I0.000J0.600
N25670G01Z-0.775F30.0
N25680G3X37.018Y19.226I-0.600J0.000F200.0
N25690G3X36.418Y18.626I0.000J-0.600
N25700G3X37.018Y18.026I0.600J0.000
N25710G3X37.618Y18.626I0.000J0.600
N25720G01Z-0.800F30.0
N25730G3X37.018Y19.226I-0.600J0.000F200.0
N25740G3X36.418Y18.626I0.000J-0.600
N25750G3X37.018Y18.026I0.600J0.000
N25760G3X37.618Y18.626I0.000J0.600
N25770G01Z-0.825F30.0
N25780G3X37.018Y19.226I-0.600J0.000F200.0
N25790G3X36.418Y18.626I0.000J-0.600
N25800G3X37.018Y18.026I0.600J0.000
N25810G3X37.618Y18.626I0.000J0.600
N25820G01Z-0.850F30.0
N25830G3X37.018Y19.226I-0.600J0.000F200.0
N25840G3X36.418Y18.626I0.000J-0.600
N25850G3X37.018Y18.026I0.600J0.000
N25860G3X37.618Y18.626I0.000J0.600
N25870G01Z-0.875F30.0
N25880G3X37.018Y19.226I-0.600J0.000F200.0
N25890G3X36.418Y18.626I0.000J-0.600
N25900G3X37.018Y18.026I0.600J0.000
N25910G3X37.618Y18.626I0.000J0.600
N25920G01Z-0.900F30.0
N25930G3X37.018Y19.226I-0.600J0.000F200.0
N25940G3X36.418Y18.626I0.000J-0.600
N25950G3X37.018Y18.026I0.600J0.000
N25960G3X37.618Y18.626I0.000J0.600
N25970G01Z-0.925F30.0
N25980G3X37.018Y19.226I-0.600J0.000F200.0
N25990G3X36.418Y18.626I0.000J-0.600
N26000G3X37.018Y18.026I0.600J0.000
N26010G3X37.618Y18.626I0.000J0.600
N26020G01Z-0.950F30.0
N26030G3X37.018Y19.226I-0.600J0.000F200.0
N26040G3X36.418Y18.626I0.000J-0.600
N26050G3X37.018Y18.026I0.600J0.000
N26060G3X37.618Y18.626I0.000J0.600
N26070G01Z-0.975F30.0
N26080G3X37.018Y19.226I-0.600J0.000F200.0
N26090G3X36.418Y18.626I0.000J-0.600
N26100G3X37.018Y18.026I0.600J0.000
N26110G3X37.618Y18.626I0.000J0.600
N26120G01Z-1.000F30.0
N26130G3X37.018Y19.226I-0.600J0.000F200.0
N26140G3X36.418Y18.626I0.000J-0.600
N26150G3X37.018Y18.026I0.600J0.000
N26160G3X37.618Y18.626I0.000J0.600
N26170G01Z-1.025F30.0
N26180G3X37.018Y19.226I-0.600J0.000F200.0
N26190G3X36.418Y18.626I0.000J-0.600
N26200G3X37.018Y18.026I0.600J0.000
N26210G3X37.618Y18.626I0.000J0.600
N26220G01Z-1.050F30.0
N26230G3X37.018Y19.226I-0.600J0.000F200.0
N26240G3X36.418Y18.626I0.000J-0.600
N26250G3X37.018Y18.026I0.600J0.000
N26260G3X37.618Y18.626I0.000J0.600
N26270G01Z-1.075F30.0
N26280G3X37.018Y19.226I-0.600J0.000F200.0
N26290G3X36.418Y18.626I0.000J-0.600
N26300G3X37.018Y18.026I0.600J0.000
N26310G3X37.618Y18.626I0.000J0.600
N26320G01Z-1.100F30.0
N26330G3X37.018Y19.226I-0.600J0.000F200.0
N26340G3X36.418Y18.626I0.000J-0.600
N26350G3X37.018Y18.026I0.600J0.000
N26360G3X37.618Y18.626I0.000J0.600
N26370G01Z-1.125F30.0
N26380G3X37.018Y19.226I-0.600J0.000F200.0
N26390G3X36.418Y18.626I0.000J-0.600
N26400G3X37.018Y18.026I0.600J0.000
N26410G3X37.618Y18.626I0.000J0.600
N26420G01Z-1.150F30.0
N26430G3X37.018Y19.226I-0.600J0.000F200.0
N26440G3X36.418Y18.626I0.000J-0.600
N26450G3X37.018Y18.026I0.600J0.000
N26460G3X37.618Y18.626I0.000J0.600
N26470G01Z-1.175F30.0
N26480G3X37.018Y19.226I-0.600J0.000F200.0
N26490G3X36.418Y18.626I0.000J-0.600
N26500G3X37.018Y18.026I0.600J0.000
N26510G3X37.618Y18.626I0.000J0.600
N26520G01Z-1.200F30.0
N26530G3X37.018Y19.226I-0.600J0.000F200.0
N26540G3X36.418Y18.626I0.000J-0.600
N26550G3X37.018Y18.026I0.600J0.000
N26560G3X37.618Y18.626I0.000J0.600
N26570G01Z-1.225F30.0
N26580G3X37.018Y19.226I-0.600J0.000F200.0
N26590G3X36.418Y18.626I0.000J-0.600
N26600G3X37.018Y18.026I0.600J0.000
N26610G3X37.618Y18.626I0.000J0.600
N26620G01Z-1.250F30.0
N26630G3X37.018Y19.226I-0.600J0.000F200.0
N26640G3X36.418Y18.626I0.000J-0.600
N26650G3X37.018Y18.026I0.600J0.000
N26660G3X37.618Y18.626I0.000J0.600
N26670G01Z-1.275F30.0
N26680G3X37.018Y19.226I-0.600J0.000F200.0
N26690G3X36.418Y18.626I0.000J-0.600
N26700G3X37.018Y18.026I0.600J0.000
N26710G3X37.618Y18.626I0.000J0.600
N26720G01Z-1.300F30.0
N26730G3X37.018Y19.226I-0.600J0.000F200.0
N26740G3X36.418Y18.626I0.000J-0.600
N26750G3X37.018Y18.026I0.600J0.000
N26760G3X37.618Y18.626I0.000J0.600
N26770G01Z-1.325F30.0
N26780G3X37.018Y19.226I-0.600J0.000F200.0
N26790G3X36.418Y18.626I0.000J-0.600
N26800G3X37.018Y18.026I0.600J0.000
N26810G3X37.618Y18.626I0.000J0.600
N26820G01Z-1.350F30.0
N26830G3X37.018Y19.226I-0.600J0.000F200.0
N26840G3X36.418Y18.626I0.000J-0.600
N26850G3X37.018Y18.026I0.600J0.000
N26860G3X37.618Y18.626I0.000J0.600
N26870G01Z-1.375F30.0
N26880G3X37.018Y19.226I-0.600J0.000F200.0
N26890G3X36.418Y18.626I0.000J-0.600
N26900G3X37.018Y18.026I0.600J0.000
N26910G3X37.618Y18.626I0.000J0.600
N26920G01Z-1.400F30.0
N26930G3X37.018Y19.226I-0.600J0.000F200.0
N26940G3X36.418Y18.626I0.000J-0.600
N26950G3X37.018Y18.026I0.600J0.000
N26960G3X37.618Y18.626I0.000J0.600
N26970G01Z-1.425F30.0
N26980G3X37.018Y19.226I-0.600J0.000F200.0
N26990G3X36.418Y18.626I0.000J-0.600
N27000G3X37.018Y18.026I0.600J0.000
N27010G3X37.618Y18.626I0.000J0.600
N27020G01Z-1.450F30.0
N27030G3X37.018Y19.226I-0.600J0.000F200.0
N27040G3X36.418Y18.626I0.000J-0.600
N27050G3X37.018Y18.026I0.600J0.000
N27060G3X37.618Y18.626I0.000J0.600
N27070G01Z-1.475F30.0
N27080G3X37.018Y19.226I-0.600J0.000F200.0
N27090G3X36.418Y18.626I0.000J-0.600
N27100G3X37.018Y18.026I0.600J0.000
N27110G3X37.618Y18.626I0.000J0.600
N27120G01Z-1.500F30.0
N27130G3X37.018Y19.226I-0.600J0.000F200.0
N27140G3X36.418Y18.626I0.000J-0.600
N27150G3X37.018Y18.026I0.600J0.000
N27160G3X37.618Y18.626I0.000J0.600
N27170G01Z-1.525F30.0
N27180G3X37.018Y19.226I-0.600J0.000F200.0
N27190G3X36.418Y18.626I0.000J-0.600
N27200G3X37.018Y18.026I0.600J0.000
N27210G3X37.618Y18.626I0.000J0.600
N27220G01Z-1.550F30.0
N27230G3X37.018Y19.226I-0.600J0.000F200.0
N27240G3X36.418Y18.626I0.000J-0.600
N27250G3X37.018Y18.026I0.600J0.000
N27260G3X37.618Y18.626I0.000J0.600
N27270G01Z-1.575F30.0
N27280G3X37.018Y19.226I-0.600J0.000F200.0
N27290G3X36.418Y18.626I0.000J-0.600
N27300G3X37.018Y18.026I0.600J0.000
N27310G3X37.618Y18.626I0.000J0.600
N27320G01Z-1.600F30.0
N27330G3X37.018Y19.226I-0.600J0.000F200.0
N27340G3X36.418Y18.626I0.000J-0.600
N27350G3X37.018Y18.026I0.600J0.000
N27360G3X37.618Y18.626I0.000J0.600
N27370G01Z-1.625F30.0
N27380G3X37.018Y19.226I-0.600J0.000F200.0
N27390G3X36.418Y18.626I0.000J-0.600
N27400G3X37.018Y18.026I0.600J0.000
N27410G3X37.618Y18.626I0.000J0.600
N27420G01Z-1.650F30.0
N27430G3X37.018Y19.226I-0.600J0.000F200.0
N27440G3X36.418Y18.626I0.000J-0.600
N27450G3X37.018Y18.026I0.600J0.000
N27460G3X37.618Y18.626I0.000J0.600
N27470G01Z-1.675F30.0
N27480G3X37.018Y19.226I-0.600J0.000F200.0
N27490G3X36.418Y18.626I0.000J-0.600
N27500G3X37.018Y18.026I0.600J0.000
N27510G3X37.618Y18.626I0.000J0.600
N27520G01Z-1.700F30.0
N27530G3X37.018Y19.226I-0.600J0.000F200.0
N27540G3X36.418Y18.626I0.000J-0.600
N27550G3X37.018Y18.026I0.600J0.000
N27560G3X37.618Y18.626I0.000J0.600
N27570G01Z-1.725F30.0
N27580G3X37.018Y19.226I-0.600J0.000F200.0
N27590G3X36.418Y18.626I0.000J-0.600
N27600G3X37.018Y18.026I0.600J0.000
N27610G3X37.618Y18.626I0.000J0.600
N27620G01Z-1.750F30.0
N27630G3X37.018Y19.226I-0.600J0.000F200.0
N27640G3X36.418Y18.626I0.000J-0.600
N27650G3X37.018Y18.026I0.600J0.000
N27660G3X37.618Y18.626I0.000J0.600
N27670G01Z-1.775F30.0
N27680G3X37.018Y19.226I-0.600J0.000F200.0
N27690G3X36.418Y18.626I0.000J-0.600
N27700G3X37.018Y18.026I0.600J0.000
N27710G3X37.618Y18.626I0.000J0.600
N27720G01Z-1.800F30.0
N27730G3X37.018Y19.226I-0.600J0.000F200.0
N27740G3X36.418Y18.626I0.000J-0.600
N27750G3X37.018Y18.026I0.600J0.000
N27760G3X37.618Y18.626I0.000J0.600
N27770G01Z-1.825F30.0
N27780G3X37.018Y19.226I-0.600J0.000F200.0
N27790G3X36.418Y18.626I0.000J-0.600
N27800G3X37.018Y18.026I0.600J0.000
N27810G3X37.618Y18.626I0.000J0.600
N27820G01Z-1.850F30.0
N27830G3X37.018Y19.226I-0.600J0.000F200.0
N27840G3X36.418Y18.626I0.000J-0.600
N27850G3X37.018Y18.026I0.600J0.000
N27860G3X37.618Y18.626I0.000J0.600
N27870G01Z-1.875F30.0
N27880G3X37.018Y19.226I-0.600J0.000F200.0
N27890G3X36.418Y18.626I0.000J-0.600
N27900G3X37.018Y18.026I0.600J0.000
N27910G3X37.618Y18.626I0.000J0.600
N27920G01Z-1.900F30.0
N27930G3X37.018Y19.226I-0.600J0.000F200.0
N27940G3X36.418Y18.626I0.000J-0.600
N27950G3X37.018Y18.026I0.600J0.000
N27960G3X37.618Y18.626I0.000J0.600
N27970G01Z-1.925F30.0
N27980G3X37.018Y19.226I-0.600J0.000F200.0
N27990G3X36.418Y18.626I0.000J-0.600
N28000G3X37.018Y18.026I0.600J0.000
N28010G3X37.618Y18.626I0.000J0.600
N28020G01Z-1.950F30.0
N28030G3X37.018Y19.226I-0.600J0.000F200.0
N28040G3X36.418Y18.626I0.000J-0.600
N28050G3X37.018Y18.026I0.600J0.000
N28060G3X37.618Y18.626I0.000J0.600
N28070G01Z-1.975F30.0
N28080G3X37.018Y19.226I-0.600J0.000F200.0
N28090G3X36.418Y18.626I0.000J-0.600
N28100G3X37.018Y18.026I0.600J0.000
N28110G3X37.618Y18.626I0.000J0.600
N28120G01Z-2.000F30.0
N28130G3X37.018Y19.226I-0.600J0.000F200.0
N28140G3X36.418Y18.626I0.000J-0.600
N28150G3X37.018Y18.026I0.600J0.000
N28160G3X37.618Y18.626I0.000J0.600
N28170G01Z-2.025F30.0
N28180G3X37.018Y19.226I-0.600J0.000F200.0
N28190G3X36.418Y18.626I0.000J-0.600
N28200G3X37.018Y18.026I0.600J0.000
N28210G3X37.618Y18.626I0.000J0.600
N28220G01Z-2.050F30.0
N28230G3X37.018Y19.226I-0.600J0.000F200.0
N28240G3X36.418Y18.626I0.000J-0.600
N28250G3X37.018Y18.026I0.600J0.000
N28260G3X37.618Y18.626I0.000J0.600
N28270G01Z-2.075F30.0
N28280G3X37.018Y19.226I-0.600J0.000F200.0
N28290G3X36.418Y18.626I0.000J-0.600
N28300G3X37.018Y18.026I0.600J0.000
N28310G3X37.618Y18.626I0.000J0.600
N28320G01Z-2.100F30.0
N28330G3X37.018Y19.226I-0.600J0.000F200.0
N28340G3X36.418Y18.626I0.000J-0.600
N28350G3X37.018Y18.026I0.600J0.000
N28360G3X37.618Y18.626I0.000J0.600
N28370G01Z-2.125F30.0
N28380G3X37.018Y19.226I-0.600J0.000F200.0
N28390G3X36.418Y18.626I0.000J-0.600
N28400G3X37.018Y18.026I0.600J0.000
N28410G3X37.618Y18.626I0.000J0.600
N28420G01Z-2.150F30.0
N28430G3X37.018Y19.226I-0.600J0.000F200.0
N28440G3X36.418Y18.626I0.000J-0.600
N28450G3X37.018Y18.026I0.600J0.000
N28460G3X37.618Y18.626I0.000J0.600
N28470G01Z-2.175F30.0
N28480G3X37.018Y19.226I-0.600J0.000F200.0
N28490G3X36.418Y18.626I0.000J-0.600
N28500G3X37.018Y18.026I0.600J0.000
N28510G3X37.618Y18.626I0.000J0.600
N28520G01Z-2.200F30.0
N28530G3X37.018Y19.226I-0.600J0.000F200.0
N28540G3X36.418Y18.626I0.000J-0.600
N28550G3X37.018Y18.026I0.600J0.000
N28560G3X37.618Y18.626I0.000J0.600
N28570G01Z-2.225F30.0
N28580G3X37.018Y19.226I-0.600J0.000F200.0
N28590G3X36.418Y18.626I0.000J-0.600
N28600G3X37.018Y18.026I0.600J0.000
N28610G3X37.618Y18.626I0.000J0.600
N28620G01Z-2.250F30.0
N28630G3X37.018Y19.226I-0.600J0.000F200.0
N28640G3X36.418Y18.626I0.000J-0.600
N28650G3X37.018Y18.026I0.600J0.000
N28660G3X37.618Y18.626I0.000J0.600
N28670G01Z-2.275F30.0
N28680G3X37.018Y19.226I-0.600J0.000F200.0
N28690G3X36.418Y18.626I0.000J-0.600
N28700G3X37.018Y18.026I0.600J0.000
N28710G3X37.618Y18.626I0.000J0.600
N28720G01Z-2.300F30.0
N28730G3X37.018Y19.226I-0.600J0.000F200.0
N28740G3X36.418Y18.626I0.000J-0.600
N28750G3X37.018Y18.026I0.600J0.000
N28760G3X37.618Y18.626I0.000J0.600
N28770G01Z-2.325F30.0
N28780G3X37.018Y19.226I-0.600J0.000F200.0
N28790G3X36.418Y18.626I0.000J-0.600
N28800G3X37.018Y18.026I0.600J0.000
N28810G3X37.618Y18.626I0.000J0.600
N28820G01Z-2.350F30.0
N28830G3X37.018Y19.226I-0.600J0.000F200.0
N28840G3X36.418Y18.626I0.000J-0.600
N28850G3X37.018Y18.026I0.600J0.000
N28860G3X37.618Y18.626I0.000J0.600
N28870G01Z-2.375F30.0
N28880G3X37.018Y19.226I-0.600J0.000F200.0
N28890G3X36.418Y18.626I0.000J-0.600
N28900G3X37.018Y18.026I0.600J0.000
N28910G3X37.618Y18.626I0.000J0.600
N28920G01Z-2.400F30.0
N28930G3X37.018Y19.226I-0.600J0.000F200.0
N28940G3X36.418Y18.626I0.000J-0.600
N28950G3X37.018Y18.026I0.600J0.000
N28960G3X37.618Y18.626I0.000J0.600
N28970G01Z-2.425F30.0
N28980G3X37.018Y19.226I-0.600J0.000F200.0
N28990G3X36.418Y18.626I0.000J-0.600
N29000G3X37.018Y18.026I0.600J0.000
N29010G3X37.618Y18.626I0.000J0.600
N29020G01Z-2.450F30.0
N29030G3X37.018Y19.226I-0.600J0.000F200.0
N29040G3X36.418Y18.626I0.000J-0.600
N29050G3X37.018Y18.026I0.600J0.000
N29060G3X37.618Y18.626I0.000J0.600
N29070G01Z-2.475F30.0
N29080G3X37.018Y19.226I-0.600J0.000F200.0
N29090G3X36.418Y18.626I0.000J-0.600
N29100G3X37.018Y18.026I0.600J0.000
N29110G3X37.618Y18.626I0.000J0.600
N29120G01Z-2.500F30.0
N29130G3X37.018Y19.226I-0.600J0.000F200.0
N29140G3X36.418Y18.626I0.000J-0.600
N29150G3X37.018Y18.026I0.600J0.000
N29160G3X37.618Y18.626I0.000J0.600
N29170G01Z-2.525F30.0
N29180G3X37.018Y19.226I-0.600J0.000F200.0
N29190G3X36.418Y18.626I0.000J-0.600
N29200G3X37.018Y18.026I0.600J0.000
N29210G3X37.618Y18.626I0.000J0.600
N29220G01Z-2.550F30.0
N29230G3X37.018Y19.226I-0.600J0.000F200.0
N29240G3X36.418Y18.626I0.000J-0.600
N29250G3X37.018Y18.026I0.600J0.000
N29260G3X37.618Y18.626I0.000J0.600
N29270G01Z-2.575F30.0
N29280G3X37.018Y19.226I-0.600J0.000F200.0
N29290G3X36.418Y18.626I0.000J-0.600
N29300G3X37.018Y18.026I0.600J0.000
N29310G3X37.618Y18.626I0.000J0.600
N29320G01Z-2.600F30.0
N29330G3X37.018Y19.226I-0.600J0.000F200.0
N29340G3X36.418Y18.626I0.000J-0.600
N29350G3X37.018Y18.026I0.600J0.000
N29360G3X37.618Y18.626I0.000J0.600
N29370G01Z-2.625F30.0
N29380G3X37.018Y19.226I-0.600J0.000F200.0
N29390G3X36.418Y18.626I0.000J-0.600
N29400G3X37.018Y18.026I0.600J0.000
N29410G3X37.618Y18.626I0.000J0.600
N29420G01Z-2.650F30.0
N29430G3X37.018Y19.226I-0.600J0.000F200.0
N29440G3X36.418Y18.626I0.000J-0.600
N29450G3X37.018Y18.026I0.600J0.000
N29460G3X37.618Y18.626I0.000J0.600
N29470G01Z-2.675F30.0
N29480G3X37.018Y19.226I-0.600J0.000F200.0
N29490G3X36.418Y18.626I0.000J-0.600
N29500G3X37.018Y18.026I0.600J0.000
N29510G3X37.618Y18.626I0.000J0.600
N29520G01Z-2.700F30.0
N29530G3X37.018Y19.226I-0.600J0.000F200.0
N29540G3X36.418Y18.626I0.000J-0.600
N29550G3X37.018Y18.026I0.600J0.000
N29560G3X37.618Y18.626I0.000J0.600
N29570G01Z-2.725F30.0
N29580G3X37.018Y19.226I-0.600J0.000F200.0
N29590G3X36.418Y18.626I0.000J-0.600
N29600G3X37.018Y18.026I0.600J0.000
N29610G3X37.618Y18.626I0.000J0.600
N29620G01Z-2.750F30.0
N29630G3X37.018Y19.226I-0.600J0.000F200.0
N29640G3X36.418Y18.626I0.000J-0.600
N29650G3X37.018Y18.026I0.600J0.000
N29660G3X37.618Y18.626I0.000J0.600
N29670G01Z-2.775F30.0
N29680G3X37.018Y19.226I-0.600J0.000F200.0
N29690G3X36.418Y18.626I0.000J-0.600
N29700G3X37.018Y18.026I0.600J0.000
N29710G3X37.618Y18.626I0.000J0.600
N29720G01Z-2.800F30.0
N29730G3X37.018Y19.226I-0.600J0.000F200.0
N29740G3X36.418Y18.626I0.000J-0.600
N29750G3X37.018Y18.026I0.600J0.000
N29760G3X37.618Y18.626I0.000J0.600
N29770G01Z-2.825F30.0
N29780G3X37.018Y19.226I-0.600J0.000F200.0
N29790G3X36.418Y18.626I0.000J-0.600
N29800G3X37.018Y18.026I0.600J0.000
N29810G3X37.618Y18.626I0.000J0.600
N29820G01Z-2.850F30.0
N29830G3X37.018Y19.226I-0.600J0.000F200.0
N29840G3X36.418Y18.626I0.000J-0.600
N29850G3X37.018Y18.026I0.600J0.000
N29860G3X37.618Y18.626I0.000J0.600
N29870G01Z-2.875F30.0
N29880G3X37.018Y19.226I-0.600J0.000F200.0
N29890G3X36.418Y18.626I0.000J-0.600
N29900G3X37.018Y18.026I0.600J0.000
N29910G3X37.618Y18.626I0.000J0.600
N29920G01Z-2.900F30.0
N29930G3X37.018Y19.226I-0.600J0.000F200.0
N29940G3X36.418Y18.626I0.000J-0.600
N29950G3X37.018Y18.026I0.600J0.000
N29960G3X37.618Y18.626I0.000J0.600
N29970G01Z-2.925F30.0
N29980G3X37.018Y19.226I-0.600J0.000F200.0
N29990G3X36.418Y18.626I0.000J-0.600
N30000G3X37.018Y18.026I0.600J0.000
N30010G3X37.618Y18.626I0.000J0.600
N30020G01Z-2.950F30.0
N30030G3X37.018Y19.226I-0.600J0.000F200.0
N30040G3X36.418Y18.626I0.000J-0.600
N30050G3X37.018Y18.026I0.600J0.000
N30060G3X37.618Y18.626I0.000J0.600
N30070G01Z-2.975F30.0
N30080G3X37.018Y19.226I-0.600J0.000F200.0
N30090G3X36.418Y18.626I0.000J-0.600
N30100G3X37.018Y18.026I0.600J0.000
N30110G3X37.618Y18.626I0.000J0.600
N30120G01Z-3.000F30.0
N30130G3X37.018Y19.226I-0.600J0.000F200.0
N30140G3X36.418Y18.626I0.000J-0.600
N30150G3X37.018Y18.026I0.600J0.000
N30160G3X37.618Y18.626I0.000J0.600
N30170G00Z6.000
N30180G00X62.992Y19.285
N30190G01Z-0.025F30.0
N30200G3X62.392Y19.885I-0.600J0.000F200.0
N30210G3X61.792Y19.285I0.000J-0.600
N30220G3X62.392Y18.685I0.600J0.000
N30230G3X62.992Y19.285I0.000J0.600
N30240G01Z-0.050F30.0
N30250G3X62.392Y19.885I-0.600J0.000F200.0
N30260G3X61.792Y19.285I0.000J-0.600
N30270G3X62.392Y18.685I0.600J0.000
N30280G3X62.992Y19.285I0.000J0.600
N30290G01Z-0.075F30.0
N30300G3X62.392Y19.885I-0.600J0.000F200.0
N30310G3X61.792Y19.285I0.000J-0.600
N30320G3X62.392Y18.685I0.600J0.000
N30330G3X62.992Y19.285I0.000J0.600
N30340G01Z-0.100F30.0
N30350G3X62.392Y19.885I-0.600J0.000F200.0
N30360G3X61.792Y19.285I0.000J-0.600
N30370G3X62.392Y18.685I0.600J0.000
N30380G3X62.992Y19.285I0.000J0.600
N30390G01Z-0.125F30.0
N30400G3X62.392Y19.885I-0.600J0.000F200.0
N30410G3X61.792Y19.285I0.000J-0.600
N30420G3X62.392Y18.685I0.600J0.000
N30430G3X62.992Y19.285I0.000J0.600
N30440G01Z-0.150F30.0
N30450G3X62.392Y19.885I-0.600J0.000F200.0
N30460G3X61.792Y19.285I0.000J-0.600
N30470G3X62.392Y18.685I0.600J0.000
N30480G3X62.992Y19.285I0.000J0.600
N30490G01Z-0.175F30.0
N30500G3X62.392Y19.885I-0.600J0.000F200.0
N30510G3X61.792Y19.285I0.000J-0.600
N30520G3X62.392Y18.685I0.600J0.000
N30530G3X62.992Y19.285I0.000J0.600
N30540G01Z-0.200F30.0
N30550G3X62.392Y19.885I-0.600J0.000F200.0
N30560G3X61.792Y19.285I0.000J-0.600
N30570G3X62.392Y18.685I0.600J0.000
N30580G3X62.992Y19.285I0.000J0.600
N30590G01Z-0.225F30.0
N30600G3X62.392Y19.885I-0.600J0.000F200.0
N30610G3X61.792Y19.285I0.000J-0.600
N30620G3X62.392Y18.685I0.600J0.000
N30630G3X62.992Y19.285I0.000J0.600
N30640G01Z-0.250F30.0
N30650G3X62.392Y19.885I-0.600J0.000F200.0
N30660G3X61.792Y19.285I0.000J-0.600
N30670G3X62.392Y18.685I0.600J0.000
N30680G3X62.992Y19.285I0.000J0.600
N30690G01Z-0.275F30.0
N30700G3X62.392Y19.885I-0.600J0.000F200.0
N30710G3X61.792Y19.285I0.000J-0.600
N30720G3X62.392Y18.685I0.600J0.000
N30730G3X62.992Y19.285I0.000J0.600
N30740G01Z-0.300F30.0
N30750G3X62.392Y19.885I-0.600J0.000F200.0
N30760G3X61.792Y19.285I0.000J-0.600
N30770G3X62.392Y18.685I0.600J0.000
N30780G3X62.992Y19.285I0.000J0.600
N30790G01Z-0.325F30.0
N30800G3X62.392Y19.885I-0.600J0.000F200.0
N30810G3X61.792Y19.285I0.000J-0.600
N30820G3X62.392Y18.685I0.600J0.000
N30830G3X62.992Y19.285I0.000J0.600
N30840G01Z-0.350F30.0
N30850G3X62.392Y19.885I-0.600J0.000F200.0
N30860G3X61.792Y19.285I0.000J-0.600
N30870G3X62.392Y18.685I0.600J0.000
N30880G3X62.992Y19.285I0.000J0.600
N30890G01Z-0.375F30.0
N30900G3X62.392Y19.885I-0.600J0.000F200.0
N30910G3X61.792Y19.285I0.000J-0.600
N30920G3X62.392Y18.685I0.600J0.000
N30930G3X62.992Y19.285I0.000J0.600
N30940G01Z-0.400F30.0
N30950G3X62.392Y19.885I-0.600J0.000F200.0
N30960G3X61.792Y19.285I0.000J-0.600
N30970G3X62.392Y18.685I0.600J0.000
N30980G3X62.992Y19.285I0.000J0.600
N30990G01Z-0.425F30.0
N31000G3X62.392Y19.885I-0.600J0.000F200.0
N31010G3X61.792Y19.285I0.000J-0.600
N31020G3X62.392Y18.685I0.600J0.000
N31030G3X62.992Y19.285I0.000J0.600
N31040G01Z-0.450F30.0
N31050G3X62.392Y19.885I-0.600J0.000F200.0
N31060G3X61.792Y19.285I0.000J-0.600
N31070G3X62.392Y18.685I0.600J0.000
N31080G3X62.992Y19.285I0.000J0.600
N31090G01Z-0.475F30.0
N31100G3X62.392Y19.885I-0.600J0.000F200.0
N31110G3X61.792Y19.285I0.000J-0.600
N31120G3X62.392Y18.685I0.600J0.000
N31130G3X62.992Y19.285I0.000J0.600
N31140G01Z-0.500F30.0
N31150G3X62.392Y19.885I-0.600J0.000F200.0
N31160G3X61.792Y19.285I0.000J-0.600
N31170G3X62.392Y18.685I0.600J0.000
N31180G3X62.992Y19.285I0.000J0.600
N31190G01Z-0.525F30.0
N31200G3X62.392Y19.885I-0.600J0.000F200.0
N31210G3X61.792Y19.285I0.000J-0.600
N31220G3X62.392Y18.685I0.600J0.000
N31230G3X62.992Y19.285I0.000J0.600
N31240G01Z-0.550F30.0
N31250G3X62.392Y19.885I-0.600J0.000F200.0
N31260G3X61.792Y19.285I0.000J-0.600
N31270G3X62.392Y18.685I0.600J0.000
N31280G3X62.992Y19.285I0.000J0.600
N31290G01Z-0.575F30.0
N31300G3X62.392Y19.885I-0.600J0.000F200.0
N31310G3X61.792Y19.285I0.000J-0.600
N31320G3X62.392Y18.685I0.600J0.000
N31330G3X62.992Y19.285I0.000J0.600
N31340G01Z-0.600F30.0
N31350G3X62.392Y19.885I-0.600J0.000F200.0
N31360G3X61.792Y19.285I0.000J-0.600
N31370G3X62.392Y18.685I0.600J0.000
N31380G3X62.992Y19.285I0.000J0.600
N31390G01Z-0.625F30.0
N31400G3X62.392Y19.885I-0.600J0.000F200.0
N31410G3X61.792Y19.285I0.000J-0.600
N31420G3X62.392Y18.685I0.600J0.000
N31430G3X62.992Y19.285I0.000J0.600
N31440G01Z-0.650F30.0
N31450G3X62.392Y19.885I-0.600J0.000F200.0
N31460G3X61.792Y19.285I0.000J-0.600
N31470G3X62.392Y18.685I0.600J0.000
N31480G3X62.992Y19.285I0.000J0.600
N31490G01Z-0.675F30.0
N31500G3X62.392Y19.885I-0.600J0.000F200.0
N31510G3X61.792Y19.285I0.000J-0.600
N31520G3X62.392Y18.685I0.600J0.000
N31530G3X62.992Y19.285I0.000J0.600
N31540G01Z-0.700F30.0
N31550G3X62.392Y19.885I-0.600J0.000F200.0
N31560G3X61.792Y19.285I0.000J-0.600
N31570G3X62.392Y18.685I0.600J0.000
N31580G3X62.992Y19.285I0.000J0.600
N31590G01Z-0.725F30.0
N31600G3X62.392Y19.885I-0.600J0.000F200.0
N31610G3X61.792Y19.285I0.000J-0.600
N31620G3X62.392Y18.685I0.600J0.000
N31630G3X62.992Y19.285I0.000J0.600
N31640G01Z-0.750F30.0
N31650G3X62.392Y19.885I-0.600J0.000F200.0
N31660G3X61.792Y19.285I0.000J-0.600
N31670G3X62.392Y18.685I0.600J0.000
N31680G3X62.992Y19.285I0.000J0.600
N31690G01Z-0.775F30.0
N31700G3X62.392Y19.885I-0.600J0.000F200.0
N31710G3X61.792Y19.285I0.000J-0.600
N31720G3X62.392Y18.685I0.600J0.000
N31730G3X62.992Y19.285I0.000J0.600
N31740G01Z-0.800F30.0
N31750G3X62.392Y19.885I-0.600J0.000F200.0
N31760G3X61.792Y19.285I0.000J-0.600
N31770G3X62.392Y18.685I0.600J0.000
N31780G3X62.992Y19.285I0.000J0.600
N31790G01Z-0.825F30.0
N31800G3X62.392Y19.885I-0.600J0.000F200.0
N31810G3X61.792Y19.285I0.000J-0.600
N31820G3X62.392Y18.685I0.600J0.000
N31830G3X62.992Y19.285I0.000J0.600
N31840G01Z-0.850F30.0
N31850G3X62.392Y19.885I-0.600J0.000F200.0
N31860G3X61.792Y19.285I0.000J-0.600
N31870G3X62.392Y18.685I0.600J0.000
N31880G3X62.992Y19.285I0.000J0.600
N31890G01Z-0.875F30.0
N31900G3X62.392Y19.885I-0.600J0.000F200.0
N31910G3X61.792Y19.285I0.000J-0.600
N31920G3X62.392Y18.685I0.600J0.000
N31930G3X62.992Y19.285I0.000J0.600
N31940G01Z-0.900F30.0
N31950G3X62.392Y19.885I-0.600J0.000F200.0
N31960G3X61.792Y19.285I0.000J-0.600
N31970G3X62.392Y18.685I0.600J0.000
N31980G3X62.992Y19.285I0.000J0.600
N31990G01Z-0.925F30.0
N32000G3X62.392Y19.885I-0.600J0.000F200.0
N32010G3X61.792Y19.285I0.000J-0.600
N32020G3X62.392Y18.685I0.600J0.000
N32030G3X62.992Y19.285I0.000J0.600
N32040G01Z-0.950F30.0
N32050G3X62.392Y19.885I-0.600J0.000F200.0
N32060G3X61.792Y19.285I0.000J-0.600
N32070G3X62.392Y18.685I0.600J0.000
N32080G3X62.992Y19.285I0.000J0.600
N32090G01Z-0.975F30.0
N32100G3X62.392Y19.885I-0.600J0.000F200.0
N32110G3X61.792Y19.285I0.000J-0.600
N32120G3X62.392Y18.685I0.600J0.000
N32130G3X62.992Y19.285I0.000J0.600
N32140G01Z-1.000F30.0
N32150G3X62.392Y19.885I-0.600J0.000F200.0
N32160G3X61.792Y19.285I0.000J-0.600
N32170G3X62.392Y18.685I0.600J0.000
N32180G3X62.992Y19.285I0.000J0.600
N32190G01Z-1.025F30.0
N32200G3X62.392Y19.885I-0.600J0.000F200.0
N32210G3X61.792Y19.285I0.000J-0.600
N32220G3X62.392Y18.685I0.600J0.000
N32230G3X62.992Y19.285I0.000J0.600
N32240G01Z-1.050F30.0
N32250G3X62.392Y19.885I-0.600J0.000F200.0
N32260G3X61.792Y19.285I0.000J-0.600
N32270G3X62.392Y18.685I0.600J0.000
N32280G3X62.992Y19.285I0.000J0.600
N32290G01Z-1.075F30.0
N32300G3X62.392Y19.885I-0.600J0.000F200.0
N32310G3X61.792Y19.285I0.000J-0.600
N32320G3X62.392Y18.685I0.600J0.000
N32330G3X62.992Y19.285I0.000J0.600
N32340G01Z-1.100F30.0
N32350G3X62.392Y19.885I-0.600J0.000F200.0
N32360G3X61.792Y19.285I0.000J-0.600
N32370G3X62.392Y18.685I0.600J0.000
N32380G3X62.992Y19.285I0.000J0.600
N32390G01Z-1.125F30.0
N32400G3X62.392Y19.885I-0.600J0.000F200.0
N32410G3X61.792Y19.285I0.000J-0.600
N32420G3X62.392Y18.685I0.600J0.000
N32430G3X62.992Y19.285I0.000J0.600
N32440G01Z-1.150F30.0
N32450G3X62.392Y19.885I-0.600J0.000F200.0
N32460G3X61.792Y19.285I0.000J-0.600
N32470G3X62.392Y18.685I0.600J0.000
N32480G3X62.992Y19.285I0.000J0.600
N32490G01Z-1.175F30.0
N32500G3X62.392Y19.885I-0.600J0.000F200.0
N32510G3X61.792Y19.285I0.000J-0.600
N32520G3X62.392Y18.685I0.600J0.000
N32530G3X62.992Y19.285I0.000J0.600
N32540G01Z-1.200F30.0
N32550G3X62.392Y19.885I-0.600J0.000F200.0
N32560G3X61.792Y19.285I0.000J-0.600
N32570G3X62.392Y18.685I0.600J0.000
N32580G3X62.992Y19.285I0.000J0.600
N32590G01Z-1.225F30.0
N32600G3X62.392Y19.885I-0.600J0.000F200.0
N32610G3X61.792Y19.285I0.000J-0.600
N32620G3X62.392Y18.685I0.600J0.000
N32630G3X62.992Y19.285I0.000J0.600
N32640G01Z-1.250F30.0
N32650G3X62.392Y19.885I-0.600J0.000F200.0
N32660G3X61.792Y19.285I0.000J-0.600
N32670G3X62.392Y18.685I0.600J0.000
N32680G3X62.992Y19.285I0.000J0.600
N32690G01Z-1.275F30.0
N32700G3X62.392Y19.885I-0.600J0.000F200.0
N32710G3X61.792Y19.285I0.000J-0.600
N32720G3X62.392Y18.685I0.600J0.000
N32730G3X62.992Y19.285I0.000J0.600
N32740G01Z-1.300F30.0
N32750G3X62.392Y19.885I-0.600J0.000F200.0
N32760G3X61.792Y19.285I0.000J-0.600
N32770G3X62.392Y18.685I0.600J0.000
N32780G3X62.992Y19.285I0.000J0.600
N32790G01Z-1.325F30.0
N32800G3X62.392Y19.885I-0.600J0.000F200.0
N32810G3X61.792Y19.285I0.000J-0.600
N32820G3X62.392Y18.685I0.600J0.000
N32830G3X62.992Y19.285I0.000J0.600
N32840G01Z-1.350F30.0
N32850G3X62.392Y19.885I-0.600J0.000F200.0
N32860G3X61.792Y19.285I0.000J-0.600
N32870G3X62.392Y18.685I0.600J0.000
N32880G3X62.992Y19.285I0.000J0.600
N32890G01Z-1.375F30.0
N32900G3X62.392Y19.885I-0.600J0.000F200.0
N32910G3X61.792Y19.285I0.000J-0.600
N32920G3X62.392Y18.685I0.600J0.000
N32930G3X62.992Y19.285I0.000J0.600
N32940G01Z-1.400F30.0
N32950G3X62.392Y19.885I-0.600J0.000F200.0
N32960G3X61.792Y19.285I0.000J-0.600
N32970G3X62.392Y18.685I0.600J0.000
N32980G3X62.992Y19.285I0.000J0.600
N32990G01Z-1.425F30.0
N33000G3X62.392Y19.885I-0.600J0.000F200.0
N33010G3X61.792Y19.285I0.000J-0.600
N33020G3X62.392Y18.685I0.600J0.000
N33030G3X62.992Y19.285I0.000J0.600
N33040G01Z-1.450F30.0
N33050G3X62.392Y19.885I-0.600J0.000F200.0
N33060G3X61.792Y19.285I0.000J-0.600
N33070G3X62.392Y18.685I0.600J0.000
N33080G3X62.992Y19.285I0.000J0.600
N33090G01Z-1.475F30.0
N33100G3X62.392Y19.885I-0.600J0.000F200.0
N33110G3X61.792Y19.285I0.000J-0.600
N33120G3X62.392Y18.685I0.600J0.000
N33130G3X62.992Y19.285I0.000J0.600
N33140G01Z-1.500F30.0
N33150G3X62.392Y19.885I-0.600J0.000F200.0
N33160G3X61.792Y19.285I0.000J-0.600
N33170G3X62.392Y18.685I0.600J0.000
N33180G3X62.992Y19.285I0.000J0.600
N33190G01Z-1.525F30.0
N33200G3X62.392Y19.885I-0.600J0.000F200.0
N33210G3X61.792Y19.285I0.000J-0.600
N33220G3X62.392Y18.685I0.600J0.000
N33230G3X62.992Y19.285I0.000J0.600
N33240G01Z-1.550F30.0
N33250G3X62.392Y19.885I-0.600J0.000F200.0
N33260G3X61.792Y19.285I0.000J-0.600
N33270G3X62.392Y18.685I0.600J0.000
N33280G3X62.992Y19.285I0.000J0.600
N33290G01Z-1.575F30.0
N33300G3X62.392Y19.885I-0.600J0.000F200.0
N33310G3X61.792Y19.285I0.000J-0.600
N33320G3X62.392Y18.685I0.600J0.000
N33330G3X62.992Y19.285I0.000J0.600
N33340G01Z-1.600F30.0
N33350G3X62.392Y19.885I-0.600J0.000F200.0
N33360G3X61.792Y19.285I0.000J-0.600
N33370G3X62.392Y18.685I0.600J0.000
N33380G3X62.992Y19.285I0.000J0.600
N33390G01Z-1.625F30.0
N33400G3X62.392Y19.885I-0.600J0.000F200.0
N33410G3X61.792Y19.285I0.000J-0.600
N33420G3X62.392Y18.685I0.600J0.000
N33430G3X62.992Y19.285I0.000J0.600
N33440G01Z-1.650F30.0
N33450G3X62.392Y19.885I-0.600J0.000F200.0
N33460G3X61.792Y19.285I0.000J-0.600
N33470G3X62.392Y18.685I0.600J0.000
N33480G3X62.992Y19.285I0.000J0.600
N33490G01Z-1.675F30.0
N33500G3X62.392Y19.885I-0.600J0.000F200.0
N33510G3X61.792Y19.285I0.000J-0.600
N33520G3X62.392Y18.685I0.600J0.000
N33530G3X62.992Y19.285I0.000J0.600
N33540G01Z-1.700F30.0
N33550G3X62.392Y19.885I-0.600J0.000F200.0
N33560G3X61.792Y19.285I0.000J-0.600
N33570G3X62.392Y18.685I0.600J0.000
N33580G3X62.992Y19.285I0.000J0.600
N33590G01Z-1.725F30.0
N33600G3X62.392Y19.885I-0.600J0.000F200.0
N33610G3X61.792Y19.285I0.000J-0.600
N33620G3X62.392Y18.685I0.600J0.000
N33630G3X62.992Y19.285I0.000J0.600
N33640G01Z-1.750F30.0
N33650G3X62.392Y19.885I-0.600J0.000F200.0
N33660G3X61.792Y19.285I0.000J-0.600
N33670G3X62.392Y18.685I0.600J0.000
N33680G3X62.992Y19.285I0.000J0.600
N33690G01Z-1.775F30.0
N33700G3X62.392Y19.885I-0.600J0.000F200.0
N33710G3X61.792Y19.285I0.000J-0.600
N33720G3X62.392Y18.685I0.600J0.000
N33730G3X62.992Y19.285I0.000J0.600
N33740G01Z-1.800F30.0
N33750G3X62.392Y19.885I-0.600J0.000F200.0
N33760G3X61.792Y19.285I0.000J-0.600
N33770G3X62.392Y18.685I0.600J0.000
N33780G3X62.992Y19.285I0.000J0.600
N33790G01Z-1.825F30.0
N33800G3X62.392Y19.885I-0.600J0.000F200.0
N33810G3X61.792Y19.285I0.000J-0.600
N33820G3X62.392Y18.685I0.600J0.000
N33830G3X62.992Y19.285I0.000J0.600
N33840G01Z-1.850F30.0
N33850G3X62.392Y19.885I-0.600J0.000F200.0
N33860G3X61.792Y19.285I0.000J-0.600
N33870G3X62.392Y18.685I0.600J0.000
N33880G3X62.992Y19.285I0.000J0.600
N33890G01Z-1.875F30.0
N33900G3X62.392Y19.885I-0.600J0.000F200.0
N33910G3X61.792Y19.285I0.000J-0.600
N33920G3X62.392Y18.685I0.600J0.000
N33930G3X62.992Y19.285I0.000J0.600
N33940G01Z-1.900F30.0
N33950G3X62.392Y19.885I-0.600J0.000F200.0
N33960G3X61.792Y19.285I0.000J-0.600
N33970G3X62.392Y18.685I0.600J0.000
N33980G3X62.992Y19.285I0.000J0.600
N33990G01Z-1.925F30.0
N34000G3X62.392Y19.885I-0.600J0.000F200.0
N34010G3X61.792Y19.285I0.000J-0.600
N34020G3X62.392Y18.685I0.600J0.000
N34030G3X62.992Y19.285I0.000J0.600
N34040G01Z-1.950F30.0
N34050G3X62.392Y19.885I-0.600J0.000F200.0
N34060G3X61.792Y19.285I0.000J-0.600
N34070G3X62.392Y18.685I0.600J0.000
N34080G3X62.992Y19.285I0.000J0.600
N34090G01Z-1.975F30.0
N34100G3X62.392Y19.885I-0.600J0.000F200.0
N34110G3X61.792Y19.285I0.000J-0.600
N34120G3X62.392Y18.685I0.600J0.000
N34130G3X62.992Y19.285I0.000J0.600
N34140G01Z-2.000F30.0
N34150G3X62.392Y19.885I-0.600J0.000F200.0
N34160G3X61.792Y19.285I0.000J-0.600
N34170G3X62.392Y18.685I0.600J0.000
N34180G3X62.992Y19.285I0.000J0.600
N34190G01Z-2.025F30.0
N34200G3X62.392Y19.885I-0.600J0.000F200.0
N34210G3X61.792Y19.285I0.000J-0.600
N34220G3X62.392Y18.685I0.600J0.000
N34230G3X62.992Y19.285I0.000J0.600
N34240G01Z-2.050F30.0
N34250G3X62.392Y19.885I-0.600J0.000F200.0
N34260G3X61.792Y19.285I0.000J-0.600
N34270G3X62.392Y18.685I0.600J0.000
N34280G3X62.992Y19.285I0.000J0.600
N34290G01Z-2.075F30.0
N34300G3X62.392Y19.885I-0.600J0.000F200.0
N34310G3X61.792Y19.285I0.000J-0.600
N34320G3X62.392Y18.685I0.600J0.000
N34330G3X62.992Y19.285I0.000J0.600
N34340G01Z-2.100F30.0
N34350G3X62.392Y19.885I-0.600J0.000F200.0
N34360G3X61.792Y19.285I0.000J-0.600
N34370G3X62.392Y18.685I0.600J0.000
N34380G3X62.992Y19.285I0.000J0.600
N34390G01Z-2.125F30.0
N34400G3X62.392Y19.885I-0.600J0.000F200.0
N34410G3X61.792Y19.285I0.000J-0.600
N34420G3X62.392Y18.685I0.600J0.000
N34430G3X62.992Y19.285I0.000J0.600
N34440G01Z-2.150F30.0
N34450G3X62.392Y19.885I-0.600J0.000F200.0
N34460G3X61.792Y19.285I0.000J-0.600
N34470G3X62.392Y18.685I0.600J0.000
N34480G3X62.992Y19.285I0.000J0.600
N34490G01Z-2.175F30.0
N34500G3X62.392Y19.885I-0.600J0.000F200.0
N34510G3X61.792Y19.285I0.000J-0.600
N34520G3X62.392Y18.685I0.600J0.000
N34530G3X62.992Y19.285I0.000J0.600
N34540G01Z-2.200F30.0
N34550G3X62.392Y19.885I-0.600J0.000F200.0
N34560G3X61.792Y19.285I0.000J-0.600
N34570G3X62.392Y18.685I0.600J0.000
N34580G3X62.992Y19.285I0.000J0.600
N34590G01Z-2.225F30.0
N34600G3X62.392Y19.885I-0.600J0.000F200.0
N34610G3X61.792Y19.285I0.000J-0.600
N34620G3X62.392Y18.685I0.600J0.000
N34630G3X62.992Y19.285I0.000J0.600
N34640G01Z-2.250F30.0
N34650G3X62.392Y19.885I-0.600J0.000F200.0
N34660G3X61.792Y19.285I0.000J-0.600
N34670G3X62.392Y18.685I0.600J0.000
N34680G3X62.992Y19.285I0.000J0.600
N34690G01Z-2.275F30.0
N34700G3X62.392Y19.885I-0.600J0.000F200.0
N34710G3X61.792Y19.285I0.000J-0.600
N34720G3X62.392Y18.685I0.600J0.000
N34730G3X62.992Y19.285I0.000J0.600
N34740G01Z-2.300F30.0
N34750G3X62.392Y19.885I-0.600J0.000F200.0
N34760G3X61.792Y19.285I0.000J-0.600
N34770G3X62.392Y18.685I0.600J0.000
N34780G3X62.992Y19.285I0.000J0.600
N34790G01Z-2.325F30.0
N34800G3X62.392Y19.885I-0.600J0.000F200.0
N34810G3X61.792Y19.285I0.000J-0.600
N34820G3X62.392Y18.685I0.600J0.000
N34830G3X62.992Y19.285I0.000J0.600
N34840G01Z-2.350F30.0
N34850G3X62.392Y19.885I-0.600J0.000F200.0
N34860G3X61.792Y19.285I0.000J-0.600
N34870G3X62.392Y18.685I0.600J0.000
N34880G3X62.992Y19.285I0.000J0.600
N34890G01Z-2.375F30.0
N34900G3X62.392Y19.885I-0.600J0.000F200.0
N34910G3X61.792Y19.285I0.000J-0.600
N34920G3X62.392Y18.685I0.600J0.000
N34930G3X62.992Y19.285I0.000J0.600
N34940G01Z-2.400F30.0
N34950G3X62.392Y19.885I-0.600J0.000F200.0
N34960G3X61.792Y19.285I0.000J-0.600
N34970G3X62.392Y18.685I0.600J0.000
N34980G3X62.992Y19.285I0.000J0.600
N34990G01Z-2.425F30.0
N35000G3X62.392Y19.885I-0.600J0.000F200.0
N35010G3X61.792Y19.285I0.000J-0.600
N35020G3X62.392Y18.685I0.600J0.000
N35030G3X62.992Y19.285I0.000J0.600
N35040G01Z-2.450F30.0
N35050G3X62.392Y19.885I-0.600J0.000F200.0
N35060G3X61.792Y19.285I0.000J-0.600
N35070G3X62.392Y18.685I0.600J0.000
N35080G3X62.992Y19.285I0.000J0.600
N35090G01Z-2.475F30.0
N35100G3X62.392Y19.885I-0.600J0.000F200.0
N35110G3X61.792Y19.285I0.000J-0.600
N35120G3X62.392Y18.685I0.600J0.000
N35130G3X62.992Y19.285I0.000J0.600
N35140G01Z-2.500F30.0
N35150G3X62.392Y19.885I-0.600J0.000F200.0
N35160G3X61.792Y19.285I0.000J-0.600
N35170G3X62.392Y18.685I0.600J0.000
N35180G3X62.992Y19.285I0.000J0.600
N35190G01Z-2.525F30.0
N35200G3X62.392Y19.885I-0.600J0.000F200.0
N35210G3X61.792Y19.285I0.000J-0.600
N35220G3X62.392Y18.685I0.600J0.000
N35230G3X62.992Y19.285I0.000J0.600
N35240G01Z-2.550F30.0
N35250G3X62.392Y19.885I-0.600J0.000F200.0
N35260G3X61.792Y19.285I0.000J-0.600
N35270G3X62.392Y18.685I0.600J0.000
N35280G3X62.992Y19.285I0.000J0.600
N35290G01Z-2.575F30.0
N35300G3X62.392Y19.885I-0.600J0.000F200.0
N35310G3X61.792Y19.285I0.000J-0.600
N35320G3X62.392Y18.685I0.600J0.000
N35330G3X62.992Y19.285I0.000J0.600
N35340G01Z-2.600F30.0
N35350G3X62.392Y19.885I-0.600J0.000F200.0
N35360G3X61.792Y19.285I0.000J-0.600
N35370G3X62.392Y18.685I0.600J0.000
N35380G3X62.992Y19.285I0.000J0.600
N35390G01Z-2.625F30.0
N35400G3X62.392Y19.885I-0.600J0.000F200.0
N35410G3X61.792Y19.285I0.000J-0.600
N35420G3X62.392Y18.685I0.600J0.000
N35430G3X62.992Y19.285I0.000J0.600
N35440G01Z-2.650F30.0
N35450G3X62.392Y19.885I-0.600J0.000F200.0
N35460G3X61.792Y19.285I0.000J-0.600
N35470G3X62.392Y18.685I0.600J0.000
N35480G3X62.992Y19.285I0.000J0.600
N35490G01Z-2.675F30.0
N35500G3X62.392Y19.885I-0.600J0.000F200.0
N35510G3X61.792Y19.285I0.000J-0.600
N35520G3X62.392Y18.685I0.600J0.000
N35530G3X62.992Y19.285I0.000J0.600
N35540G01Z-2.700F30.0
N35550G3X62.392Y19.885I-0.600J0.000F200.0
N35560G3X61.792Y19.285I0.000J-0.600
N35570G3X62.392Y18.685I0.600J0.000
N35580G3X62.992Y19.285I0.000J0.600
N35590G01Z-2.725F30.0
N35600G3X62.392Y19.885I-0.600J0.000F200.0
N35610G3X61.792Y19.285I0.000J-0.600
N35620G3X62.392Y18.685I0.600J0.000
N35630G3X62.992Y19.285I0.000J0.600
