( Profile 8 )
( USBCNC Postprocessor )
N20G00G21G17G90G40G49
N30G80
N40G00G43Z20.000H5
N50S8000M03
N60G94
N70X0.000Y0.000F600.0
N80G00X14.600Y24.000Z6.000
N90G01Z-0.100F30.0
N100G3X14.000Y24.600I-0.600J0.000F600.0
N110G3X13.400Y24.000I0.000J-0.600
N120G3X14.000Y23.400I0.600J0.000
N130G3X14.600Y24.000I0.000J0.600
N140G01Z-0.200F30.0
N150G3X14.000Y24.600I-0.600J0.000F600.0
N160G3X13.400Y24.000I0.000J-0.600
N170G3X14.000Y23.400I0.600J0.000
N180G3X14.600Y24.000I0.000J0.600
N190G01Z-0.300F30.0
N200G3X14.000Y24.600I-0.600J0.000F600.0
N210G3X13.400Y24.000I0.000J-0.600
N220G3X14.000Y23.400I0.600J0.000
N230G3X14.600Y24.000I0.000J0.600
N240G01Z-0.400F30.0
N250G3X14.000Y24.600I-0.600J0.000F600.0
N260G3X13.400Y24.000I0.000J-0.600
N270G3X14.000Y23.400I0.600J0.000
N280G3X14.600Y24.000I0.000J0.600
N290G01Z-0.500F30.0
N300G3X14.000Y24.600I-0.600J0.000F600.0
N310G3X13.400Y24.000I0.000J-0.600
N320G3X14.000Y23.400I0.600J0.000
N330G3X14.600Y24.000I0.000J0.600
N340G01Z-0.600F30.0
N350G3X14.000Y24.600I-0.600J0.000F600.0
N360G3X13.400Y24.000I0.000J-0.600
N370G3X14.000Y23.400I0.600J0.000
N380G3X14.600Y24.000I0.000J0.600
N390G01Z-0.700F30.0
N400G3X14.000Y24.600I-0.600J0.000F600.0
N410G3X13.400Y24.000I0.000J-0.600
N420G3X14.000Y23.400I0.600J0.000
N430G3X14.600Y24.000I0.000J0.600
N440G01Z-0.800F30.0
N450G3X14.000Y24.600I-0.600J0.000F600.0
N460G3X13.400Y24.000I0.000J-0.600
N470G3X14.000Y23.400I0.600J0.000
N480G3X14.600Y24.000I0.000J0.600
N490G01Z-0.900F30.0
N500G3X14.000Y24.600I-0.600J0.000F600.0
N510G3X13.400Y24.000I0.000J-0.600
N520G3X14.000Y23.400I0.600J0.000
N530G3X14.600Y24.000I0.000J0.600
N540G01Z-1.000F30.0
N550G3X14.000Y24.600I-0.600J0.000F600.0
N560G3X13.400Y24.000I0.000J-0.600
N570G3X14.000Y23.400I0.600J0.000
N580G3X14.600Y24.000I0.000J0.600
N590G01Z-1.100F30.0
N600G3X14.000Y24.600I-0.600J0.000F600.0
N610G3X13.400Y24.000I0.000J-0.600
N620G3X14.000Y23.400I0.600J0.000
N630G3X14.600Y24.000I0.000J0.600
N640G01Z-1.200F30.0
N650G3X14.000Y24.600I-0.600J0.000F600.0
N660G3X13.400Y24.000I0.000J-0.600
N670G3X14.000Y23.400I0.600J0.000
N680G3X14.600Y24.000I0.000J0.600
N690G01Z-1.300F30.0
N700G3X14.000Y24.600I-0.600J0.000F600.0
N710G3X13.400Y24.000I0.000J-0.600
N720G3X14.000Y23.400I0.600J0.000
N730G3X14.600Y24.000I0.000J0.600
N740G01Z-1.400F30.0
N750G3X14.000Y24.600I-0.600J0.000F600.0
N760G3X13.400Y24.000I0.000J-0.600
N770G3X14.000Y23.400I0.600J0.000
N780G3X14.600Y24.000I0.000J0.600
N790G01Z-1.500F30.0
N800G3X14.000Y24.600I-0.600J0.000F600.0
N810G3X13.400Y24.000I0.000J-0.600
N820G3X14.000Y23.400I0.600J0.000
N830G3X14.600Y24.000I0.000J0.600
N840G01Z-1.600F30.0
N850G3X14.000Y24.600I-0.600J0.000F600.0
N860G3X13.400Y24.000I0.000J-0.600
N870G3X14.000Y23.400I0.600J0.000
N880G3X14.600Y24.000I0.000J0.600
N890G01Z-1.700F30.0
N900G3X14.000Y24.600I-0.600J0.000F600.0
N910G3X13.400Y24.000I0.000J-0.600
N920G3X14.000Y23.400I0.600J0.000
N930G3X14.600Y24.000I0.000J0.600
N940G01Z-1.800F30.0
N950G3X14.000Y24.600I-0.600J0.000F600.0
N960G3X13.400Y24.000I0.000J-0.600
N970G3X14.000Y23.400I0.600J0.000
N980G3X14.600Y24.000I0.000J0.600
N990G01Z-1.900F30.0
N1000G3X14.000Y24.600I-0.600J0.000F600.0
N1010G3X13.400Y24.000I0.000J-0.600
N1020G3X14.000Y23.400I0.600J0.000
N1030G3X14.600Y24.000I0.000J0.600
N1040G01Z-2.000F30.0
N1050G3X14.000Y24.600I-0.600J0.000F600.0
N1060G3X13.400Y24.000I0.000J-0.600
N1070G3X14.000Y23.400I0.600J0.000
N1080G3X14.600Y24.000I0.000J0.600
N1090G01Z-2.100F30.0
N1100G3X14.000Y24.600I-0.600J0.000F600.0
N1110G3X13.400Y24.000I0.000J-0.600
N1120G3X14.000Y23.400I0.600J0.000
N1130G3X14.600Y24.000I0.000J0.600
N1140G01Z-2.200F30.0
N1150G3X14.000Y24.600I-0.600J0.000F600.0
N1160G3X13.400Y24.000I0.000J-0.600
N1170G3X14.000Y23.400I0.600J0.000
N1180G3X14.600Y24.000I0.000J0.600
N1190G01Z-2.300F30.0
N1200G3X14.000Y24.600I-0.600J0.000F600.0
N1210G3X13.400Y24.000I0.000J-0.600
N1220G3X14.000Y23.400I0.600J0.000
N1230G3X14.600Y24.000I0.000J0.600
N1240G01Z-2.400F30.0
N1250G3X14.000Y24.600I-0.600J0.000F600.0
N1260G3X13.400Y24.000I0.000J-0.600
N1270G3X14.000Y23.400I0.600J0.000
N1280G3X14.600Y24.000I0.000J0.600
N1290G01Z-2.500F30.0
N1300G3X14.000Y24.600I-0.600J0.000F600.0
N1310G3X13.400Y24.000I0.000J-0.600
N1320G3X14.000Y23.400I0.600J0.000
N1330G3X14.600Y24.000I0.000J0.600
N1340G01Z-2.600F30.0
N1350G3X14.000Y24.600I-0.600J0.000F600.0
N1360G3X13.400Y24.000I0.000J-0.600
N1370G3X14.000Y23.400I0.600J0.000
N1380G3X14.600Y24.000I0.000J0.600
N1390G01Z-2.700F30.0
N1400G3X14.000Y24.600I-0.600J0.000F600.0
N1410G3X13.400Y24.000I0.000J-0.600
N1420G3X14.000Y23.400I0.600J0.000
N1430G3X14.600Y24.000I0.000J0.600
N1440G01Z-2.800F30.0
N1450G3X14.000Y24.600I-0.600J0.000F600.0
N1460G3X13.400Y24.000I0.000J-0.600
N1470G3X14.000Y23.400I0.600J0.000
N1480G3X14.600Y24.000I0.000J0.600
N1490G01Z-2.900F30.0
N1500G3X14.000Y24.600I-0.600J0.000F600.0
N1510G3X13.400Y24.000I0.000J-0.600
N1520G3X14.000Y23.400I0.600J0.000
N1530G3X14.600Y24.000I0.000J0.600
N1540G01Z-3.000F30.0
N1550G3X14.000Y24.600I-0.600J0.000F600.0
N1560G3X13.400Y24.000I0.000J-0.600
N1570G3X14.000Y23.400I0.600J0.000
N1580G3X14.600Y24.000I0.000J0.600
N1590G01Z-3.100F30.0
N1600G3X14.000Y24.600I-0.600J0.000F600.0
N1610G3X13.400Y24.000I0.000J-0.600
N1620G3X14.000Y23.400I0.600J0.000
N1630G3X14.600Y24.000I0.000J0.600
N1640G01Z-3.200F30.0
N1650G3X14.000Y24.600I-0.600J0.000F600.0
N1660G3X13.400Y24.000I0.000J-0.600
N1670G3X14.000Y23.400I0.600J0.000
N1680G3X14.600Y24.000I0.000J0.600
N1690G01Z-3.300F30.0
N1700G3X14.000Y24.600I-0.600J0.000F600.0
N1710G3X13.400Y24.000I0.000J-0.600
N1720G3X14.000Y23.400I0.600J0.000
N1730G3X14.600Y24.000I0.000J0.600
N1740G01Z-3.400F30.0
N1750G3X14.000Y24.600I-0.600J0.000F600.0
N1760G3X13.400Y24.000I0.000J-0.600
N1770G3X14.000Y23.400I0.600J0.000
N1780G3X14.600Y24.000I0.000J0.600
N1790G01Z-3.500F30.0
N1800G3X14.000Y24.600I-0.600J0.000F600.0
N1810G3X13.400Y24.000I0.000J-0.600
N1820G3X14.000Y23.400I0.600J0.000
N1830G3X14.600Y24.000I0.000J0.600
N1840G01Z-3.600F30.0
N1850G3X14.000Y24.600I-0.600J0.000F600.0
N1860G3X13.400Y24.000I0.000J-0.600
N1870G3X14.000Y23.400I0.600J0.000
N1880G3X14.600Y24.000I0.000J0.600
N1890G01Z-3.700F30.0
N1900G3X14.000Y24.600I-0.600J0.000F600.0
N1910G3X13.400Y24.000I0.000J-0.600
N1920G3X14.000Y23.400I0.600J0.000
N1930G3X14.600Y24.000I0.000J0.600
N1940G01Z-3.800F30.0
N1950G3X14.000Y24.600I-0.600J0.000F600.0
N1960G3X13.400Y24.000I0.000J-0.600
N1970G3X14.000Y23.400I0.600J0.000
N1980G3X14.600Y24.000I0.000J0.600
N1990G01Z-3.900F30.0
N2000G3X14.000Y24.600I-0.600J0.000F600.0
N2010G3X13.400Y24.000I0.000J-0.600
N2020G3X14.000Y23.400I0.600J0.000
N2030G3X14.600Y24.000I0.000J0.600
N2040G01Z-4.000F30.0
N2050G3X14.000Y24.600I-0.600J0.000F600.0
N2060G3X13.400Y24.000I0.000J-0.600
N2070G3X14.000Y23.400I0.600J0.000
N2080G3X14.600Y24.000I0.000J0.600
N2090G01Z-4.100F30.0
N2100G3X14.000Y24.600I-0.600J0.000F600.0
N2110G3X13.400Y24.000I0.000J-0.600
N2120G3X14.000Y23.400I0.600J0.000
N2130G3X14.600Y24.000I0.000J0.600
N2140G01Z-4.200F30.0
N2150G3X14.000Y24.600I-0.600J0.000F600.0
N2160G3X13.400Y24.000I0.000J-0.600
N2170G3X14.000Y23.400I0.600J0.000
N2180G3X14.600Y24.000I0.000J0.600
N2190G01Z-4.300F30.0
N2200G3X14.000Y24.600I-0.600J0.000F600.0
N2210G3X13.400Y24.000I0.000J-0.600
N2220G3X14.000Y23.400I0.600J0.000
N2230G3X14.600Y24.000I0.000J0.600
N2240G01Z-4.400F30.0
N2250G3X14.000Y24.600I-0.600J0.000F600.0
N2260G3X13.400Y24.000I0.000J-0.600
N2270G3X14.000Y23.400I0.600J0.000
N2280G3X14.600Y24.000I0.000J0.600
N2290G01Z-4.500F30.0
N2300G3X14.000Y24.600I-0.600J0.000F600.0
N2310G3X13.400Y24.000I0.000J-0.600
N2320G3X14.000Y23.400I0.600J0.000
N2330G3X14.600Y24.000I0.000J0.600
N2340G01Z-4.600F30.0
N2350G3X14.000Y24.600I-0.600J0.000F600.0
N2360G3X13.400Y24.000I0.000J-0.600
N2370G3X14.000Y23.400I0.600J0.000
N2380G3X14.600Y24.000I0.000J0.600
N2390G01Z-4.700F30.0
N2400G3X14.000Y24.600I-0.600J0.000F600.0
N2410G3X13.400Y24.000I0.000J-0.600
N2420G3X14.000Y23.400I0.600J0.000
N2430G3X14.600Y24.000I0.000J0.600
N2440G01Z-4.800F30.0
N2450G3X14.000Y24.600I-0.600J0.000F600.0
N2460G3X13.400Y24.000I0.000J-0.600
N2470G3X14.000Y23.400I0.600J0.000
N2480G3X14.600Y24.000I0.000J0.600
N2490G01Z-4.900F30.0
N2500G3X14.000Y24.600I-0.600J0.000F600.0
N2510G3X13.400Y24.000I0.000J-0.600
N2520G3X14.000Y23.400I0.600J0.000
N2530G3X14.600Y24.000I0.000J0.600
N2540G01Z-5.000F30.0
N2550G3X14.000Y24.600I-0.600J0.000F600.0
N2560G3X13.400Y24.000I0.000J-0.600
N2570G3X14.000Y23.400I0.600J0.000
N2580G3X14.600Y24.000I0.000J0.600
N2590G01Z-5.100F30.0
N2600G3X14.000Y24.600I-0.600J0.000F600.0
N2610G3X13.400Y24.000I0.000J-0.600
N2620G3X14.000Y23.400I0.600J0.000
N2630G3X14.600Y24.000I0.000J0.600
N2640G01Z-5.200F30.0
N2650G3X14.000Y24.600I-0.600J0.000F600.0
N2660G3X13.400Y24.000I0.000J-0.600
N2670G3X14.000Y23.400I0.600J0.000
N2680G3X14.600Y24.000I0.000J0.600
N2690G01Z-5.300F30.0
N2700G3X14.000Y24.600I-0.600J0.000F600.0
N2710G3X13.400Y24.000I0.000J-0.600
N2720G3X14.000Y23.400I0.600J0.000
N2730G3X14.600Y24.000I0.000J0.600
N2740G01Z-5.400F30.0
N2750G3X14.000Y24.600I-0.600J0.000F600.0
N2760G3X13.400Y24.000I0.000J-0.600
N2770G3X14.000Y23.400I0.600J0.000
N2780G3X14.600Y24.000I0.000J0.600
N2790G01Z-5.500F30.0
N2800G3X14.000Y24.600I-0.600J0.000F600.0
N2810G3X13.400Y24.000I0.000J-0.600
N2820G3X14.000Y23.400I0.600J0.000
N2830G3X14.600Y24.000I0.000J0.600
N2840G01Z-5.600F30.0
N2850G3X14.000Y24.600I-0.600J0.000F600.0
N2860G3X13.400Y24.000I0.000J-0.600
N2870G3X14.000Y23.400I0.600J0.000
N2880G3X14.600Y24.000I0.000J0.600
N2890G01Z-5.700F30.0
N2900G3X14.000Y24.600I-0.600J0.000F600.0
N2910G3X13.400Y24.000I0.000J-0.600
N2920G3X14.000Y23.400I0.600J0.000
N2930G3X14.600Y24.000I0.000J0.600
N2940G01Z-5.800F30.0
N2950G3X14.000Y24.600I-0.600J0.000F600.0
N2960G3X13.400Y24.000I0.000J-0.600
N2970G3X14.000Y23.400I0.600J0.000
N2980G3X14.600Y24.000I0.000J0.600
N2990G01Z-5.900F30.0
N3000G3X14.000Y24.600I-0.600J0.000F600.0
N3010G3X13.400Y24.000I0.000J-0.600
N3020G3X14.000Y23.400I0.600J0.000
N3030G3X14.600Y24.000I0.000J0.600
N3040G01Z-6.000F30.0
N3050G3X14.000Y24.600I-0.600J0.000F600.0
N3060G3X13.400Y24.000I0.000J-0.600
N3070G3X14.000Y23.400I0.600J0.000
N3080G3X14.600Y24.000I0.000J0.600
N3090G01Z-6.100F30.0
N3100G3X14.000Y24.600I-0.600J0.000F600.0
N3110G3X13.400Y24.000I0.000J-0.600
N3120G3X14.000Y23.400I0.600J0.000
N3130G3X14.600Y24.000I0.000J0.600
N3140G01Z-6.200F30.0
N3150G3X14.000Y24.600I-0.600J0.000F600.0
N3160G3X13.400Y24.000I0.000J-0.600
N3170G3X14.000Y23.400I0.600J0.000
N3180G3X14.600Y24.000I0.000J0.600
N3190G01Z-6.300F30.0
N3200G3X14.000Y24.600I-0.600J0.000F600.0
N3210G3X13.400Y24.000I0.000J-0.600
N3220G3X14.000Y23.400I0.600J0.000
N3230G3X14.600Y24.000I0.000J0.600
N3240G00Z6.000
N3250G00X24.600Y14.000
N3260G01Z-0.100F30.0
N3270G3X24.000Y14.600I-0.600J0.000F600.0
N3280G3X23.400Y14.000I0.000J-0.600
N3290G3X24.000Y13.400I0.600J0.000
N3300G3X24.600Y14.000I0.000J0.600
N3310G01Z-0.200F30.0
N3320G3X24.000Y14.600I-0.600J0.000F600.0
N3330G3X23.400Y14.000I0.000J-0.600
N3340G3X24.000Y13.400I0.600J0.000
N3350G3X24.600Y14.000I0.000J0.600
N3360G01Z-0.300F30.0
N3370G3X24.000Y14.600I-0.600J0.000F600.0
N3380G3X23.400Y14.000I0.000J-0.600
N3390G3X24.000Y13.400I0.600J0.000
N3400G3X24.600Y14.000I0.000J0.600
N3410G01Z-0.400F30.0
N3420G3X24.000Y14.600I-0.600J0.000F600.0
N3430G3X23.400Y14.000I0.000J-0.600
N3440G3X24.000Y13.400I0.600J0.000
N3450G3X24.600Y14.000I0.000J0.600
N3460G01Z-0.500F30.0
N3470G3X24.000Y14.600I-0.600J0.000F600.0
N3480G3X23.400Y14.000I0.000J-0.600
N3490G3X24.000Y13.400I0.600J0.000
N3500G3X24.600Y14.000I0.000J0.600
N3510G01Z-0.600F30.0
N3520G3X24.000Y14.600I-0.600J0.000F600.0
N3530G3X23.400Y14.000I0.000J-0.600
N3540G3X24.000Y13.400I0.600J0.000
N3550G3X24.600Y14.000I0.000J0.600
N3560G01Z-0.700F30.0
N3570G3X24.000Y14.600I-0.600J0.000F600.0
N3580G3X23.400Y14.000I0.000J-0.600
N3590G3X24.000Y13.400I0.600J0.000
N3600G3X24.600Y14.000I0.000J0.600
N3610G01Z-0.800F30.0
N3620G3X24.000Y14.600I-0.600J0.000F600.0
N3630G3X23.400Y14.000I0.000J-0.600
N3640G3X24.000Y13.400I0.600J0.000
N3650G3X24.600Y14.000I0.000J0.600
N3660G01Z-0.900F30.0
N3670G3X24.000Y14.600I-0.600J0.000F600.0
N3680G3X23.400Y14.000I0.000J-0.600
N3690G3X24.000Y13.400I0.600J0.000
N3700G3X24.600Y14.000I0.000J0.600
N3710G01Z-1.000F30.0
N3720G3X24.000Y14.600I-0.600J0.000F600.0
N3730G3X23.400Y14.000I0.000J-0.600
N3740G3X24.000Y13.400I0.600J0.000
N3750G3X24.600Y14.000I0.000J0.600
N3760G01Z-1.100F30.0
N3770G3X24.000Y14.600I-0.600J0.000F600.0
N3780G3X23.400Y14.000I0.000J-0.600
N3790G3X24.000Y13.400I0.600J0.000
N3800G3X24.600Y14.000I0.000J0.600
N3810G01Z-1.200F30.0
N3820G3X24.000Y14.600I-0.600J0.000F600.0
N3830G3X23.400Y14.000I0.000J-0.600
N3840G3X24.000Y13.400I0.600J0.000
N3850G3X24.600Y14.000I0.000J0.600
N3860G01Z-1.300F30.0
N3870G3X24.000Y14.600I-0.600J0.000F600.0
N3880G3X23.400Y14.000I0.000J-0.600
N3890G3X24.000Y13.400I0.600J0.000
N3900G3X24.600Y14.000I0.000J0.600
N3910G01Z-1.400F30.0
N3920G3X24.000Y14.600I-0.600J0.000F600.0
N3930G3X23.400Y14.000I0.000J-0.600
N3940G3X24.000Y13.400I0.600J0.000
N3950G3X24.600Y14.000I0.000J0.600
N3960G01Z-1.500F30.0
N3970G3X24.000Y14.600I-0.600J0.000F600.0
N3980G3X23.400Y14.000I0.000J-0.600
N3990G3X24.000Y13.400I0.600J0.000
N4000G3X24.600Y14.000I0.000J0.600
N4010G01Z-1.600F30.0
N4020G3X24.000Y14.600I-0.600J0.000F600.0
N4030G3X23.400Y14.000I0.000J-0.600
N4040G3X24.000Y13.400I0.600J0.000
N4050G3X24.600Y14.000I0.000J0.600
N4060G01Z-1.700F30.0
N4070G3X24.000Y14.600I-0.600J0.000F600.0
N4080G3X23.400Y14.000I0.000J-0.600
N4090G3X24.000Y13.400I0.600J0.000
N4100G3X24.600Y14.000I0.000J0.600
N4110G01Z-1.800F30.0
N4120G3X24.000Y14.600I-0.600J0.000F600.0
N4130G3X23.400Y14.000I0.000J-0.600
N4140G3X24.000Y13.400I0.600J0.000
N4150G3X24.600Y14.000I0.000J0.600
N4160G01Z-1.900F30.0
N4170G3X24.000Y14.600I-0.600J0.000F600.0
N4180G3X23.400Y14.000I0.000J-0.600
N4190G3X24.000Y13.400I0.600J0.000
N4200G3X24.600Y14.000I0.000J0.600
N4210G01Z-2.000F30.0
N4220G3X24.000Y14.600I-0.600J0.000F600.0
N4230G3X23.400Y14.000I0.000J-0.600
N4240G3X24.000Y13.400I0.600J0.000
N4250G3X24.600Y14.000I0.000J0.600
N4260G01Z-2.100F30.0
N4270G3X24.000Y14.600I-0.600J0.000F600.0
N4280G3X23.400Y14.000I0.000J-0.600
N4290G3X24.000Y13.400I0.600J0.000
N4300G3X24.600Y14.000I0.000J0.600
N4310G01Z-2.200F30.0
N4320G3X24.000Y14.600I-0.600J0.000F600.0
N4330G3X23.400Y14.000I0.000J-0.600
N4340G3X24.000Y13.400I0.600J0.000
N4350G3X24.600Y14.000I0.000J0.600
N4360G01Z-2.300F30.0
N4370G3X24.000Y14.600I-0.600J0.000F600.0
N4380G3X23.400Y14.000I0.000J-0.600
N4390G3X24.000Y13.400I0.600J0.000
N4400G3X24.600Y14.000I0.000J0.600
N4410G01Z-2.400F30.0
N4420G3X24.000Y14.600I-0.600J0.000F600.0
N4430G3X23.400Y14.000I0.000J-0.600
N4440G3X24.000Y13.400I0.600J0.000
N4450G3X24.600Y14.000I0.000J0.600
N4460G01Z-2.500F30.0
N4470G3X24.000Y14.600I-0.600J0.000F600.0
N4480G3X23.400Y14.000I0.000J-0.600
N4490G3X24.000Y13.400I0.600J0.000
N4500G3X24.600Y14.000I0.000J0.600
N4510G01Z-2.600F30.0
N4520G3X24.000Y14.600I-0.600J0.000F600.0
N4530G3X23.400Y14.000I0.000J-0.600
N4540G3X24.000Y13.400I0.600J0.000
N4550G3X24.600Y14.000I0.000J0.600
N4560G01Z-2.700F30.0
N4570G3X24.000Y14.600I-0.600J0.000F600.0
N4580G3X23.400Y14.000I0.000J-0.600
N4590G3X24.000Y13.400I0.600J0.000
N4600G3X24.600Y14.000I0.000J0.600
N4610G01Z-2.800F30.0
N4620G3X24.000Y14.600I-0.600J0.000F600.0
N4630G3X23.400Y14.000I0.000J-0.600
N4640G3X24.000Y13.400I0.600J0.000
N4650G3X24.600Y14.000I0.000J0.600
N4660G01Z-2.900F30.0
N4670G3X24.000Y14.600I-0.600J0.000F600.0
N4680G3X23.400Y14.000I0.000J-0.600
N4690G3X24.000Y13.400I0.600J0.000
N4700G3X24.600Y14.000I0.000J0.600
N4710G01Z-3.000F30.0
N4720G3X24.000Y14.600I-0.600J0.000F600.0
N4730G3X23.400Y14.000I0.000J-0.600
N4740G3X24.000Y13.400I0.600J0.000
N4750G3X24.600Y14.000I0.000J0.600
N4760G01Z-3.100F30.0
N4770G3X24.000Y14.600I-0.600J0.000F600.0
N4780G3X23.400Y14.000I0.000J-0.600
N4790G3X24.000Y13.400I0.600J0.000
N4800G3X24.600Y14.000I0.000J0.600
N4810G01Z-3.200F30.0
N4820G3X24.000Y14.600I-0.600J0.000F600.0
N4830G3X23.400Y14.000I0.000J-0.600
N4840G3X24.000Y13.400I0.600J0.000
N4850G3X24.600Y14.000I0.000J0.600
N4860G01Z-3.300F30.0
N4870G3X24.000Y14.600I-0.600J0.000F600.0
N4880G3X23.400Y14.000I0.000J-0.600
N4890G3X24.000Y13.400I0.600J0.000
N4900G3X24.600Y14.000I0.000J0.600
N4910G01Z-3.400F30.0
N4920G3X24.000Y14.600I-0.600J0.000F600.0
N4930G3X23.400Y14.000I0.000J-0.600
N4940G3X24.000Y13.400I0.600J0.000
N4950G3X24.600Y14.000I0.000J0.600
N4960G01Z-3.500F30.0
N4970G3X24.000Y14.600I-0.600J0.000F600.0
N4980G3X23.400Y14.000I0.000J-0.600
N4990G3X24.000Y13.400I0.600J0.000
N5000G3X24.600Y14.000I0.000J0.600
N5010G01Z-3.600F30.0
N5020G3X24.000Y14.600I-0.600J0.000F600.0
N5030G3X23.400Y14.000I0.000J-0.600
N5040G3X24.000Y13.400I0.600J0.000
N5050G3X24.600Y14.000I0.000J0.600
N5060G01Z-3.700F30.0
N5070G3X24.000Y14.600I-0.600J0.000F600.0
N5080G3X23.400Y14.000I0.000J-0.600
N5090G3X24.000Y13.400I0.600J0.000
N5100G3X24.600Y14.000I0.000J0.600
N5110G01Z-3.800F30.0
N5120G3X24.000Y14.600I-0.600J0.000F600.0
N5130G3X23.400Y14.000I0.000J-0.600
N5140G3X24.000Y13.400I0.600J0.000
N5150G3X24.600Y14.000I0.000J0.600
N5160G01Z-3.900F30.0
N5170G3X24.000Y14.600I-0.600J0.000F600.0
N5180G3X23.400Y14.000I0.000J-0.600
N5190G3X24.000Y13.400I0.600J0.000
N5200G3X24.600Y14.000I0.000J0.600
N5210G01Z-4.000F30.0
N5220G3X24.000Y14.600I-0.600J0.000F600.0
N5230G3X23.400Y14.000I0.000J-0.600
N5240G3X24.000Y13.400I0.600J0.000
N5250G3X24.600Y14.000I0.000J0.600
N5260G01Z-4.100F30.0
N5270G3X24.000Y14.600I-0.600J0.000F600.0
N5280G3X23.400Y14.000I0.000J-0.600
N5290G3X24.000Y13.400I0.600J0.000
N5300G3X24.600Y14.000I0.000J0.600
N5310G01Z-4.200F30.0
N5320G3X24.000Y14.600I-0.600J0.000F600.0
N5330G3X23.400Y14.000I0.000J-0.600
N5340G3X24.000Y13.400I0.600J0.000
N5350G3X24.600Y14.000I0.000J0.600
N5360G01Z-4.300F30.0
N5370G3X24.000Y14.600I-0.600J0.000F600.0
N5380G3X23.400Y14.000I0.000J-0.600
N5390G3X24.000Y13.400I0.600J0.000
N5400G3X24.600Y14.000I0.000J0.600
N5410G01Z-4.400F30.0
N5420G3X24.000Y14.600I-0.600J0.000F600.0
N5430G3X23.400Y14.000I0.000J-0.600
N5440G3X24.000Y13.400I0.600J0.000
N5450G3X24.600Y14.000I0.000J0.600
N5460G01Z-4.500F30.0
N5470G3X24.000Y14.600I-0.600J0.000F600.0
N5480G3X23.400Y14.000I0.000J-0.600
N5490G3X24.000Y13.400I0.600J0.000
N5500G3X24.600Y14.000I0.000J0.600
N5510G01Z-4.600F30.0
N5520G3X24.000Y14.600I-0.600J0.000F600.0
N5530G3X23.400Y14.000I0.000J-0.600
N5540G3X24.000Y13.400I0.600J0.000
N5550G3X24.600Y14.000I0.000J0.600
N5560G01Z-4.700F30.0
N5570G3X24.000Y14.600I-0.600J0.000F600.0
N5580G3X23.400Y14.000I0.000J-0.600
N5590G3X24.000Y13.400I0.600J0.000
N5600G3X24.600Y14.000I0.000J0.600
N5610G01Z-4.800F30.0
N5620G3X24.000Y14.600I-0.600J0.000F600.0
N5630G3X23.400Y14.000I0.000J-0.600
N5640G3X24.000Y13.400I0.600J0.000
N5650G3X24.600Y14.000I0.000J0.600
N5660G01Z-4.900F30.0
N5670G3X24.000Y14.600I-0.600J0.000F600.0
N5680G3X23.400Y14.000I0.000J-0.600
N5690G3X24.000Y13.400I0.600J0.000
N5700G3X24.600Y14.000I0.000J0.600
N5710G01Z-5.000F30.0
N5720G3X24.000Y14.600I-0.600J0.000F600.0
N5730G3X23.400Y14.000I0.000J-0.600
N5740G3X24.000Y13.400I0.600J0.000
N5750G3X24.600Y14.000I0.000J0.600
N5760G01Z-5.100F30.0
N5770G3X24.000Y14.600I-0.600J0.000F600.0
N5780G3X23.400Y14.000I0.000J-0.600
N5790G3X24.000Y13.400I0.600J0.000
N5800G3X24.600Y14.000I0.000J0.600
N5810G01Z-5.200F30.0
N5820G3X24.000Y14.600I-0.600J0.000F600.0
N5830G3X23.400Y14.000I0.000J-0.600
N5840G3X24.000Y13.400I0.600J0.000
N5850G3X24.600Y14.000I0.000J0.600
N5860G01Z-5.300F30.0
N5870G3X24.000Y14.600I-0.600J0.000F600.0
N5880G3X23.400Y14.000I0.000J-0.600
N5890G3X24.000Y13.400I0.600J0.000
N5900G3X24.600Y14.000I0.000J0.600
N5910G01Z-5.400F30.0
N5920G3X24.000Y14.600I-0.600J0.000F600.0
N5930G3X23.400Y14.000I0.000J-0.600
N5940G3X24.000Y13.400I0.600J0.000
N5950G3X24.600Y14.000I0.000J0.600
N5960G01Z-5.500F30.0
N5970G3X24.000Y14.600I-0.600J0.000F600.0
N5980G3X23.400Y14.000I0.000J-0.600
N5990G3X24.000Y13.400I0.600J0.000
N6000G3X24.600Y14.000I0.000J0.600
N6010G01Z-5.600F30.0
N6020G3X24.000Y14.600I-0.600J0.000F600.0
N6030G3X23.400Y14.000I0.000J-0.600
N6040G3X24.000Y13.400I0.600J0.000
N6050G3X24.600Y14.000I0.000J0.600
N6060G01Z-5.700F30.0
N6070G3X24.000Y14.600I-0.600J0.000F600.0
N6080G3X23.400Y14.000I0.000J-0.600
N6090G3X24.000Y13.400I0.600J0.000
N6100G3X24.600Y14.000I0.000J0.600
N6110G01Z-5.800F30.0
N6120G3X24.000Y14.600I-0.600J0.000F600.0
N6130G3X23.400Y14.000I0.000J-0.600
N6140G3X24.000Y13.400I0.600J0.000
N6150G3X24.600Y14.000I0.000J0.600
N6160G01Z-5.900F30.0
N6170G3X24.000Y14.600I-0.600J0.000F600.0
N6180G3X23.400Y14.000I0.000J-0.600
N6190G3X24.000Y13.400I0.600J0.000
N6200G3X24.600Y14.000I0.000J0.600
N6210G01Z-6.000F30.0
N6220G3X24.000Y14.600I-0.600J0.000F600.0
N6230G3X23.400Y14.000I0.000J-0.600
N6240G3X24.000Y13.400I0.600J0.000
N6250G3X24.600Y14.000I0.000J0.600
N6260G01Z-6.100F30.0
N6270G3X24.000Y14.600I-0.600J0.000F600.0
N6280G3X23.400Y14.000I0.000J-0.600
N6290G3X24.000Y13.400I0.600J0.000
N6300G3X24.600Y14.000I0.000J0.600
N6310G01Z-6.200F30.0
N6320G3X24.000Y14.600I-0.600J0.000F600.0
N6330G3X23.400Y14.000I0.000J-0.600
N6340G3X24.000Y13.400I0.600J0.000
N6350G3X24.600Y14.000I0.000J0.600
N6360G01Z-6.300F30.0
N6370G3X24.000Y14.600I-0.600J0.000F600.0
N6380G3X23.400Y14.000I0.000J-0.600
N6390G3X24.000Y13.400I0.600J0.000
N6400G3X24.600Y14.000I0.000J0.600
N6410G00Z6.000
N6420G00X29.100Y24.000
N6430G01Z-0.100F30.0
N6440G3X24.000Y29.100I-5.100J0.000F600.0
N6450G3X20.424Y27.636I0.000J-5.100
N6460G01X19.930Y27.073
N6470X19.520Y26.437
N6480X19.209Y25.747
N6490X19.004Y25.027
N6500G3X18.900Y24.000I4.996J-1.027
N6510G3X24.000Y18.900I5.100J0.000
N6520G3X25.929Y19.279I0.000J5.100
N6530G01X26.606Y19.616
N6540X27.232Y20.055
N6550X27.785Y20.582
N6560X28.249Y21.179
N6570G3X29.100Y24.000I-4.249J2.821
N6580G01Z-0.200F30.0
N6590G3X24.000Y29.100I-5.100J0.000F600.0
N6600G3X20.424Y27.636I0.000J-5.100
N6610G01X19.930Y27.073
N6620X19.520Y26.437
N6630X19.209Y25.747
N6640X19.004Y25.027
N6650G3X18.900Y24.000I4.996J-1.027
N6660G3X24.000Y18.900I5.100J0.000
N6670G3X25.929Y19.279I0.000J5.100
N6680G01X26.606Y19.616
N6690X27.232Y20.055
N6700X27.785Y20.582
N6710X28.249Y21.179
N6720G3X29.100Y24.000I-4.249J2.821
N6730G01Z-0.300F30.0
N6740G3X24.000Y29.100I-5.100J0.000F600.0
N6750G3X20.424Y27.636I0.000J-5.100
N6760G01X19.930Y27.073
N6770X19.520Y26.437
N6780X19.209Y25.747
N6790X19.004Y25.027
N6800G3X18.900Y24.000I4.996J-1.027
N6810G3X24.000Y18.900I5.100J0.000
N6820G3X25.929Y19.279I0.000J5.100
N6830G01X26.606Y19.616
N6840X27.232Y20.055
N6850X27.785Y20.582
N6860X28.249Y21.179
N6870G3X29.100Y24.000I-4.249J2.821
N6880G01Z-0.400F30.0
N6890G3X24.000Y29.100I-5.100J0.000F600.0
N6900G3X20.424Y27.636I0.000J-5.100
N6910G01X19.930Y27.073
N6920X19.520Y26.437
N6930X19.209Y25.747
N6940X19.004Y25.027
N6950G3X18.900Y24.000I4.996J-1.027
N6960G3X24.000Y18.900I5.100J0.000
N6970G3X25.929Y19.279I0.000J5.100
N6980G01X26.606Y19.616
N6990X27.232Y20.055
N7000X27.785Y20.582
N7010X28.249Y21.179
N7020G3X29.100Y24.000I-4.249J2.821
N7030G01Z-0.500F30.0
N7040G3X24.000Y29.100I-5.100J0.000F600.0
N7050G3X20.424Y27.636I0.000J-5.100
N7060G01X19.930Y27.073
N7070X19.520Y26.437
N7080X19.209Y25.747
N7090X19.004Y25.027
N7100G3X18.900Y24.000I4.996J-1.027
N7110G3X24.000Y18.900I5.100J0.000
N7120G3X25.929Y19.279I0.000J5.100
N7130G01X26.606Y19.616
N7140X27.232Y20.055
N7150X27.785Y20.582
N7160X28.249Y21.179
N7170G3X29.100Y24.000I-4.249J2.821
N7180G01Z-0.600F30.0
N7190G3X24.000Y29.100I-5.100J0.000F600.0
N7200G3X20.424Y27.636I0.000J-5.100
N7210G01X19.930Y27.073
N7220X19.520Y26.437
N7230X19.209Y25.747
N7240X19.004Y25.027
N7250G3X18.900Y24.000I4.996J-1.027
N7260G3X24.000Y18.900I5.100J0.000
N7270G3X25.929Y19.279I0.000J5.100
N7280G01X26.606Y19.616
N7290X27.232Y20.055
N7300X27.785Y20.582
N7310X28.249Y21.179
N7320G3X29.100Y24.000I-4.249J2.821
N7330G01Z-0.700F30.0
N7340G3X24.000Y29.100I-5.100J0.000F600.0
N7350G3X20.424Y27.636I0.000J-5.100
N7360G01X19.930Y27.073
N7370X19.520Y26.437
N7380X19.209Y25.747
N7390X19.004Y25.027
N7400G3X18.900Y24.000I4.996J-1.027
N7410G3X24.000Y18.900I5.100J0.000
N7420G3X25.929Y19.279I0.000J5.100
N7430G01X26.606Y19.616
N7440X27.232Y20.055
N7450X27.785Y20.582
N7460X28.249Y21.179
N7470G3X29.100Y24.000I-4.249J2.821
N7480G01Z-0.800F30.0
N7490G3X24.000Y29.100I-5.100J0.000F600.0
N7500G3X20.424Y27.636I0.000J-5.100
N7510G01X19.930Y27.073
N7520X19.520Y26.437
N7530X19.209Y25.747
N7540X19.004Y25.027
N7550G3X18.900Y24.000I4.996J-1.027
N7560G3X24.000Y18.900I5.100J0.000
N7570G3X25.929Y19.279I0.000J5.100
N7580G01X26.606Y19.616
N7590X27.232Y20.055
N7600X27.785Y20.582
N7610X28.249Y21.179
N7620G3X29.100Y24.000I-4.249J2.821
N7630G01Z-0.900F30.0
N7640G3X24.000Y29.100I-5.100J0.000F600.0
N7650G3X20.424Y27.636I0.000J-5.100
N7660G01X19.930Y27.073
N7670X19.520Y26.437
N7680X19.209Y25.747
N7690X19.004Y25.027
N7700G3X18.900Y24.000I4.996J-1.027
N7710G3X24.000Y18.900I5.100J0.000
N7720G3X25.929Y19.279I0.000J5.100
N7730G01X26.606Y19.616
N7740X27.232Y20.055
N7750X27.785Y20.582
N7760X28.249Y21.179
N7770G3X29.100Y24.000I-4.249J2.821
N7780G01Z-1.000F30.0
N7790G3X24.000Y29.100I-5.100J0.000F600.0
N7800G3X20.424Y27.636I0.000J-5.100
N7810G01X19.930Y27.073
N7820X19.520Y26.437
N7830X19.209Y25.747
N7840X19.004Y25.027
N7850G3X18.900Y24.000I4.996J-1.027
N7860G3X24.000Y18.900I5.100J0.000
N7870G3X25.929Y19.279I0.000J5.100
N7880G01X26.606Y19.616
N7890X27.232Y20.055
N7900X27.785Y20.582
N7910X28.249Y21.179
N7920G3X29.100Y24.000I-4.249J2.821
N7930G01Z-1.100F30.0
N7940G3X24.000Y29.100I-5.100J0.000F600.0
N7950G3X20.424Y27.636I0.000J-5.100
N7960G01X19.930Y27.073
N7970X19.520Y26.437
N7980X19.209Y25.747
N7990X19.004Y25.027
N8000G3X18.900Y24.000I4.996J-1.027
N8010G3X24.000Y18.900I5.100J0.000
N8020G3X25.929Y19.279I0.000J5.100
N8030G01X26.606Y19.616
N8040X27.232Y20.055
N8050X27.785Y20.582
N8060X28.249Y21.179
N8070G3X29.100Y24.000I-4.249J2.821
N8080G01Z-1.200F30.0
N8090G3X24.000Y29.100I-5.100J0.000F600.0
N8100G3X20.424Y27.636I0.000J-5.100
N8110G01X19.930Y27.073
N8120X19.520Y26.437
N8130X19.209Y25.747
N8140X19.004Y25.027
N8150G3X18.900Y24.000I4.996J-1.027
N8160G3X24.000Y18.900I5.100J0.000
N8170G3X25.929Y19.279I0.000J5.100
N8180G01X26.606Y19.616
N8190X27.232Y20.055
N8200X27.785Y20.582
N8210X28.249Y21.179
N8220G3X29.100Y24.000I-4.249J2.821
N8230G01Z-1.300F30.0
N8240G3X24.000Y29.100I-5.100J0.000F600.0
N8250G3X20.424Y27.636I0.000J-5.100
N8260G01X19.930Y27.073
N8270X19.520Y26.437
N8280X19.209Y25.747
N8290X19.004Y25.027
N8300G3X18.900Y24.000I4.996J-1.027
N8310G3X24.000Y18.900I5.100J0.000
N8320G3X25.929Y19.279I0.000J5.100
N8330G01X26.606Y19.616
N8340X27.232Y20.055
N8350X27.785Y20.582
N8360X28.249Y21.179
N8370G3X29.100Y24.000I-4.249J2.821
N8380G01Z-1.400F30.0
N8390G3X24.000Y29.100I-5.100J0.000F600.0
N8400G3X20.424Y27.636I0.000J-5.100
N8410G01X19.930Y27.073
N8420X19.520Y26.437
N8430X19.209Y25.747
N8440X19.004Y25.027
N8450G3X18.900Y24.000I4.996J-1.027
N8460G3X24.000Y18.900I5.100J0.000
N8470G3X25.929Y19.279I0.000J5.100
N8480G01X26.606Y19.616
N8490X27.232Y20.055
N8500X27.785Y20.582
N8510X28.249Y21.179
N8520G3X29.100Y24.000I-4.249J2.821
N8530G01Z-1.500F30.0
N8540G3X24.000Y29.100I-5.100J0.000F600.0
N8550G3X20.424Y27.636I0.000J-5.100
N8560G01X19.930Y27.073
N8570X19.520Y26.437
N8580X19.209Y25.747
N8590X19.004Y25.027
N8600G3X18.900Y24.000I4.996J-1.027
N8610G3X24.000Y18.900I5.100J0.000
N8620G3X25.929Y19.279I0.000J5.100
N8630G01X26.606Y19.616
N8640X27.232Y20.055
N8650X27.785Y20.582
N8660X28.249Y21.179
N8670G3X29.100Y24.000I-4.249J2.821
N8680G01Z-1.600F30.0
N8690G3X24.000Y29.100I-5.100J0.000F600.0
N8700G3X20.424Y27.636I0.000J-5.100
N8710G01X19.930Y27.073
N8720X19.520Y26.437
N8730X19.209Y25.747
N8740X19.004Y25.027
N8750G3X18.900Y24.000I4.996J-1.027
N8760G3X24.000Y18.900I5.100J0.000
N8770G3X25.929Y19.279I0.000J5.100
N8780G01X26.606Y19.616
N8790X27.232Y20.055
N8800X27.785Y20.582
N8810X28.249Y21.179
N8820G3X29.100Y24.000I-4.249J2.821
N8830G01Z-1.700F30.0
N8840G3X24.000Y29.100I-5.100J0.000F600.0
N8850G3X20.424Y27.636I0.000J-5.100
N8860G01X19.930Y27.073
N8870X19.520Y26.437
N8880X19.209Y25.747
N8890X19.004Y25.027
N8900G3X18.900Y24.000I4.996J-1.027
N8910G3X24.000Y18.900I5.100J0.000
N8920G3X25.929Y19.279I0.000J5.100
N8930G01X26.606Y19.616
N8940X27.232Y20.055
N8950X27.785Y20.582
N8960X28.249Y21.179
N8970G3X29.100Y24.000I-4.249J2.821
N8980G01Z-1.800F30.0
N8990G3X24.000Y29.100I-5.100J0.000F600.0
N9000G3X20.424Y27.636I0.000J-5.100
N9010G01X19.930Y27.073
N9020X19.520Y26.437
N9030X19.209Y25.747
N9040X19.004Y25.027
N9050G3X18.900Y24.000I4.996J-1.027
N9060G3X24.000Y18.900I5.100J0.000
N9070G3X25.929Y19.279I0.000J5.100
N9080G01X26.606Y19.616
N9090X27.232Y20.055
N9100X27.785Y20.582
N9110X28.249Y21.179
N9120G3X29.100Y24.000I-4.249J2.821
N9130G01Z-1.900F30.0
N9140G3X24.000Y29.100I-5.100J0.000F600.0
N9150G3X20.424Y27.636I0.000J-5.100
N9160G01X19.930Y27.073
N9170X19.520Y26.437
N9180X19.209Y25.747
N9190X19.004Y25.027
N9200G3X18.900Y24.000I4.996J-1.027
N9210G3X24.000Y18.900I5.100J0.000
N9220G3X25.929Y19.279I0.000J5.100
N9230G01X26.606Y19.616
N9240X27.232Y20.055
N9250X27.785Y20.582
N9260X28.249Y21.179
N9270G3X29.100Y24.000I-4.249J2.821
N9280G01Z-2.000F30.0
N9290G3X24.000Y29.100I-5.100J0.000F600.0
N9300G3X20.424Y27.636I0.000J-5.100
N9310G01X19.930Y27.073
N9320X19.520Y26.437
N9330X19.209Y25.747
N9340X19.004Y25.027
N9350G3X18.900Y24.000I4.996J-1.027
N9360G3X24.000Y18.900I5.100J0.000
N9370G3X25.929Y19.279I0.000J5.100
N9380G01X26.606Y19.616
N9390X27.232Y20.055
N9400X27.785Y20.582
N9410X28.249Y21.179
N9420G3X29.100Y24.000I-4.249J2.821
N9430G01Z-2.100F30.0
N9440G3X24.000Y29.100I-5.100J0.000F600.0
N9450G3X20.424Y27.636I0.000J-5.100
N9460G01X19.930Y27.073
N9470X19.520Y26.437
N9480X19.209Y25.747
N9490X19.004Y25.027
N9500G3X18.900Y24.000I4.996J-1.027
N9510G3X24.000Y18.900I5.100J0.000
N9520G3X25.929Y19.279I0.000J5.100
N9530G01X26.606Y19.616
N9540X27.232Y20.055
N9550X27.785Y20.582
N9560X28.249Y21.179
N9570G3X29.100Y24.000I-4.249J2.821
N9580G01Z-2.200F30.0
N9590G3X24.000Y29.100I-5.100J0.000F600.0
N9600G3X20.424Y27.636I0.000J-5.100
N9610G01X19.930Y27.073
N9620X19.520Y26.437
N9630X19.209Y25.747
N9640X19.004Y25.027
N9650G3X18.900Y24.000I4.996J-1.027
N9660G3X24.000Y18.900I5.100J0.000
N9670G3X25.929Y19.279I0.000J5.100
N9680G01X26.606Y19.616
N9690X27.232Y20.055
N9700X27.785Y20.582
N9710X28.249Y21.179
N9720G3X29.100Y24.000I-4.249J2.821
N9730G01Z-2.300F30.0
N9740G3X24.000Y29.100I-5.100J0.000F600.0
N9750G3X20.424Y27.636I0.000J-5.100
N9760G01X19.930Y27.073
N9770X19.520Y26.437
N9780X19.209Y25.747
N9790X19.004Y25.027
N9800G3X18.900Y24.000I4.996J-1.027
N9810G3X24.000Y18.900I5.100J0.000
N9820G3X25.929Y19.279I0.000J5.100
N9830G01X26.606Y19.616
N9840X27.232Y20.055
N9850X27.785Y20.582
N9860X28.249Y21.179
N9870G3X29.100Y24.000I-4.249J2.821
N9880G01Z-2.400F30.0
N9890G3X24.000Y29.100I-5.100J0.000F600.0
N9900G3X20.424Y27.636I0.000J-5.100
N9910G01X19.930Y27.073
N9920X19.520Y26.437
N9930X19.209Y25.747
N9940X19.004Y25.027
N9950G3X18.900Y24.000I4.996J-1.027
N9960G3X24.000Y18.900I5.100J0.000
N9970G3X25.929Y19.279I0.000J5.100
N9980G01X26.606Y19.616
N9990X27.232Y20.055
N10000X27.785Y20.582
N10010X28.249Y21.179
N10020G3X29.100Y24.000I-4.249J2.821
N10030G01Z-2.500F30.0
N10040G3X24.000Y29.100I-5.100J0.000F600.0
N10050G3X20.424Y27.636I0.000J-5.100
N10060G01X19.930Y27.073
N10070X19.520Y26.437
N10080X19.209Y25.747
N10090X19.004Y25.027
N10100G3X18.900Y24.000I4.996J-1.027
N10110G3X24.000Y18.900I5.100J0.000
N10120G3X25.929Y19.279I0.000J5.100
N10130G01X26.606Y19.616
N10140X27.232Y20.055
N10150X27.785Y20.582
N10160X28.249Y21.179
N10170G3X29.100Y24.000I-4.249J2.821
N10180G01Z-2.600F30.0
N10190G3X24.000Y29.100I-5.100J0.000F600.0
N10200G3X20.424Y27.636I0.000J-5.100
N10210G01X19.930Y27.073
N10220X19.520Y26.437
N10230X19.209Y25.747
N10240X19.004Y25.027
N10250G3X18.900Y24.000I4.996J-1.027
N10260G3X24.000Y18.900I5.100J0.000
N10270G3X25.929Y19.279I0.000J5.100
N10280G01X26.606Y19.616
N10290X27.232Y20.055
N10300X27.785Y20.582
N10310X28.249Y21.179
N10320G3X29.100Y24.000I-4.249J2.821
N10330G01Z-2.700F30.0
N10340G3X24.000Y29.100I-5.100J0.000F600.0
N10350G3X20.424Y27.636I0.000J-5.100
N10360G01X19.930Y27.073
N10370X19.520Y26.437
N10380X19.209Y25.747
N10390X19.004Y25.027
N10400G3X18.900Y24.000I4.996J-1.027
N10410G3X24.000Y18.900I5.100J0.000
N10420G3X25.929Y19.279I0.000J5.100
N10430G01X26.606Y19.616
N10440X27.232Y20.055
N10450X27.785Y20.582
N10460X28.249Y21.179
N10470G3X29.100Y24.000I-4.249J2.821
N10480G01Z-2.800F30.0
N10490G3X24.000Y29.100I-5.100J0.000F600.0
N10500G3X20.424Y27.636I0.000J-5.100
N10510G01X19.930Y27.073
N10520X19.520Y26.437
N10530X19.209Y25.747
N10540X19.004Y25.027
N10550G3X18.900Y24.000I4.996J-1.027
N10560G3X24.000Y18.900I5.100J0.000
N10570G3X25.929Y19.279I0.000J5.100
N10580G01X26.606Y19.616
N10590X27.232Y20.055
N10600X27.785Y20.582
N10610X28.249Y21.179
N10620G3X29.100Y24.000I-4.249J2.821
N10630G01Z-2.900F30.0
N10640G3X24.000Y29.100I-5.100J0.000F600.0
N10650G3X20.424Y27.636I0.000J-5.100
N10660G01X19.930Y27.073
N10670X19.520Y26.437
N10680X19.209Y25.747
N10690X19.004Y25.027
N10700G3X18.900Y24.000I4.996J-1.027
N10710G3X24.000Y18.900I5.100J0.000
N10720G3X25.929Y19.279I0.000J5.100
N10730G01X26.606Y19.616
N10740X27.232Y20.055
N10750X27.785Y20.582
N10760X28.249Y21.179
N10770G3X29.100Y24.000I-4.249J2.821
N10780G01Z-3.000F30.0
N10790G3X24.000Y29.100I-5.100J0.000F600.0
N10800G3X20.424Y27.636I0.000J-5.100
N10810G01X19.930Y27.073
N10820X19.520Y26.437
N10830X19.209Y25.747
N10840X19.004Y25.027
N10850G3X18.900Y24.000I4.996J-1.027
N10860G3X24.000Y18.900I5.100J0.000
N10870G3X25.929Y19.279I0.000J5.100
N10880G01X26.606Y19.616
N10890X27.232Y20.055
N10900X27.785Y20.582
N10910X28.249Y21.179
N10920G3X29.100Y24.000I-4.249J2.821
N10930G01Z-3.100F30.0
N10940G3X24.000Y29.100I-5.100J0.000F600.0
N10950G3X20.424Y27.636I0.000J-5.100
N10960G01X19.930Y27.073
N10970X19.520Y26.437
N10980X19.209Y25.747
N10990X19.004Y25.027
N11000G3X18.900Y24.000I4.996J-1.027
N11010G3X24.000Y18.900I5.100J0.000
N11020G3X25.929Y19.279I0.000J5.100
N11030G01X26.606Y19.616
N11040X27.232Y20.055
N11050X27.785Y20.582
N11060X28.249Y21.179
N11070G3X29.100Y24.000I-4.249J2.821
N11080G01Z-3.200F30.0
N11090G3X24.000Y29.100I-5.100J0.000F600.0
N11100G3X20.424Y27.636I0.000J-5.100
N11110G01X19.930Y27.073
N11120X19.520Y26.437
N11130X19.209Y25.747
N11140X19.004Y25.027
N11150G3X18.900Y24.000I4.996J-1.027
N11160G3X24.000Y18.900I5.100J0.000
N11170G3X25.929Y19.279I0.000J5.100
N11180G01X26.606Y19.616
N11190X27.232Y20.055
N11200X27.785Y20.582
N11210X28.249Y21.179
N11220G3X29.100Y24.000I-4.249J2.821
N11230G01Z-3.300F30.0
N11240G3X24.000Y29.100I-5.100J0.000F600.0
N11250G3X20.424Y27.636I0.000J-5.100
N11260G01X19.930Y27.073
N11270X19.520Y26.437
N11280X19.209Y25.747
N11290X19.004Y25.027
N11300G3X18.900Y24.000I4.996J-1.027
N11310G3X24.000Y18.900I5.100J0.000
N11320G3X25.929Y19.279I0.000J5.100
N11330G01X26.606Y19.616
N11340X27.232Y20.055
N11350X27.785Y20.582
N11360X28.249Y21.179
N11370G3X29.100Y24.000I-4.249J2.821
N11380G01Z-3.400F30.0
N11390G3X24.000Y29.100I-5.100J0.000F600.0
N11400G3X20.424Y27.636I0.000J-5.100
N11410G01X19.930Y27.073
N11420X19.520Y26.437
N11430X19.209Y25.747
N11440X19.004Y25.027
N11450G3X18.900Y24.000I4.996J-1.027
N11460G3X24.000Y18.900I5.100J0.000
N11470G3X25.929Y19.279I0.000J5.100
N11480G01X26.606Y19.616
N11490X27.232Y20.055
N11500X27.785Y20.582
N11510X28.249Y21.179
N11520G3X29.100Y24.000I-4.249J2.821
N11530G01Z-3.500F30.0
N11540G3X24.000Y29.100I-5.100J0.000F600.0
N11550G3X20.424Y27.636I0.000J-5.100
N11560G01X19.930Y27.073
N11570X19.520Y26.437
N11580X19.209Y25.747
N11590X19.004Y25.027
N11600G3X18.900Y24.000I4.996J-1.027
N11610G3X24.000Y18.900I5.100J0.000
N11620G3X25.929Y19.279I0.000J5.100
N11630G01X26.606Y19.616
N11640X27.232Y20.055
N11650X27.785Y20.582
N11660X28.249Y21.179
N11670G3X29.100Y24.000I-4.249J2.821
N11680G01Z-3.600F30.0
N11690G3X24.000Y29.100I-5.100J0.000F600.0
N11700G3X20.424Y27.636I0.000J-5.100
N11710G01X19.930Y27.073
N11720X19.520Y26.437
N11730X19.209Y25.747
N11740X19.004Y25.027
N11750G3X18.900Y24.000I4.996J-1.027
N11760G3X24.000Y18.900I5.100J0.000
N11770G3X25.929Y19.279I0.000J5.100
N11780G01X26.606Y19.616
N11790X27.232Y20.055
N11800X27.785Y20.582
N11810X28.249Y21.179
N11820G3X29.100Y24.000I-4.249J2.821
N11830G01Z-3.700F30.0
N11840G3X24.000Y29.100I-5.100J0.000F600.0
N11850G3X20.424Y27.636I0.000J-5.100
N11860G01X19.930Y27.073
N11870X19.520Y26.437
N11880X19.209Y25.747
N11890X19.004Y25.027
N11900G3X18.900Y24.000I4.996J-1.027
N11910G3X24.000Y18.900I5.100J0.000
N11920G3X25.929Y19.279I0.000J5.100
N11930G01X26.606Y19.616
N11940X27.232Y20.055
N11950X27.785Y20.582
N11960X28.249Y21.179
N11970G3X29.100Y24.000I-4.249J2.821
N11980G01Z-3.800F30.0
N11990G3X24.000Y29.100I-5.100J0.000F600.0
N12000G3X20.424Y27.636I0.000J-5.100
N12010G01X19.930Y27.073
N12020X19.520Y26.437
N12030X19.209Y25.747
N12040X19.004Y25.027
N12050G3X18.900Y24.000I4.996J-1.027
N12060G3X24.000Y18.900I5.100J0.000
N12070G3X25.929Y19.279I0.000J5.100
N12080G01X26.606Y19.616
N12090X27.232Y20.055
N12100X27.785Y20.582
N12110X28.249Y21.179
N12120G3X29.100Y24.000I-4.249J2.821
N12130G01Z-3.900F30.0
N12140G3X24.000Y29.100I-5.100J0.000F600.0
N12150G3X20.424Y27.636I0.000J-5.100
N12160G01X19.930Y27.073
N12170X19.520Y26.437
N12180X19.209Y25.747
N12190X19.004Y25.027
N12200G3X18.900Y24.000I4.996J-1.027
N12210G3X24.000Y18.900I5.100J0.000
N12220G3X25.929Y19.279I0.000J5.100
N12230G01X26.606Y19.616
N12240X27.232Y20.055
N12250X27.785Y20.582
N12260X28.249Y21.179
N12270G3X29.100Y24.000I-4.249J2.821
N12280G01Z-4.000F30.0
N12290G3X24.000Y29.100I-5.100J0.000F600.0
N12300G3X20.424Y27.636I0.000J-5.100
N12310G01X19.930Y27.073
N12320X19.520Y26.437
N12330X19.209Y25.747
N12340X19.004Y25.027
N12350G3X18.900Y24.000I4.996J-1.027
N12360G3X24.000Y18.900I5.100J0.000
N12370G3X25.929Y19.279I0.000J5.100
N12380G01X26.606Y19.616
N12390X27.232Y20.055
N12400X27.785Y20.582
N12410X28.249Y21.179
N12420G3X29.100Y24.000I-4.249J2.821
N12430G01Z-4.100F30.0
N12440G3X24.000Y29.100I-5.100J0.000F600.0
N12450G3X20.424Y27.636I0.000J-5.100
N12460G01X19.930Y27.073
N12470X19.520Y26.437
N12480X19.209Y25.747
N12490X19.004Y25.027
N12500G3X18.900Y24.000I4.996J-1.027
N12510G3X24.000Y18.900I5.100J0.000
N12520G3X25.929Y19.279I0.000J5.100
N12530G01X26.606Y19.616
N12540X27.232Y20.055
N12550X27.785Y20.582
N12560X28.249Y21.179
N12570G3X29.100Y24.000I-4.249J2.821
N12580G01Z-4.200F30.0
N12590G3X24.000Y29.100I-5.100J0.000F600.0
N12600G3X20.424Y27.636I0.000J-5.100
N12610G01X19.930Y27.073
N12620X19.520Y26.437
N12630X19.209Y25.747
N12640X19.004Y25.027
N12650G3X18.900Y24.000I4.996J-1.027
N12660G3X24.000Y18.900I5.100J0.000
N12670G3X25.929Y19.279I0.000J5.100
N12680G01X26.606Y19.616
N12690X27.232Y20.055
N12700X27.785Y20.582
N12710X28.249Y21.179
N12720G3X29.100Y24.000I-4.249J2.821
N12730G01Z-4.300F30.0
N12740G3X24.000Y29.100I-5.100J0.000F600.0
N12750G3X20.424Y27.636I0.000J-5.100
N12760G01X19.930Y27.073
N12770X19.520Y26.437
N12780X19.209Y25.747
N12790X19.004Y25.027
N12800G3X18.900Y24.000I4.996J-1.027
N12810G3X24.000Y18.900I5.100J0.000
N12820G3X25.929Y19.279I0.000J5.100
N12830G01X26.606Y19.616
N12840X27.232Y20.055
N12850X27.785Y20.582
N12860X28.249Y21.179
N12870G3X29.100Y24.000I-4.249J2.821
N12880G01Z-4.400F30.0
N12890G3X24.000Y29.100I-5.100J0.000F600.0
N12900G3X20.424Y27.636I0.000J-5.100
N12910G01X19.930Y27.073
N12920X19.520Y26.437
N12930X19.209Y25.747
N12940X19.004Y25.027
N12950G3X18.900Y24.000I4.996J-1.027
N12960G3X24.000Y18.900I5.100J0.000
N12970G3X25.929Y19.279I0.000J5.100
N12980G01X26.606Y19.616
N12990X27.232Y20.055
N13000X27.785Y20.582
N13010X28.249Y21.179
N13020G3X29.100Y24.000I-4.249J2.821
N13030G01Z-4.500F30.0
N13040G3X24.000Y29.100I-5.100J0.000F600.0
N13050G3X20.424Y27.636I0.000J-5.100
N13060G01X19.930Y27.073
N13070X19.520Y26.437
N13080X19.209Y25.747
N13090X19.004Y25.027
N13100G3X18.900Y24.000I4.996J-1.027
N13110G3X24.000Y18.900I5.100J0.000
N13120G3X25.929Y19.279I0.000J5.100
N13130G01X26.606Y19.616
N13140X27.232Y20.055
N13150X27.785Y20.582
N13160X28.249Y21.179
N13170G3X29.100Y24.000I-4.249J2.821
N13180G01Z-4.600F30.0
N13190G3X24.000Y29.100I-5.100J0.000F600.0
N13200G3X20.424Y27.636I0.000J-5.100
N13210G01X19.930Y27.073
N13220X19.520Y26.437
N13230X19.209Y25.747
N13240X19.004Y25.027
N13250G3X18.900Y24.000I4.996J-1.027
N13260G3X24.000Y18.900I5.100J0.000
N13270G3X25.929Y19.279I0.000J5.100
N13280G01X26.606Y19.616
N13290X27.232Y20.055
N13300X27.785Y20.582
N13310X28.249Y21.179
N13320G3X29.100Y24.000I-4.249J2.821
N13330G01Z-4.700F30.0
N13340G3X24.000Y29.100I-5.100J0.000F600.0
N13350G3X20.424Y27.636I0.000J-5.100
N13360G01X19.930Y27.073
N13370X19.520Y26.437
N13380X19.209Y25.747
N13390X19.004Y25.027
N13400G3X18.900Y24.000I4.996J-1.027
N13410G3X24.000Y18.900I5.100J0.000
N13420G3X25.929Y19.279I0.000J5.100
N13430G01X26.606Y19.616
N13440X27.232Y20.055
N13450X27.785Y20.582
N13460X28.249Y21.179
N13470G3X29.100Y24.000I-4.249J2.821
N13480G01Z-4.800F30.0
N13490G3X24.000Y29.100I-5.100J0.000F600.0
N13500G3X20.424Y27.636I0.000J-5.100
N13510G01X19.930Y27.073
N13520X19.520Y26.437
N13530X19.209Y25.747
N13540X19.004Y25.027
N13550G3X18.900Y24.000I4.996J-1.027
N13560G3X24.000Y18.900I5.100J0.000
N13570G3X25.929Y19.279I0.000J5.100
N13580G01X26.606Y19.616
N13590X27.232Y20.055
N13600X27.785Y20.582
N13610X28.249Y21.179
N13620G3X29.100Y24.000I-4.249J2.821
N13630G01Z-4.900F30.0
N13640G3X24.000Y29.100I-5.100J0.000F600.0
N13650G3X20.424Y27.636I0.000J-5.100
N13660G01X19.930Y27.073
N13670X19.520Y26.437
N13680X19.209Y25.747
N13690X19.004Y25.027
N13700G3X18.900Y24.000I4.996J-1.027
N13710G3X24.000Y18.900I5.100J0.000
N13720G3X25.929Y19.279I0.000J5.100
N13730G01X26.606Y19.616
N13740X27.232Y20.055
N13750X27.785Y20.582
N13760X28.249Y21.179
N13770G3X29.100Y24.000I-4.249J2.821
N13780G01Z-5.000F30.0
N13790G3X24.000Y29.100I-5.100J0.000F600.0
N13800G3X20.424Y27.636I0.000J-5.100
N13810G01X19.930Y27.073
N13820X19.520Y26.437
N13830X19.209Y25.747
N13840X19.004Y25.027
N13850G3X18.900Y24.000I4.996J-1.027
N13860G3X24.000Y18.900I5.100J0.000
N13870G3X25.929Y19.279I0.000J5.100
N13880G01X26.606Y19.616
N13890X27.232Y20.055
N13900X27.785Y20.582
N13910X28.249Y21.179
N13920G3X29.100Y24.000I-4.249J2.821
N13930G01Z-5.100F30.0
N13940G3X24.000Y29.100I-5.100J0.000F600.0
N13950G3X20.424Y27.636I0.000J-5.100
N13960G01X19.930Y27.073
N13970X19.520Y26.437
N13980X19.209Y25.747
N13990X19.004Y25.027
N14000G3X18.900Y24.000I4.996J-1.027
N14010G3X24.000Y18.900I5.100J0.000
N14020G3X25.929Y19.279I0.000J5.100
N14030G01X26.606Y19.616
N14040X27.232Y20.055
N14050X27.785Y20.582
N14060X28.249Y21.179
N14070G3X29.100Y24.000I-4.249J2.821
N14080G01Z-5.200F30.0
N14090G3X24.000Y29.100I-5.100J0.000F600.0
N14100G3X20.424Y27.636I0.000J-5.100
N14110G01X19.930Y27.073
N14120X19.520Y26.437
N14130X19.209Y25.747
N14140X19.004Y25.027
N14150G3X18.900Y24.000I4.996J-1.027
N14160G3X24.000Y18.900I5.100J0.000
N14170G3X25.929Y19.279I0.000J5.100
N14180G01X26.606Y19.616
N14190X27.232Y20.055
N14200X27.785Y20.582
N14210X28.249Y21.179
N14220G3X29.100Y24.000I-4.249J2.821
N14230G01Z-5.300F30.0
N14240G3X24.000Y29.100I-5.100J0.000F600.0
N14250G3X20.424Y27.636I0.000J-5.100
N14260G01X19.930Y27.073
N14270X19.520Y26.437
N14280X19.209Y25.747
N14290X19.004Y25.027
N14300G3X18.900Y24.000I4.996J-1.027
N14310G3X24.000Y18.900I5.100J0.000
N14320G3X25.929Y19.279I0.000J5.100
N14330G01X26.606Y19.616
N14340X27.232Y20.055
N14350X27.785Y20.582
N14360X28.249Y21.179
N14370G3X29.100Y24.000I-4.249J2.821
N14380G01Z-5.400F30.0
N14390G3X24.000Y29.100I-5.100J0.000F600.0
N14400G3X20.424Y27.636I0.000J-5.100
N14410G01X19.930Y27.073
N14420X19.520Y26.437
N14430X19.209Y25.747
N14440X19.004Y25.027
N14450G3X18.900Y24.000I4.996J-1.027
N14460G3X24.000Y18.900I5.100J0.000
N14470G3X25.929Y19.279I0.000J5.100
N14480G01X26.606Y19.616
N14490X27.232Y20.055
N14500X27.785Y20.582
N14510X28.249Y21.179
N14520G3X29.100Y24.000I-4.249J2.821
N14530G01Z-5.500F30.0
N14540G3X24.000Y29.100I-5.100J0.000F600.0
N14550G3X20.424Y27.636I0.000J-5.100
N14560G01X19.930Y27.073
N14570X19.520Y26.437
N14580X19.209Y25.747
N14590X19.004Y25.027
N14600G3X18.900Y24.000I4.996J-1.027
N14610G3X24.000Y18.900I5.100J0.000
N14620G3X25.929Y19.279I0.000J5.100
N14630G01X26.606Y19.616
N14640X27.232Y20.055
N14650X27.785Y20.582
N14660X28.249Y21.179
N14670G3X29.100Y24.000I-4.249J2.821
N14680G01Z-5.600F30.0
N14690G3X24.000Y29.100I-5.100J0.000F600.0
N14700G3X20.424Y27.636I0.000J-5.100
N14710G01X19.930Y27.073
N14720X19.520Y26.437
N14730X19.209Y25.747
N14740X19.004Y25.027
N14750G3X18.900Y24.000I4.996J-1.027
N14760G3X24.000Y18.900I5.100J0.000
N14770G3X25.929Y19.279I0.000J5.100
N14780G01X26.606Y19.616
N14790X27.232Y20.055
N14800X27.785Y20.582
N14810X28.249Y21.179
N14820G3X29.100Y24.000I-4.249J2.821
N14830G01Z-5.700F30.0
N14840G3X24.000Y29.100I-5.100J0.000F600.0
N14850G3X20.424Y27.636I0.000J-5.100
N14860G01X19.930Y27.073
N14870X19.520Y26.437
N14880X19.209Y25.747
N14890X19.004Y25.027
N14900G3X18.900Y24.000I4.996J-1.027
N14910G3X24.000Y18.900I5.100J0.000
N14920G3X25.929Y19.279I0.000J5.100
N14930G01X26.606Y19.616
N14940X27.232Y20.055
N14950X27.785Y20.582
N14960X28.249Y21.179
N14970G3X29.100Y24.000I-4.249J2.821
N14980G01Z-5.800F30.0
N14990G3X24.000Y29.100I-5.100J0.000F600.0
N15000G3X20.424Y27.636I0.000J-5.100
N15010G01X19.930Y27.073
N15020X19.520Y26.437
N15030X19.209Y25.747
N15040X19.004Y25.027
N15050G3X18.900Y24.000I4.996J-1.027
N15060G3X24.000Y18.900I5.100J0.000
N15070G3X25.929Y19.279I0.000J5.100
N15080G01X26.606Y19.616
N15090X27.232Y20.055
N15100X27.785Y20.582
N15110X28.249Y21.179
N15120G3X29.100Y24.000I-4.249J2.821
N15130G01Z-5.900F30.0
N15140G3X24.000Y29.100I-5.100J0.000F600.0
N15150G3X20.424Y27.636I0.000J-5.100
N15160G01X19.930Y27.073
N15170X19.520Y26.437
N15180X19.209Y25.747
N15190X19.004Y25.027
N15200G3X18.900Y24.000I4.996J-1.027
N15210G3X24.000Y18.900I5.100J0.000
N15220G3X25.929Y19.279I0.000J5.100
N15230G01X26.606Y19.616
N15240X27.232Y20.055
N15250X27.785Y20.582
N15260X28.249Y21.179
N15270G3X29.100Y24.000I-4.249J2.821
N15280G01Z-6.000F30.0
N15290G3X24.000Y29.100I-5.100J0.000F600.0
N15300G3X20.424Y27.636I0.000J-5.100
N15310G01X19.930Y27.073
N15320X19.520Y26.437
N15330X19.209Y25.747
N15340X19.004Y25.027
N15350G3X18.900Y24.000I4.996J-1.027
N15360G3X24.000Y18.900I5.100J0.000
N15370G3X25.929Y19.279I0.000J5.100
N15380G01X26.606Y19.616
N15390X27.232Y20.055
N15400X27.785Y20.582
N15410X28.249Y21.179
N15420G3X29.100Y24.000I-4.249J2.821
N15430G01Z-6.100F30.0
N15440G3X24.000Y29.100I-5.100J0.000F600.0
N15450G3X20.424Y27.636I0.000J-5.100
N15460G01X19.930Y27.073
N15470X19.520Y26.437
N15480X19.209Y25.747
N15490X19.004Y25.027
N15500G3X18.900Y24.000I4.996J-1.027
N15510G3X24.000Y18.900I5.100J0.000
N15520G3X25.929Y19.279I0.000J5.100
N15530G01X26.606Y19.616
N15540X27.232Y20.055
N15550X27.785Y20.582
N15560X28.249Y21.179
N15570G3X29.100Y24.000I-4.249J2.821
N15580G01Z-6.200F30.0
N15590G3X24.000Y29.100I-5.100J0.000F600.0
N15600G3X20.424Y27.636I0.000J-5.100
N15610G01Z-6.100
N15620X19.930Y27.073
N15630X19.520Y26.437
N15640X19.209Y25.747
N15650X19.004Y25.027
N15660G01Z-6.200F30.0
N15670G3X18.900Y24.000I4.996J-1.027F600.0
N15680G3X24.000Y18.900I5.100J0.000
N15690G3X25.929Y19.279I0.000J5.100
N15700G01Z-6.100
N15710X26.606Y19.616
N15720X27.232Y20.055
N15730X27.785Y20.582
N15740X28.249Y21.179
N15750G01Z-6.200F30.0
N15760G3X29.100Y24.000I-4.249J2.821F600.0
N15770G01Z-6.300F30.0
N15780G3X24.000Y29.100I-5.100J0.000F600.0
N15790G3X20.424Y27.636I0.000J-5.100
N15800G01Z-6.100
N15810X19.930Y27.073
N15820X19.520Y26.437
N15830X19.209Y25.747
N15840X19.004Y25.027
N15850G01Z-6.300F30.0
N15860G3X18.900Y24.000I4.996J-1.027F600.0
N15870G3X24.000Y18.900I5.100J0.000
N15880G3X25.929Y19.279I0.000J5.100
N15890G01Z-6.100
N15900X26.606Y19.616
N15910X27.232Y20.055
N15920X27.785Y20.582
N15930X28.249Y21.179
N15940G01Z-6.300F30.0
N15950G3X29.100Y24.000I-4.249J2.821F600.0
N15960G00Z6.000
N15970G00X24.600Y34.000
N15980G01Z-0.100F30.0
N15990G3X24.000Y34.600I-0.600J0.000F600.0
N16000G3X23.400Y34.000I0.000J-0.600
N16010G3X24.000Y33.400I0.600J0.000
N16020G3X24.600Y34.000I0.000J0.600
N16030G01Z-0.200F30.0
N16040G3X24.000Y34.600I-0.600J0.000F600.0
N16050G3X23.400Y34.000I0.000J-0.600
N16060G3X24.000Y33.400I0.600J0.000
N16070G3X24.600Y34.000I0.000J0.600
N16080G01Z-0.300F30.0
N16090G3X24.000Y34.600I-0.600J0.000F600.0
N16100G3X23.400Y34.000I0.000J-0.600
N16110G3X24.000Y33.400I0.600J0.000
N16120G3X24.600Y34.000I0.000J0.600
N16130G01Z-0.400F30.0
N16140G3X24.000Y34.600I-0.600J0.000F600.0
N16150G3X23.400Y34.000I0.000J-0.600
N16160G3X24.000Y33.400I0.600J0.000
N16170G3X24.600Y34.000I0.000J0.600
N16180G01Z-0.500F30.0
N16190G3X24.000Y34.600I-0.600J0.000F600.0
N16200G3X23.400Y34.000I0.000J-0.600
N16210G3X24.000Y33.400I0.600J0.000
N16220G3X24.600Y34.000I0.000J0.600
N16230G01Z-0.600F30.0
N16240G3X24.000Y34.600I-0.600J0.000F600.0
N16250G3X23.400Y34.000I0.000J-0.600
N16260G3X24.000Y33.400I0.600J0.000
N16270G3X24.600Y34.000I0.000J0.600
N16280G01Z-0.700F30.0
N16290G3X24.000Y34.600I-0.600J0.000F600.0
N16300G3X23.400Y34.000I0.000J-0.600
N16310G3X24.000Y33.400I0.600J0.000
N16320G3X24.600Y34.000I0.000J0.600
N16330G01Z-0.800F30.0
N16340G3X24.000Y34.600I-0.600J0.000F600.0
N16350G3X23.400Y34.000I0.000J-0.600
N16360G3X24.000Y33.400I0.600J0.000
N16370G3X24.600Y34.000I0.000J0.600
N16380G01Z-0.900F30.0
N16390G3X24.000Y34.600I-0.600J0.000F600.0
N16400G3X23.400Y34.000I0.000J-0.600
N16410G3X24.000Y33.400I0.600J0.000
N16420G3X24.600Y34.000I0.000J0.600
N16430G01Z-1.000F30.0
N16440G3X24.000Y34.600I-0.600J0.000F600.0
N16450G3X23.400Y34.000I0.000J-0.600
N16460G3X24.000Y33.400I0.600J0.000
N16470G3X24.600Y34.000I0.000J0.600
N16480G01Z-1.100F30.0
N16490G3X24.000Y34.600I-0.600J0.000F600.0
N16500G3X23.400Y34.000I0.000J-0.600
N16510G3X24.000Y33.400I0.600J0.000
N16520G3X24.600Y34.000I0.000J0.600
N16530G01Z-1.200F30.0
N16540G3X24.000Y34.600I-0.600J0.000F600.0
N16550G3X23.400Y34.000I0.000J-0.600
N16560G3X24.000Y33.400I0.600J0.000
N16570G3X24.600Y34.000I0.000J0.600
N16580G01Z-1.300F30.0
N16590G3X24.000Y34.600I-0.600J0.000F600.0
N16600G3X23.400Y34.000I0.000J-0.600
N16610G3X24.000Y33.400I0.600J0.000
N16620G3X24.600Y34.000I0.000J0.600
N16630G01Z-1.400F30.0
N16640G3X24.000Y34.600I-0.600J0.000F600.0
N16650G3X23.400Y34.000I0.000J-0.600
N16660G3X24.000Y33.400I0.600J0.000
N16670G3X24.600Y34.000I0.000J0.600
N16680G01Z-1.500F30.0
N16690G3X24.000Y34.600I-0.600J0.000F600.0
N16700G3X23.400Y34.000I0.000J-0.600
N16710G3X24.000Y33.400I0.600J0.000
N16720G3X24.600Y34.000I0.000J0.600
N16730G01Z-1.600F30.0
N16740G3X24.000Y34.600I-0.600J0.000F600.0
N16750G3X23.400Y34.000I0.000J-0.600
N16760G3X24.000Y33.400I0.600J0.000
N16770G3X24.600Y34.000I0.000J0.600
N16780G01Z-1.700F30.0
N16790G3X24.000Y34.600I-0.600J0.000F600.0
N16800G3X23.400Y34.000I0.000J-0.600
N16810G3X24.000Y33.400I0.600J0.000
N16820G3X24.600Y34.000I0.000J0.600
N16830G01Z-1.800F30.0
N16840G3X24.000Y34.600I-0.600J0.000F600.0
N16850G3X23.400Y34.000I0.000J-0.600
N16860G3X24.000Y33.400I0.600J0.000
N16870G3X24.600Y34.000I0.000J0.600
N16880G01Z-1.900F30.0
N16890G3X24.000Y34.600I-0.600J0.000F600.0
N16900G3X23.400Y34.000I0.000J-0.600
N16910G3X24.000Y33.400I0.600J0.000
N16920G3X24.600Y34.000I0.000J0.600
N16930G01Z-2.000F30.0
N16940G3X24.000Y34.600I-0.600J0.000F600.0
N16950G3X23.400Y34.000I0.000J-0.600
N16960G3X24.000Y33.400I0.600J0.000
N16970G3X24.600Y34.000I0.000J0.600
N16980G01Z-2.100F30.0
N16990G3X24.000Y34.600I-0.600J0.000F600.0
N17000G3X23.400Y34.000I0.000J-0.600
N17010G3X24.000Y33.400I0.600J0.000
N17020G3X24.600Y34.000I0.000J0.600
N17030G01Z-2.200F30.0
N17040G3X24.000Y34.600I-0.600J0.000F600.0
N17050G3X23.400Y34.000I0.000J-0.600
N17060G3X24.000Y33.400I0.600J0.000
N17070G3X24.600Y34.000I0.000J0.600
N17080G01Z-2.300F30.0
N17090G3X24.000Y34.600I-0.600J0.000F600.0
N17100G3X23.400Y34.000I0.000J-0.600
N17110G3X24.000Y33.400I0.600J0.000
N17120G3X24.600Y34.000I0.000J0.600
N17130G01Z-2.400F30.0
N17140G3X24.000Y34.600I-0.600J0.000F600.0
N17150G3X23.400Y34.000I0.000J-0.600
N17160G3X24.000Y33.400I0.600J0.000
N17170G3X24.600Y34.000I0.000J0.600
N17180G01Z-2.500F30.0
N17190G3X24.000Y34.600I-0.600J0.000F600.0
N17200G3X23.400Y34.000I0.000J-0.600
N17210G3X24.000Y33.400I0.600J0.000
N17220G3X24.600Y34.000I0.000J0.600
N17230G01Z-2.600F30.0
N17240G3X24.000Y34.600I-0.600J0.000F600.0
N17250G3X23.400Y34.000I0.000J-0.600
N17260G3X24.000Y33.400I0.600J0.000
N17270G3X24.600Y34.000I0.000J0.600
N17280G01Z-2.700F30.0
N17290G3X24.000Y34.600I-0.600J0.000F600.0
N17300G3X23.400Y34.000I0.000J-0.600
N17310G3X24.000Y33.400I0.600J0.000
N17320G3X24.600Y34.000I0.000J0.600
N17330G01Z-2.800F30.0
N17340G3X24.000Y34.600I-0.600J0.000F600.0
N17350G3X23.400Y34.000I0.000J-0.600
N17360G3X24.000Y33.400I0.600J0.000
N17370G3X24.600Y34.000I0.000J0.600
N17380G01Z-2.900F30.0
N17390G3X24.000Y34.600I-0.600J0.000F600.0
N17400G3X23.400Y34.000I0.000J-0.600
N17410G3X24.000Y33.400I0.600J0.000
N17420G3X24.600Y34.000I0.000J0.600
N17430G01Z-3.000F30.0
N17440G3X24.000Y34.600I-0.600J0.000F600.0
N17450G3X23.400Y34.000I0.000J-0.600
N17460G3X24.000Y33.400I0.600J0.000
N17470G3X24.600Y34.000I0.000J0.600
N17480G01Z-3.100F30.0
N17490G3X24.000Y34.600I-0.600J0.000F600.0
N17500G3X23.400Y34.000I0.000J-0.600
N17510G3X24.000Y33.400I0.600J0.000
N17520G3X24.600Y34.000I0.000J0.600
N17530G01Z-3.200F30.0
N17540G3X24.000Y34.600I-0.600J0.000F600.0
N17550G3X23.400Y34.000I0.000J-0.600
N17560G3X24.000Y33.400I0.600J0.000
N17570G3X24.600Y34.000I0.000J0.600
N17580G01Z-3.300F30.0
N17590G3X24.000Y34.600I-0.600J0.000F600.0
N17600G3X23.400Y34.000I0.000J-0.600
N17610G3X24.000Y33.400I0.600J0.000
N17620G3X24.600Y34.000I0.000J0.600
N17630G01Z-3.400F30.0
N17640G3X24.000Y34.600I-0.600J0.000F600.0
N17650G3X23.400Y34.000I0.000J-0.600
N17660G3X24.000Y33.400I0.600J0.000
N17670G3X24.600Y34.000I0.000J0.600
N17680G01Z-3.500F30.0
N17690G3X24.000Y34.600I-0.600J0.000F600.0
N17700G3X23.400Y34.000I0.000J-0.600
N17710G3X24.000Y33.400I0.600J0.000
N17720G3X24.600Y34.000I0.000J0.600
N17730G01Z-3.600F30.0
N17740G3X24.000Y34.600I-0.600J0.000F600.0
N17750G3X23.400Y34.000I0.000J-0.600
N17760G3X24.000Y33.400I0.600J0.000
N17770G3X24.600Y34.000I0.000J0.600
N17780G01Z-3.700F30.0
N17790G3X24.000Y34.600I-0.600J0.000F600.0
N17800G3X23.400Y34.000I0.000J-0.600
N17810G3X24.000Y33.400I0.600J0.000
N17820G3X24.600Y34.000I0.000J0.600
N17830G01Z-3.800F30.0
N17840G3X24.000Y34.600I-0.600J0.000F600.0
N17850G3X23.400Y34.000I0.000J-0.600
N17860G3X24.000Y33.400I0.600J0.000
N17870G3X24.600Y34.000I0.000J0.600
N17880G01Z-3.900F30.0
N17890G3X24.000Y34.600I-0.600J0.000F600.0
N17900G3X23.400Y34.000I0.000J-0.600
N17910G3X24.000Y33.400I0.600J0.000
N17920G3X24.600Y34.000I0.000J0.600
N17930G01Z-4.000F30.0
N17940G3X24.000Y34.600I-0.600J0.000F600.0
N17950G3X23.400Y34.000I0.000J-0.600
N17960G3X24.000Y33.400I0.600J0.000
N17970G3X24.600Y34.000I0.000J0.600
N17980G01Z-4.100F30.0
N17990G3X24.000Y34.600I-0.600J0.000F600.0
N18000G3X23.400Y34.000I0.000J-0.600
N18010G3X24.000Y33.400I0.600J0.000
N18020G3X24.600Y34.000I0.000J0.600
N18030G01Z-4.200F30.0
N18040G3X24.000Y34.600I-0.600J0.000F600.0
N18050G3X23.400Y34.000I0.000J-0.600
N18060G3X24.000Y33.400I0.600J0.000
N18070G3X24.600Y34.000I0.000J0.600
N18080G01Z-4.300F30.0
N18090G3X24.000Y34.600I-0.600J0.000F600.0
N18100G3X23.400Y34.000I0.000J-0.600
N18110G3X24.000Y33.400I0.600J0.000
N18120G3X24.600Y34.000I0.000J0.600
N18130G01Z-4.400F30.0
N18140G3X24.000Y34.600I-0.600J0.000F600.0
N18150G3X23.400Y34.000I0.000J-0.600
N18160G3X24.000Y33.400I0.600J0.000
N18170G3X24.600Y34.000I0.000J0.600
N18180G01Z-4.500F30.0
N18190G3X24.000Y34.600I-0.600J0.000F600.0
N18200G3X23.400Y34.000I0.000J-0.600
N18210G3X24.000Y33.400I0.600J0.000
N18220G3X24.600Y34.000I0.000J0.600
N18230G01Z-4.600F30.0
N18240G3X24.000Y34.600I-0.600J0.000F600.0
N18250G3X23.400Y34.000I0.000J-0.600
N18260G3X24.000Y33.400I0.600J0.000
N18270G3X24.600Y34.000I0.000J0.600
N18280G01Z-4.700F30.0
N18290G3X24.000Y34.600I-0.600J0.000F600.0
N18300G3X23.400Y34.000I0.000J-0.600
N18310G3X24.000Y33.400I0.600J0.000
N18320G3X24.600Y34.000I0.000J0.600
N18330G01Z-4.800F30.0
N18340G3X24.000Y34.600I-0.600J0.000F600.0
N18350G3X23.400Y34.000I0.000J-0.600
N18360G3X24.000Y33.400I0.600J0.000
N18370G3X24.600Y34.000I0.000J0.600
N18380G01Z-4.900F30.0
N18390G3X24.000Y34.600I-0.600J0.000F600.0
N18400G3X23.400Y34.000I0.000J-0.600
N18410G3X24.000Y33.400I0.600J0.000
N18420G3X24.600Y34.000I0.000J0.600
N18430G01Z-5.000F30.0
N18440G3X24.000Y34.600I-0.600J0.000F600.0
N18450G3X23.400Y34.000I0.000J-0.600
N18460G3X24.000Y33.400I0.600J0.000
N18470G3X24.600Y34.000I0.000J0.600
N18480G01Z-5.100F30.0
N18490G3X24.000Y34.600I-0.600J0.000F600.0
N18500G3X23.400Y34.000I0.000J-0.600
N18510G3X24.000Y33.400I0.600J0.000
N18520G3X24.600Y34.000I0.000J0.600
N18530G01Z-5.200F30.0
N18540G3X24.000Y34.600I-0.600J0.000F600.0
N18550G3X23.400Y34.000I0.000J-0.600
N18560G3X24.000Y33.400I0.600J0.000
N18570G3X24.600Y34.000I0.000J0.600
N18580G01Z-5.300F30.0
N18590G3X24.000Y34.600I-0.600J0.000F600.0
N18600G3X23.400Y34.000I0.000J-0.600
N18610G3X24.000Y33.400I0.600J0.000
N18620G3X24.600Y34.000I0.000J0.600
N18630G01Z-5.400F30.0
N18640G3X24.000Y34.600I-0.600J0.000F600.0
N18650G3X23.400Y34.000I0.000J-0.600
N18660G3X24.000Y33.400I0.600J0.000
N18670G3X24.600Y34.000I0.000J0.600
N18680G01Z-5.500F30.0
N18690G3X24.000Y34.600I-0.600J0.000F600.0
N18700G3X23.400Y34.000I0.000J-0.600
N18710G3X24.000Y33.400I0.600J0.000
N18720G3X24.600Y34.000I0.000J0.600
N18730G01Z-5.600F30.0
N18740G3X24.000Y34.600I-0.600J0.000F600.0
N18750G3X23.400Y34.000I0.000J-0.600
N18760G3X24.000Y33.400I0.600J0.000
N18770G3X24.600Y34.000I0.000J0.600
N18780G01Z-5.700F30.0
N18790G3X24.000Y34.600I-0.600J0.000F600.0
N18800G3X23.400Y34.000I0.000J-0.600
N18810G3X24.000Y33.400I0.600J0.000
N18820G3X24.600Y34.000I0.000J0.600
N18830G01Z-5.800F30.0
N18840G3X24.000Y34.600I-0.600J0.000F600.0
N18850G3X23.400Y34.000I0.000J-0.600
N18860G3X24.000Y33.400I0.600J0.000
N18870G3X24.600Y34.000I0.000J0.600
N18880G01Z-5.900F30.0
N18890G3X24.000Y34.600I-0.600J0.000F600.0
N18900G3X23.400Y34.000I0.000J-0.600
N18910G3X24.000Y33.400I0.600J0.000
N18920G3X24.600Y34.000I0.000J0.600
N18930G01Z-6.000F30.0
N18940G3X24.000Y34.600I-0.600J0.000F600.0
N18950G3X23.400Y34.000I0.000J-0.600
N18960G3X24.000Y33.400I0.600J0.000
N18970G3X24.600Y34.000I0.000J0.600
N18980G01Z-6.100F30.0
N18990G3X24.000Y34.600I-0.600J0.000F600.0
N19000G3X23.400Y34.000I0.000J-0.600
N19010G3X24.000Y33.400I0.600J0.000
N19020G3X24.600Y34.000I0.000J0.600
N19030G01Z-6.200F30.0
N19040G3X24.000Y34.600I-0.600J0.000F600.0
N19050G3X23.400Y34.000I0.000J-0.600
N19060G3X24.000Y33.400I0.600J0.000
N19070G3X24.600Y34.000I0.000J0.600
N19080G01Z-6.300F30.0
N19090G3X24.000Y34.600I-0.600J0.000F600.0
N19100G3X23.400Y34.000I0.000J-0.600
N19110G3X24.000Y33.400I0.600J0.000
N19120G3X24.600Y34.000I0.000J0.600
N19130G00Z6.000
N19140G00X55.100Y36.000
N19150G01Z-0.100F30.0
N19160G3X54.500Y36.600I-0.600J0.000F600.0
N19170G3X53.900Y36.000I0.000J-0.600
N19180G3X54.500Y35.400I0.600J0.000
N19190G3X55.100Y36.000I0.000J0.600
N19200G01Z-0.200F30.0
N19210G3X54.500Y36.600I-0.600J0.000F600.0
N19220G3X53.900Y36.000I0.000J-0.600
N19230G3X54.500Y35.400I0.600J0.000
N19240G3X55.100Y36.000I0.000J0.600
N19250G01Z-0.300F30.0
N19260G3X54.500Y36.600I-0.600J0.000F600.0
N19270G3X53.900Y36.000I0.000J-0.600
N19280G3X54.500Y35.400I0.600J0.000
N19290G3X55.100Y36.000I0.000J0.600
N19300G01Z-0.400F30.0
N19310G3X54.500Y36.600I-0.600J0.000F600.0
N19320G3X53.900Y36.000I0.000J-0.600
N19330G3X54.500Y35.400I0.600J0.000
N19340G3X55.100Y36.000I0.000J0.600
N19350G01Z-0.500F30.0
N19360G3X54.500Y36.600I-0.600J0.000F600.0
N19370G3X53.900Y36.000I0.000J-0.600
N19380G3X54.500Y35.400I0.600J0.000
N19390G3X55.100Y36.000I0.000J0.600
N19400G01Z-0.600F30.0
N19410G3X54.500Y36.600I-0.600J0.000F600.0
N19420G3X53.900Y36.000I0.000J-0.600
N19430G3X54.500Y35.400I0.600J0.000
N19440G3X55.100Y36.000I0.000J0.600
N19450G01Z-0.700F30.0
N19460G3X54.500Y36.600I-0.600J0.000F600.0
N19470G3X53.900Y36.000I0.000J-0.600
N19480G3X54.500Y35.400I0.600J0.000
N19490G3X55.100Y36.000I0.000J0.600
N19500G01Z-0.800F30.0
N19510G3X54.500Y36.600I-0.600J0.000F600.0
N19520G3X53.900Y36.000I0.000J-0.600
N19530G3X54.500Y35.400I0.600J0.000
N19540G3X55.100Y36.000I0.000J0.600
N19550G01Z-0.900F30.0
N19560G3X54.500Y36.600I-0.600J0.000F600.0
N19570G3X53.900Y36.000I0.000J-0.600
N19580G3X54.500Y35.400I0.600J0.000
N19590G3X55.100Y36.000I0.000J0.600
N19600G01Z-1.000F30.0
N19610G3X54.500Y36.600I-0.600J0.000F600.0
N19620G3X53.900Y36.000I0.000J-0.600
N19630G3X54.500Y35.400I0.600J0.000
N19640G3X55.100Y36.000I0.000J0.600
N19650G01Z-1.100F30.0
N19660G3X54.500Y36.600I-0.600J0.000F600.0
N19670G3X53.900Y36.000I0.000J-0.600
N19680G3X54.500Y35.400I0.600J0.000
N19690G3X55.100Y36.000I0.000J0.600
N19700G01Z-1.200F30.0
N19710G3X54.500Y36.600I-0.600J0.000F600.0
N19720G3X53.900Y36.000I0.000J-0.600
N19730G3X54.500Y35.400I0.600J0.000
N19740G3X55.100Y36.000I0.000J0.600
N19750G01Z-1.300F30.0
N19760G3X54.500Y36.600I-0.600J0.000F600.0
N19770G3X53.900Y36.000I0.000J-0.600
N19780G3X54.500Y35.400I0.600J0.000
N19790G3X55.100Y36.000I0.000J0.600
N19800G01Z-1.400F30.0
N19810G3X54.500Y36.600I-0.600J0.000F600.0
N19820G3X53.900Y36.000I0.000J-0.600
N19830G3X54.500Y35.400I0.600J0.000
N19840G3X55.100Y36.000I0.000J0.600
N19850G01Z-1.500F30.0
N19860G3X54.500Y36.600I-0.600J0.000F600.0
N19870G3X53.900Y36.000I0.000J-0.600
N19880G3X54.500Y35.400I0.600J0.000
N19890G3X55.100Y36.000I0.000J0.600
N19900G01Z-1.600F30.0
N19910G3X54.500Y36.600I-0.600J0.000F600.0
N19920G3X53.900Y36.000I0.000J-0.600
N19930G3X54.500Y35.400I0.600J0.000
N19940G3X55.100Y36.000I0.000J0.600
N19950G01Z-1.700F30.0
N19960G3X54.500Y36.600I-0.600J0.000F600.0
N19970G3X53.900Y36.000I0.000J-0.600
N19980G3X54.500Y35.400I0.600J0.000
N19990G3X55.100Y36.000I0.000J0.600
N20000G01Z-1.800F30.0
N20010G3X54.500Y36.600I-0.600J0.000F600.0
N20020G3X53.900Y36.000I0.000J-0.600
N20030G3X54.500Y35.400I0.600J0.000
N20040G3X55.100Y36.000I0.000J0.600
N20050G01Z-1.900F30.0
N20060G3X54.500Y36.600I-0.600J0.000F600.0
N20070G3X53.900Y36.000I0.000J-0.600
N20080G3X54.500Y35.400I0.600J0.000
N20090G3X55.100Y36.000I0.000J0.600
N20100G01Z-2.000F30.0
N20110G3X54.500Y36.600I-0.600J0.000F600.0
N20120G3X53.900Y36.000I0.000J-0.600
N20130G3X54.500Y35.400I0.600J0.000
N20140G3X55.100Y36.000I0.000J0.600
N20150G01Z-2.100F30.0
N20160G3X54.500Y36.600I-0.600J0.000F600.0
N20170G3X53.900Y36.000I0.000J-0.600
N20180G3X54.500Y35.400I0.600J0.000
N20190G3X55.100Y36.000I0.000J0.600
N20200G01Z-2.200F30.0
N20210G3X54.500Y36.600I-0.600J0.000F600.0
N20220G3X53.900Y36.000I0.000J-0.600
N20230G3X54.500Y35.400I0.600J0.000
N20240G3X55.100Y36.000I0.000J0.600
N20250G01Z-2.300F30.0
N20260G3X54.500Y36.600I-0.600J0.000F600.0
N20270G3X53.900Y36.000I0.000J-0.600
N20280G3X54.500Y35.400I0.600J0.000
N20290G3X55.100Y36.000I0.000J0.600
N20300G01Z-2.400F30.0
N20310G3X54.500Y36.600I-0.600J0.000F600.0
N20320G3X53.900Y36.000I0.000J-0.600
N20330G3X54.500Y35.400I0.600J0.000
N20340G3X55.100Y36.000I0.000J0.600
N20350G01Z-2.500F30.0
N20360G3X54.500Y36.600I-0.600J0.000F600.0
N20370G3X53.900Y36.000I0.000J-0.600
N20380G3X54.500Y35.400I0.600J0.000
N20390G3X55.100Y36.000I0.000J0.600
N20400G01Z-2.600F30.0
N20410G3X54.500Y36.600I-0.600J0.000F600.0
N20420G3X53.900Y36.000I0.000J-0.600
N20430G3X54.500Y35.400I0.600J0.000
N20440G3X55.100Y36.000I0.000J0.600
N20450G01Z-2.700F30.0
N20460G3X54.500Y36.600I-0.600J0.000F600.0
N20470G3X53.900Y36.000I0.000J-0.600
N20480G3X54.500Y35.400I0.600J0.000
N20490G3X55.100Y36.000I0.000J0.600
N20500G01Z-2.800F30.0
N20510G3X54.500Y36.600I-0.600J0.000F600.0
N20520G3X53.900Y36.000I0.000J-0.600
N20530G3X54.500Y35.400I0.600J0.000
N20540G3X55.100Y36.000I0.000J0.600
N20550G01Z-2.900F30.0
N20560G3X54.500Y36.600I-0.600J0.000F600.0
N20570G3X53.900Y36.000I0.000J-0.600
N20580G3X54.500Y35.400I0.600J0.000
N20590G3X55.100Y36.000I0.000J0.600
N20600G01Z-3.000F30.0
N20610G3X54.500Y36.600I-0.600J0.000F600.0
N20620G3X53.900Y36.000I0.000J-0.600
N20630G3X54.500Y35.400I0.600J0.000
N20640G3X55.100Y36.000I0.000J0.600
N20650G01Z-3.100F30.0
N20660G3X54.500Y36.600I-0.600J0.000F600.0
N20670G3X53.900Y36.000I0.000J-0.600
N20680G3X54.500Y35.400I0.600J0.000
N20690G3X55.100Y36.000I0.000J0.600
N20700G01Z-3.200F30.0
N20710G3X54.500Y36.600I-0.600J0.000F600.0
N20720G3X53.900Y36.000I0.000J-0.600
N20730G3X54.500Y35.400I0.600J0.000
N20740G3X55.100Y36.000I0.000J0.600
N20750G01Z-3.300F30.0
N20760G3X54.500Y36.600I-0.600J0.000F600.0
N20770G3X53.900Y36.000I0.000J-0.600
N20780G3X54.500Y35.400I0.600J0.000
N20790G3X55.100Y36.000I0.000J0.600
N20800G01Z-3.400F30.0
N20810G3X54.500Y36.600I-0.600J0.000F600.0
N20820G3X53.900Y36.000I0.000J-0.600
N20830G3X54.500Y35.400I0.600J0.000
N20840G3X55.100Y36.000I0.000J0.600
N20850G01Z-3.500F30.0
N20860G3X54.500Y36.600I-0.600J0.000F600.0
N20870G3X53.900Y36.000I0.000J-0.600
N20880G3X54.500Y35.400I0.600J0.000
N20890G3X55.100Y36.000I0.000J0.600
N20900G01Z-3.600F30.0
N20910G3X54.500Y36.600I-0.600J0.000F600.0
N20920G3X53.900Y36.000I0.000J-0.600
N20930G3X54.500Y35.400I0.600J0.000
N20940G3X55.100Y36.000I0.000J0.600
N20950G01Z-3.700F30.0
N20960G3X54.500Y36.600I-0.600J0.000F600.0
N20970G3X53.900Y36.000I0.000J-0.600
N20980G3X54.500Y35.400I0.600J0.000
N20990G3X55.100Y36.000I0.000J0.600
N21000G01Z-3.800F30.0
N21010G3X54.500Y36.600I-0.600J0.000F600.0
N21020G3X53.900Y36.000I0.000J-0.600
N21030G3X54.500Y35.400I0.600J0.000
N21040G3X55.100Y36.000I0.000J0.600
N21050G01Z-3.900F30.0
N21060G3X54.500Y36.600I-0.600J0.000F600.0
N21070G3X53.900Y36.000I0.000J-0.600
N21080G3X54.500Y35.400I0.600J0.000
N21090G3X55.100Y36.000I0.000J0.600
N21100G01Z-4.000F30.0
N21110G3X54.500Y36.600I-0.600J0.000F600.0
N21120G3X53.900Y36.000I0.000J-0.600
N21130G3X54.500Y35.400I0.600J0.000
N21140G3X55.100Y36.000I0.000J0.600
N21150G01Z-4.100F30.0
N21160G3X54.500Y36.600I-0.600J0.000F600.0
N21170G3X53.900Y36.000I0.000J-0.600
N21180G3X54.500Y35.400I0.600J0.000
N21190G3X55.100Y36.000I0.000J0.600
N21200G01Z-4.200F30.0
N21210G3X54.500Y36.600I-0.600J0.000F600.0
N21220G3X53.900Y36.000I0.000J-0.600
N21230G3X54.500Y35.400I0.600J0.000
N21240G3X55.100Y36.000I0.000J0.600
N21250G01Z-4.300F30.0
N21260G3X54.500Y36.600I-0.600J0.000F600.0
N21270G3X53.900Y36.000I0.000J-0.600
N21280G3X54.500Y35.400I0.600J0.000
N21290G3X55.100Y36.000I0.000J0.600
N21300G01Z-4.400F30.0
N21310G3X54.500Y36.600I-0.600J0.000F600.0
N21320G3X53.900Y36.000I0.000J-0.600
N21330G3X54.500Y35.400I0.600J0.000
N21340G3X55.100Y36.000I0.000J0.600
N21350G01Z-4.500F30.0
N21360G3X54.500Y36.600I-0.600J0.000F600.0
N21370G3X53.900Y36.000I0.000J-0.600
N21380G3X54.500Y35.400I0.600J0.000
N21390G3X55.100Y36.000I0.000J0.600
N21400G01Z-4.600F30.0
N21410G3X54.500Y36.600I-0.600J0.000F600.0
N21420G3X53.900Y36.000I0.000J-0.600
N21430G3X54.500Y35.400I0.600J0.000
N21440G3X55.100Y36.000I0.000J0.600
N21450G01Z-4.700F30.0
N21460G3X54.500Y36.600I-0.600J0.000F600.0
N21470G3X53.900Y36.000I0.000J-0.600
N21480G3X54.500Y35.400I0.600J0.000
N21490G3X55.100Y36.000I0.000J0.600
N21500G01Z-4.800F30.0
N21510G3X54.500Y36.600I-0.600J0.000F600.0
N21520G3X53.900Y36.000I0.000J-0.600
N21530G3X54.500Y35.400I0.600J0.000
N21540G3X55.100Y36.000I0.000J0.600
N21550G01Z-4.900F30.0
N21560G3X54.500Y36.600I-0.600J0.000F600.0
N21570G3X53.900Y36.000I0.000J-0.600
N21580G3X54.500Y35.400I0.600J0.000
N21590G3X55.100Y36.000I0.000J0.600
N21600G01Z-5.000F30.0
N21610G3X54.500Y36.600I-0.600J0.000F600.0
N21620G3X53.900Y36.000I0.000J-0.600
N21630G3X54.500Y35.400I0.600J0.000
N21640G3X55.100Y36.000I0.000J0.600
N21650G01Z-5.100F30.0
N21660G3X54.500Y36.600I-0.600J0.000F600.0
N21670G3X53.900Y36.000I0.000J-0.600
N21680G3X54.500Y35.400I0.600J0.000
N21690G3X55.100Y36.000I0.000J0.600
N21700G01Z-5.200F30.0
N21710G3X54.500Y36.600I-0.600J0.000F600.0
N21720G3X53.900Y36.000I0.000J-0.600
N21730G3X54.500Y35.400I0.600J0.000
N21740G3X55.100Y36.000I0.000J0.600
N21750G01Z-5.300F30.0
N21760G3X54.500Y36.600I-0.600J0.000F600.0
N21770G3X53.900Y36.000I0.000J-0.600
N21780G3X54.500Y35.400I0.600J0.000
N21790G3X55.100Y36.000I0.000J0.600
N21800G01Z-5.400F30.0
N21810G3X54.500Y36.600I-0.600J0.000F600.0
N21820G3X53.900Y36.000I0.000J-0.600
N21830G3X54.500Y35.400I0.600J0.000
N21840G3X55.100Y36.000I0.000J0.600
N21850G01Z-5.500F30.0
N21860G3X54.500Y36.600I-0.600J0.000F600.0
N21870G3X53.900Y36.000I0.000J-0.600
N21880G3X54.500Y35.400I0.600J0.000
N21890G3X55.100Y36.000I0.000J0.600
N21900G01Z-5.600F30.0
N21910G3X54.500Y36.600I-0.600J0.000F600.0
N21920G3X53.900Y36.000I0.000J-0.600
N21930G3X54.500Y35.400I0.600J0.000
N21940G3X55.100Y36.000I0.000J0.600
N21950G01Z-5.700F30.0
N21960G3X54.500Y36.600I-0.600J0.000F600.0
N21970G3X53.900Y36.000I0.000J-0.600
N21980G3X54.500Y35.400I0.600J0.000
N21990G3X55.100Y36.000I0.000J0.600
N22000G01Z-5.800F30.0
N22010G3X54.500Y36.600I-0.600J0.000F600.0
N22020G3X53.900Y36.000I0.000J-0.600
N22030G3X54.500Y35.400I0.600J0.000
N22040G3X55.100Y36.000I0.000J0.600
N22050G01Z-5.900F30.0
N22060G3X54.500Y36.600I-0.600J0.000F600.0
N22070G3X53.900Y36.000I0.000J-0.600
N22080G3X54.500Y35.400I0.600J0.000
N22090G3X55.100Y36.000I0.000J0.600
N22100G01Z-6.000F30.0
N22110G3X54.500Y36.600I-0.600J0.000F600.0
N22120G3X53.900Y36.000I0.000J-0.600
N22130G3X54.500Y35.400I0.600J0.000
N22140G3X55.100Y36.000I0.000J0.600
N22150G01Z-6.100F30.0
N22160G3X54.500Y36.600I-0.600J0.000F600.0
N22170G3X53.900Y36.000I0.000J-0.600
N22180G3X54.500Y35.400I0.600J0.000
N22190G3X55.100Y36.000I0.000J0.600
N22200G01Z-6.200F30.0
N22210G3X54.500Y36.600I-0.600J0.000F600.0
N22220G3X53.900Y36.000I0.000J-0.600
N22230G3X54.500Y35.400I0.600J0.000
N22240G3X55.100Y36.000I0.000J0.600
N22250G01Z-6.300F30.0
N22260G3X54.500Y36.600I-0.600J0.000F600.0
N22270G3X53.900Y36.000I0.000J-0.600
N22280G3X54.500Y35.400I0.600J0.000
N22290G3X55.100Y36.000I0.000J0.600
N22300G00Z6.000
N22310G00Y26.000
N22320G01Z-0.100F30.0
N22330G3X54.500Y26.600I-0.600J0.000F600.0
N22340G3X53.900Y26.000I0.000J-0.600
N22350G3X54.500Y25.400I0.600J0.000
N22360G3X55.100Y26.000I0.000J0.600
N22370G01Z-0.200F30.0
N22380G3X54.500Y26.600I-0.600J0.000F600.0
N22390G3X53.900Y26.000I0.000J-0.600
N22400G3X54.500Y25.400I0.600J0.000
N22410G3X55.100Y26.000I0.000J0.600
N22420G01Z-0.300F30.0
N22430G3X54.500Y26.600I-0.600J0.000F600.0
N22440G3X53.900Y26.000I0.000J-0.600
N22450G3X54.500Y25.400I0.600J0.000
N22460G3X55.100Y26.000I0.000J0.600
N22470G01Z-0.400F30.0
N22480G3X54.500Y26.600I-0.600J0.000F600.0
N22490G3X53.900Y26.000I0.000J-0.600
N22500G3X54.500Y25.400I0.600J0.000
N22510G3X55.100Y26.000I0.000J0.600
N22520G01Z-0.500F30.0
N22530G3X54.500Y26.600I-0.600J0.000F600.0
N22540G3X53.900Y26.000I0.000J-0.600
N22550G3X54.500Y25.400I0.600J0.000
N22560G3X55.100Y26.000I0.000J0.600
N22570G01Z-0.600F30.0
N22580G3X54.500Y26.600I-0.600J0.000F600.0
N22590G3X53.900Y26.000I0.000J-0.600
N22600G3X54.500Y25.400I0.600J0.000
N22610G3X55.100Y26.000I0.000J0.600
N22620G01Z-0.700F30.0
N22630G3X54.500Y26.600I-0.600J0.000F600.0
N22640G3X53.900Y26.000I0.000J-0.600
N22650G3X54.500Y25.400I0.600J0.000
N22660G3X55.100Y26.000I0.000J0.600
N22670G01Z-0.800F30.0
N22680G3X54.500Y26.600I-0.600J0.000F600.0
N22690G3X53.900Y26.000I0.000J-0.600
N22700G3X54.500Y25.400I0.600J0.000
N22710G3X55.100Y26.000I0.000J0.600
N22720G01Z-0.900F30.0
N22730G3X54.500Y26.600I-0.600J0.000F600.0
N22740G3X53.900Y26.000I0.000J-0.600
N22750G3X54.500Y25.400I0.600J0.000
N22760G3X55.100Y26.000I0.000J0.600
N22770G01Z-1.000F30.0
N22780G3X54.500Y26.600I-0.600J0.000F600.0
N22790G3X53.900Y26.000I0.000J-0.600
N22800G3X54.500Y25.400I0.600J0.000
N22810G3X55.100Y26.000I0.000J0.600
N22820G01Z-1.100F30.0
N22830G3X54.500Y26.600I-0.600J0.000F600.0
N22840G3X53.900Y26.000I0.000J-0.600
N22850G3X54.500Y25.400I0.600J0.000
N22860G3X55.100Y26.000I0.000J0.600
N22870G01Z-1.200F30.0
N22880G3X54.500Y26.600I-0.600J0.000F600.0
N22890G3X53.900Y26.000I0.000J-0.600
N22900G3X54.500Y25.400I0.600J0.000
N22910G3X55.100Y26.000I0.000J0.600
N22920G01Z-1.300F30.0
N22930G3X54.500Y26.600I-0.600J0.000F600.0
N22940G3X53.900Y26.000I0.000J-0.600
N22950G3X54.500Y25.400I0.600J0.000
N22960G3X55.100Y26.000I0.000J0.600
N22970G01Z-1.400F30.0
N22980G3X54.500Y26.600I-0.600J0.000F600.0
N22990G3X53.900Y26.000I0.000J-0.600
N23000G3X54.500Y25.400I0.600J0.000
N23010G3X55.100Y26.000I0.000J0.600
N23020G01Z-1.500F30.0
N23030G3X54.500Y26.600I-0.600J0.000F600.0
N23040G3X53.900Y26.000I0.000J-0.600
N23050G3X54.500Y25.400I0.600J0.000
N23060G3X55.100Y26.000I0.000J0.600
N23070G01Z-1.600F30.0
N23080G3X54.500Y26.600I-0.600J0.000F600.0
N23090G3X53.900Y26.000I0.000J-0.600
N23100G3X54.500Y25.400I0.600J0.000
N23110G3X55.100Y26.000I0.000J0.600
N23120G01Z-1.700F30.0
N23130G3X54.500Y26.600I-0.600J0.000F600.0
N23140G3X53.900Y26.000I0.000J-0.600
N23150G3X54.500Y25.400I0.600J0.000
N23160G3X55.100Y26.000I0.000J0.600
N23170G01Z-1.800F30.0
N23180G3X54.500Y26.600I-0.600J0.000F600.0
N23190G3X53.900Y26.000I0.000J-0.600
N23200G3X54.500Y25.400I0.600J0.000
N23210G3X55.100Y26.000I0.000J0.600
N23220G01Z-1.900F30.0
N23230G3X54.500Y26.600I-0.600J0.000F600.0
N23240G3X53.900Y26.000I0.000J-0.600
N23250G3X54.500Y25.400I0.600J0.000
N23260G3X55.100Y26.000I0.000J0.600
N23270G01Z-2.000F30.0
N23280G3X54.500Y26.600I-0.600J0.000F600.0
N23290G3X53.900Y26.000I0.000J-0.600
N23300G3X54.500Y25.400I0.600J0.000
N23310G3X55.100Y26.000I0.000J0.600
N23320G01Z-2.100F30.0
N23330G3X54.500Y26.600I-0.600J0.000F600.0
N23340G3X53.900Y26.000I0.000J-0.600
N23350G3X54.500Y25.400I0.600J0.000
N23360G3X55.100Y26.000I0.000J0.600
N23370G01Z-2.200F30.0
N23380G3X54.500Y26.600I-0.600J0.000F600.0
N23390G3X53.900Y26.000I0.000J-0.600
N23400G3X54.500Y25.400I0.600J0.000
N23410G3X55.100Y26.000I0.000J0.600
N23420G01Z-2.300F30.0
N23430G3X54.500Y26.600I-0.600J0.000F600.0
N23440G3X53.900Y26.000I0.000J-0.600
N23450G3X54.500Y25.400I0.600J0.000
N23460G3X55.100Y26.000I0.000J0.600
N23470G01Z-2.400F30.0
N23480G3X54.500Y26.600I-0.600J0.000F600.0
N23490G3X53.900Y26.000I0.000J-0.600
N23500G3X54.500Y25.400I0.600J0.000
N23510G3X55.100Y26.000I0.000J0.600
N23520G01Z-2.500F30.0
N23530G3X54.500Y26.600I-0.600J0.000F600.0
N23540G3X53.900Y26.000I0.000J-0.600
N23550G3X54.500Y25.400I0.600J0.000
N23560G3X55.100Y26.000I0.000J0.600
N23570G01Z-2.600F30.0
N23580G3X54.500Y26.600I-0.600J0.000F600.0
N23590G3X53.900Y26.000I0.000J-0.600
N23600G3X54.500Y25.400I0.600J0.000
N23610G3X55.100Y26.000I0.000J0.600
N23620G01Z-2.700F30.0
N23630G3X54.500Y26.600I-0.600J0.000F600.0
N23640G3X53.900Y26.000I0.000J-0.600
N23650G3X54.500Y25.400I0.600J0.000
N23660G3X55.100Y26.000I0.000J0.600
N23670G01Z-2.800F30.0
N23680G3X54.500Y26.600I-0.600J0.000F600.0
N23690G3X53.900Y26.000I0.000J-0.600
N23700G3X54.500Y25.400I0.600J0.000
N23710G3X55.100Y26.000I0.000J0.600
N23720G01Z-2.900F30.0
N23730G3X54.500Y26.600I-0.600J0.000F600.0
N23740G3X53.900Y26.000I0.000J-0.600
N23750G3X54.500Y25.400I0.600J0.000
N23760G3X55.100Y26.000I0.000J0.600
N23770G01Z-3.000F30.0
N23780G3X54.500Y26.600I-0.600J0.000F600.0
N23790G3X53.900Y26.000I0.000J-0.600
N23800G3X54.500Y25.400I0.600J0.000
N23810G3X55.100Y26.000I0.000J0.600
N23820G01Z-3.100F30.0
N23830G3X54.500Y26.600I-0.600J0.000F600.0
N23840G3X53.900Y26.000I0.000J-0.600
N23850G3X54.500Y25.400I0.600J0.000
N23860G3X55.100Y26.000I0.000J0.600
N23870G01Z-3.200F30.0
N23880G3X54.500Y26.600I-0.600J0.000F600.0
N23890G3X53.900Y26.000I0.000J-0.600
N23900G3X54.500Y25.400I0.600J0.000
N23910G3X55.100Y26.000I0.000J0.600
N23920G01Z-3.300F30.0
N23930G3X54.500Y26.600I-0.600J0.000F600.0
N23940G3X53.900Y26.000I0.000J-0.600
N23950G3X54.500Y25.400I0.600J0.000
N23960G3X55.100Y26.000I0.000J0.600
N23970G01Z-3.400F30.0
N23980G3X54.500Y26.600I-0.600J0.000F600.0
N23990G3X53.900Y26.000I0.000J-0.600
N24000G3X54.500Y25.400I0.600J0.000
N24010G3X55.100Y26.000I0.000J0.600
N24020G01Z-3.500F30.0
N24030G3X54.500Y26.600I-0.600J0.000F600.0
N24040G3X53.900Y26.000I0.000J-0.600
N24050G3X54.500Y25.400I0.600J0.000
N24060G3X55.100Y26.000I0.000J0.600
N24070G01Z-3.600F30.0
N24080G3X54.500Y26.600I-0.600J0.000F600.0
N24090G3X53.900Y26.000I0.000J-0.600
N24100G3X54.500Y25.400I0.600J0.000
N24110G3X55.100Y26.000I0.000J0.600
N24120G01Z-3.700F30.0
N24130G3X54.500Y26.600I-0.600J0.000F600.0
N24140G3X53.900Y26.000I0.000J-0.600
N24150G3X54.500Y25.400I0.600J0.000
N24160G3X55.100Y26.000I0.000J0.600
N24170G01Z-3.800F30.0
N24180G3X54.500Y26.600I-0.600J0.000F600.0
N24190G3X53.900Y26.000I0.000J-0.600
N24200G3X54.500Y25.400I0.600J0.000
N24210G3X55.100Y26.000I0.000J0.600
N24220G01Z-3.900F30.0
N24230G3X54.500Y26.600I-0.600J0.000F600.0
N24240G3X53.900Y26.000I0.000J-0.600
N24250G3X54.500Y25.400I0.600J0.000
N24260G3X55.100Y26.000I0.000J0.600
N24270G01Z-4.000F30.0
N24280G3X54.500Y26.600I-0.600J0.000F600.0
N24290G3X53.900Y26.000I0.000J-0.600
N24300G3X54.500Y25.400I0.600J0.000
N24310G3X55.100Y26.000I0.000J0.600
N24320G01Z-4.100F30.0
N24330G3X54.500Y26.600I-0.600J0.000F600.0
N24340G3X53.900Y26.000I0.000J-0.600
N24350G3X54.500Y25.400I0.600J0.000
N24360G3X55.100Y26.000I0.000J0.600
N24370G01Z-4.200F30.0
N24380G3X54.500Y26.600I-0.600J0.000F600.0
N24390G3X53.900Y26.000I0.000J-0.600
N24400G3X54.500Y25.400I0.600J0.000
N24410G3X55.100Y26.000I0.000J0.600
N24420G01Z-4.300F30.0
N24430G3X54.500Y26.600I-0.600J0.000F600.0
N24440G3X53.900Y26.000I0.000J-0.600
N24450G3X54.500Y25.400I0.600J0.000
N24460G3X55.100Y26.000I0.000J0.600
N24470G01Z-4.400F30.0
N24480G3X54.500Y26.600I-0.600J0.000F600.0
N24490G3X53.900Y26.000I0.000J-0.600
N24500G3X54.500Y25.400I0.600J0.000
N24510G3X55.100Y26.000I0.000J0.600
N24520G01Z-4.500F30.0
N24530G3X54.500Y26.600I-0.600J0.000F600.0
N24540G3X53.900Y26.000I0.000J-0.600
N24550G3X54.500Y25.400I0.600J0.000
N24560G3X55.100Y26.000I0.000J0.600
N24570G01Z-4.600F30.0
N24580G3X54.500Y26.600I-0.600J0.000F600.0
N24590G3X53.900Y26.000I0.000J-0.600
N24600G3X54.500Y25.400I0.600J0.000
N24610G3X55.100Y26.000I0.000J0.600
N24620G01Z-4.700F30.0
N24630G3X54.500Y26.600I-0.600J0.000F600.0
N24640G3X53.900Y26.000I0.000J-0.600
N24650G3X54.500Y25.400I0.600J0.000
N24660G3X55.100Y26.000I0.000J0.600
N24670G01Z-4.800F30.0
N24680G3X54.500Y26.600I-0.600J0.000F600.0
N24690G3X53.900Y26.000I0.000J-0.600
N24700G3X54.500Y25.400I0.600J0.000
N24710G3X55.100Y26.000I0.000J0.600
N24720G01Z-4.900F30.0
N24730G3X54.500Y26.600I-0.600J0.000F600.0
N24740G3X53.900Y26.000I0.000J-0.600
N24750G3X54.500Y25.400I0.600J0.000
N24760G3X55.100Y26.000I0.000J0.600
N24770G01Z-5.000F30.0
N24780G3X54.500Y26.600I-0.600J0.000F600.0
N24790G3X53.900Y26.000I0.000J-0.600
N24800G3X54.500Y25.400I0.600J0.000
N24810G3X55.100Y26.000I0.000J0.600
N24820G01Z-5.100F30.0
N24830G3X54.500Y26.600I-0.600J0.000F600.0
N24840G3X53.900Y26.000I0.000J-0.600
N24850G3X54.500Y25.400I0.600J0.000
N24860G3X55.100Y26.000I0.000J0.600
N24870G01Z-5.200F30.0
N24880G3X54.500Y26.600I-0.600J0.000F600.0
N24890G3X53.900Y26.000I0.000J-0.600
N24900G3X54.500Y25.400I0.600J0.000
N24910G3X55.100Y26.000I0.000J0.600
N24920G01Z-5.300F30.0
N24930G3X54.500Y26.600I-0.600J0.000F600.0
N24940G3X53.900Y26.000I0.000J-0.600
N24950G3X54.500Y25.400I0.600J0.000
N24960G3X55.100Y26.000I0.000J0.600
N24970G01Z-5.400F30.0
N24980G3X54.500Y26.600I-0.600J0.000F600.0
N24990G3X53.900Y26.000I0.000J-0.600
N25000G3X54.500Y25.400I0.600J0.000
N25010G3X55.100Y26.000I0.000J0.600
N25020G01Z-5.500F30.0
N25030G3X54.500Y26.600I-0.600J0.000F600.0
N25040G3X53.900Y26.000I0.000J-0.600
N25050G3X54.500Y25.400I0.600J0.000
N25060G3X55.100Y26.000I0.000J0.600
N25070G01Z-5.600F30.0
N25080G3X54.500Y26.600I-0.600J0.000F600.0
N25090G3X53.900Y26.000I0.000J-0.600
N25100G3X54.500Y25.400I0.600J0.000
N25110G3X55.100Y26.000I0.000J0.600
N25120G01Z-5.700F30.0
N25130G3X54.500Y26.600I-0.600J0.000F600.0
N25140G3X53.900Y26.000I0.000J-0.600
N25150G3X54.500Y25.400I0.600J0.000
N25160G3X55.100Y26.000I0.000J0.600
N25170G01Z-5.800F30.0
N25180G3X54.500Y26.600I-0.600J0.000F600.0
N25190G3X53.900Y26.000I0.000J-0.600
N25200G3X54.500Y25.400I0.600J0.000
N25210G3X55.100Y26.000I0.000J0.600
N25220G01Z-5.900F30.0
N25230G3X54.500Y26.600I-0.600J0.000F600.0
N25240G3X53.900Y26.000I0.000J-0.600
N25250G3X54.500Y25.400I0.600J0.000
N25260G3X55.100Y26.000I0.000J0.600
N25270G01Z-6.000F30.0
N25280G3X54.500Y26.600I-0.600J0.000F600.0
N25290G3X53.900Y26.000I0.000J-0.600
N25300G3X54.500Y25.400I0.600J0.000
N25310G3X55.100Y26.000I0.000J0.600
N25320G01Z-6.100F30.0
N25330G3X54.500Y26.600I-0.600J0.000F600.0
N25340G3X53.900Y26.000I0.000J-0.600
N25350G3X54.500Y25.400I0.600J0.000
N25360G3X55.100Y26.000I0.000J0.600
N25370G01Z-6.200F30.0
N25380G3X54.500Y26.600I-0.600J0.000F600.0
N25390G3X53.900Y26.000I0.000J-0.600
N25400G3X54.500Y25.400I0.600J0.000
N25410G3X55.100Y26.000I0.000J0.600
N25420G01Z-6.300F30.0
N25430G3X54.500Y26.600I-0.600J0.000F600.0
N25440G3X53.900Y26.000I0.000J-0.600
N25450G3X54.500Y25.400I0.600J0.000
N25460G3X55.100Y26.000I0.000J0.600
N25470G00Z6.000
N25480G00Y16.000
N25490G01Z-0.100F30.0
N25500G3X54.500Y16.600I-0.600J0.000F600.0
N25510G3X53.900Y16.000I0.000J-0.600
N25520G3X54.500Y15.400I0.600J0.000
N25530G3X55.100Y16.000I0.000J0.600
N25540G01Z-0.200F30.0
N25550G3X54.500Y16.600I-0.600J0.000F600.0
N25560G3X53.900Y16.000I0.000J-0.600
N25570G3X54.500Y15.400I0.600J0.000
N25580G3X55.100Y16.000I0.000J0.600
N25590G01Z-0.300F30.0
N25600G3X54.500Y16.600I-0.600J0.000F600.0
N25610G3X53.900Y16.000I0.000J-0.600
N25620G3X54.500Y15.400I0.600J0.000
N25630G3X55.100Y16.000I0.000J0.600
N25640G01Z-0.400F30.0
N25650G3X54.500Y16.600I-0.600J0.000F600.0
N25660G3X53.900Y16.000I0.000J-0.600
N25670G3X54.500Y15.400I0.600J0.000
N25680G3X55.100Y16.000I0.000J0.600
N25690G01Z-0.500F30.0
N25700G3X54.500Y16.600I-0.600J0.000F600.0
N25710G3X53.900Y16.000I0.000J-0.600
N25720G3X54.500Y15.400I0.600J0.000
N25730G3X55.100Y16.000I0.000J0.600
N25740G01Z-0.600F30.0
N25750G3X54.500Y16.600I-0.600J0.000F600.0
N25760G3X53.900Y16.000I0.000J-0.600
N25770G3X54.500Y15.400I0.600J0.000
N25780G3X55.100Y16.000I0.000J0.600
N25790G01Z-0.700F30.0
N25800G3X54.500Y16.600I-0.600J0.000F600.0
N25810G3X53.900Y16.000I0.000J-0.600
N25820G3X54.500Y15.400I0.600J0.000
N25830G3X55.100Y16.000I0.000J0.600
N25840G01Z-0.800F30.0
N25850G3X54.500Y16.600I-0.600J0.000F600.0
N25860G3X53.900Y16.000I0.000J-0.600
N25870G3X54.500Y15.400I0.600J0.000
N25880G3X55.100Y16.000I0.000J0.600
N25890G01Z-0.900F30.0
N25900G3X54.500Y16.600I-0.600J0.000F600.0
N25910G3X53.900Y16.000I0.000J-0.600
N25920G3X54.500Y15.400I0.600J0.000
N25930G3X55.100Y16.000I0.000J0.600
N25940G01Z-1.000F30.0
N25950G3X54.500Y16.600I-0.600J0.000F600.0
N25960G3X53.900Y16.000I0.000J-0.600
N25970G3X54.500Y15.400I0.600J0.000
N25980G3X55.100Y16.000I0.000J0.600
N25990G01Z-1.100F30.0
N26000G3X54.500Y16.600I-0.600J0.000F600.0
N26010G3X53.900Y16.000I0.000J-0.600
N26020G3X54.500Y15.400I0.600J0.000
N26030G3X55.100Y16.000I0.000J0.600
N26040G01Z-1.200F30.0
N26050G3X54.500Y16.600I-0.600J0.000F600.0
N26060G3X53.900Y16.000I0.000J-0.600
N26070G3X54.500Y15.400I0.600J0.000
N26080G3X55.100Y16.000I0.000J0.600
N26090G01Z-1.300F30.0
N26100G3X54.500Y16.600I-0.600J0.000F600.0
N26110G3X53.900Y16.000I0.000J-0.600
N26120G3X54.500Y15.400I0.600J0.000
N26130G3X55.100Y16.000I0.000J0.600
N26140G01Z-1.400F30.0
N26150G3X54.500Y16.600I-0.600J0.000F600.0
N26160G3X53.900Y16.000I0.000J-0.600
N26170G3X54.500Y15.400I0.600J0.000
N26180G3X55.100Y16.000I0.000J0.600
N26190G01Z-1.500F30.0
N26200G3X54.500Y16.600I-0.600J0.000F600.0
N26210G3X53.900Y16.000I0.000J-0.600
N26220G3X54.500Y15.400I0.600J0.000
N26230G3X55.100Y16.000I0.000J0.600
N26240G01Z-1.600F30.0
N26250G3X54.500Y16.600I-0.600J0.000F600.0
N26260G3X53.900Y16.000I0.000J-0.600
N26270G3X54.500Y15.400I0.600J0.000
N26280G3X55.100Y16.000I0.000J0.600
N26290G01Z-1.700F30.0
N26300G3X54.500Y16.600I-0.600J0.000F600.0
N26310G3X53.900Y16.000I0.000J-0.600
N26320G3X54.500Y15.400I0.600J0.000
N26330G3X55.100Y16.000I0.000J0.600
N26340G01Z-1.800F30.0
N26350G3X54.500Y16.600I-0.600J0.000F600.0
N26360G3X53.900Y16.000I0.000J-0.600
N26370G3X54.500Y15.400I0.600J0.000
N26380G3X55.100Y16.000I0.000J0.600
N26390G01Z-1.900F30.0
N26400G3X54.500Y16.600I-0.600J0.000F600.0
N26410G3X53.900Y16.000I0.000J-0.600
N26420G3X54.500Y15.400I0.600J0.000
N26430G3X55.100Y16.000I0.000J0.600
N26440G01Z-2.000F30.0
N26450G3X54.500Y16.600I-0.600J0.000F600.0
N26460G3X53.900Y16.000I0.000J-0.600
N26470G3X54.500Y15.400I0.600J0.000
N26480G3X55.100Y16.000I0.000J0.600
N26490G01Z-2.100F30.0
N26500G3X54.500Y16.600I-0.600J0.000F600.0
N26510G3X53.900Y16.000I0.000J-0.600
N26520G3X54.500Y15.400I0.600J0.000
N26530G3X55.100Y16.000I0.000J0.600
N26540G01Z-2.200F30.0
N26550G3X54.500Y16.600I-0.600J0.000F600.0
N26560G3X53.900Y16.000I0.000J-0.600
N26570G3X54.500Y15.400I0.600J0.000
N26580G3X55.100Y16.000I0.000J0.600
N26590G01Z-2.300F30.0
N26600G3X54.500Y16.600I-0.600J0.000F600.0
N26610G3X53.900Y16.000I0.000J-0.600
N26620G3X54.500Y15.400I0.600J0.000
N26630G3X55.100Y16.000I0.000J0.600
N26640G01Z-2.400F30.0
N26650G3X54.500Y16.600I-0.600J0.000F600.0
N26660G3X53.900Y16.000I0.000J-0.600
N26670G3X54.500Y15.400I0.600J0.000
N26680G3X55.100Y16.000I0.000J0.600
N26690G01Z-2.500F30.0
N26700G3X54.500Y16.600I-0.600J0.000F600.0
N26710G3X53.900Y16.000I0.000J-0.600
N26720G3X54.500Y15.400I0.600J0.000
N26730G3X55.100Y16.000I0.000J0.600
N26740G01Z-2.600F30.0
N26750G3X54.500Y16.600I-0.600J0.000F600.0
N26760G3X53.900Y16.000I0.000J-0.600
N26770G3X54.500Y15.400I0.600J0.000
N26780G3X55.100Y16.000I0.000J0.600
N26790G01Z-2.700F30.0
N26800G3X54.500Y16.600I-0.600J0.000F600.0
N26810G3X53.900Y16.000I0.000J-0.600
N26820G3X54.500Y15.400I0.600J0.000
N26830G3X55.100Y16.000I0.000J0.600
N26840G01Z-2.800F30.0
N26850G3X54.500Y16.600I-0.600J0.000F600.0
N26860G3X53.900Y16.000I0.000J-0.600
N26870G3X54.500Y15.400I0.600J0.000
N26880G3X55.100Y16.000I0.000J0.600
N26890G01Z-2.900F30.0
N26900G3X54.500Y16.600I-0.600J0.000F600.0
N26910G3X53.900Y16.000I0.000J-0.600
N26920G3X54.500Y15.400I0.600J0.000
N26930G3X55.100Y16.000I0.000J0.600
N26940G01Z-3.000F30.0
N26950G3X54.500Y16.600I-0.600J0.000F600.0
N26960G3X53.900Y16.000I0.000J-0.600
N26970G3X54.500Y15.400I0.600J0.000
N26980G3X55.100Y16.000I0.000J0.600
N26990G01Z-3.100F30.0
N27000G3X54.500Y16.600I-0.600J0.000F600.0
N27010G3X53.900Y16.000I0.000J-0.600
N27020G3X54.500Y15.400I0.600J0.000
N27030G3X55.100Y16.000I0.000J0.600
N27040G01Z-3.200F30.0
N27050G3X54.500Y16.600I-0.600J0.000F600.0
N27060G3X53.900Y16.000I0.000J-0.600
N27070G3X54.500Y15.400I0.600J0.000
N27080G3X55.100Y16.000I0.000J0.600
N27090G01Z-3.300F30.0
N27100G3X54.500Y16.600I-0.600J0.000F600.0
N27110G3X53.900Y16.000I0.000J-0.600
N27120G3X54.500Y15.400I0.600J0.000
N27130G3X55.100Y16.000I0.000J0.600
N27140G01Z-3.400F30.0
N27150G3X54.500Y16.600I-0.600J0.000F600.0
N27160G3X53.900Y16.000I0.000J-0.600
N27170G3X54.500Y15.400I0.600J0.000
N27180G3X55.100Y16.000I0.000J0.600
N27190G01Z-3.500F30.0
N27200G3X54.500Y16.600I-0.600J0.000F600.0
N27210G3X53.900Y16.000I0.000J-0.600
N27220G3X54.500Y15.400I0.600J0.000
N27230G3X55.100Y16.000I0.000J0.600
N27240G01Z-3.600F30.0
N27250G3X54.500Y16.600I-0.600J0.000F600.0
N27260G3X53.900Y16.000I0.000J-0.600
N27270G3X54.500Y15.400I0.600J0.000
N27280G3X55.100Y16.000I0.000J0.600
N27290G01Z-3.700F30.0
N27300G3X54.500Y16.600I-0.600J0.000F600.0
N27310G3X53.900Y16.000I0.000J-0.600
N27320G3X54.500Y15.400I0.600J0.000
N27330G3X55.100Y16.000I0.000J0.600
N27340G01Z-3.800F30.0
N27350G3X54.500Y16.600I-0.600J0.000F600.0
N27360G3X53.900Y16.000I0.000J-0.600
N27370G3X54.500Y15.400I0.600J0.000
N27380G3X55.100Y16.000I0.000J0.600
N27390G01Z-3.900F30.0
N27400G3X54.500Y16.600I-0.600J0.000F600.0
N27410G3X53.900Y16.000I0.000J-0.600
N27420G3X54.500Y15.400I0.600J0.000
N27430G3X55.100Y16.000I0.000J0.600
N27440G01Z-4.000F30.0
N27450G3X54.500Y16.600I-0.600J0.000F600.0
N27460G3X53.900Y16.000I0.000J-0.600
N27470G3X54.500Y15.400I0.600J0.000
N27480G3X55.100Y16.000I0.000J0.600
N27490G01Z-4.100F30.0
N27500G3X54.500Y16.600I-0.600J0.000F600.0
N27510G3X53.900Y16.000I0.000J-0.600
N27520G3X54.500Y15.400I0.600J0.000
N27530G3X55.100Y16.000I0.000J0.600
N27540G01Z-4.200F30.0
N27550G3X54.500Y16.600I-0.600J0.000F600.0
N27560G3X53.900Y16.000I0.000J-0.600
N27570G3X54.500Y15.400I0.600J0.000
N27580G3X55.100Y16.000I0.000J0.600
N27590G01Z-4.300F30.0
N27600G3X54.500Y16.600I-0.600J0.000F600.0
N27610G3X53.900Y16.000I0.000J-0.600
N27620G3X54.500Y15.400I0.600J0.000
N27630G3X55.100Y16.000I0.000J0.600
N27640G01Z-4.400F30.0
N27650G3X54.500Y16.600I-0.600J0.000F600.0
N27660G3X53.900Y16.000I0.000J-0.600
N27670G3X54.500Y15.400I0.600J0.000
N27680G3X55.100Y16.000I0.000J0.600
N27690G01Z-4.500F30.0
N27700G3X54.500Y16.600I-0.600J0.000F600.0
N27710G3X53.900Y16.000I0.000J-0.600
N27720G3X54.500Y15.400I0.600J0.000
N27730G3X55.100Y16.000I0.000J0.600
N27740G01Z-4.600F30.0
N27750G3X54.500Y16.600I-0.600J0.000F600.0
N27760G3X53.900Y16.000I0.000J-0.600
N27770G3X54.500Y15.400I0.600J0.000
N27780G3X55.100Y16.000I0.000J0.600
N27790G01Z-4.700F30.0
N27800G3X54.500Y16.600I-0.600J0.000F600.0
N27810G3X53.900Y16.000I0.000J-0.600
N27820G3X54.500Y15.400I0.600J0.000
N27830G3X55.100Y16.000I0.000J0.600
N27840G01Z-4.800F30.0
N27850G3X54.500Y16.600I-0.600J0.000F600.0
N27860G3X53.900Y16.000I0.000J-0.600
N27870G3X54.500Y15.400I0.600J0.000
N27880G3X55.100Y16.000I0.000J0.600
N27890G01Z-4.900F30.0
N27900G3X54.500Y16.600I-0.600J0.000F600.0
N27910G3X53.900Y16.000I0.000J-0.600
N27920G3X54.500Y15.400I0.600J0.000
N27930G3X55.100Y16.000I0.000J0.600
N27940G01Z-5.000F30.0
N27950G3X54.500Y16.600I-0.600J0.000F600.0
N27960G3X53.900Y16.000I0.000J-0.600
N27970G3X54.500Y15.400I0.600J0.000
N27980G3X55.100Y16.000I0.000J0.600
N27990G01Z-5.100F30.0
N28000G3X54.500Y16.600I-0.600J0.000F600.0
N28010G3X53.900Y16.000I0.000J-0.600
N28020G3X54.500Y15.400I0.600J0.000
N28030G3X55.100Y16.000I0.000J0.600
N28040G01Z-5.200F30.0
N28050G3X54.500Y16.600I-0.600J0.000F600.0
N28060G3X53.900Y16.000I0.000J-0.600
N28070G3X54.500Y15.400I0.600J0.000
N28080G3X55.100Y16.000I0.000J0.600
N28090G01Z-5.300F30.0
N28100G3X54.500Y16.600I-0.600J0.000F600.0
N28110G3X53.900Y16.000I0.000J-0.600
N28120G3X54.500Y15.400I0.600J0.000
N28130G3X55.100Y16.000I0.000J0.600
N28140G01Z-5.400F30.0
N28150G3X54.500Y16.600I-0.600J0.000F600.0
N28160G3X53.900Y16.000I0.000J-0.600
N28170G3X54.500Y15.400I0.600J0.000
N28180G3X55.100Y16.000I0.000J0.600
N28190G01Z-5.500F30.0
N28200G3X54.500Y16.600I-0.600J0.000F600.0
N28210G3X53.900Y16.000I0.000J-0.600
N28220G3X54.500Y15.400I0.600J0.000
N28230G3X55.100Y16.000I0.000J0.600
N28240G01Z-5.600F30.0
N28250G3X54.500Y16.600I-0.600J0.000F600.0
N28260G3X53.900Y16.000I0.000J-0.600
N28270G3X54.500Y15.400I0.600J0.000
N28280G3X55.100Y16.000I0.000J0.600
N28290G01Z-5.700F30.0
N28300G3X54.500Y16.600I-0.600J0.000F600.0
N28310G3X53.900Y16.000I0.000J-0.600
N28320G3X54.500Y15.400I0.600J0.000
N28330G3X55.100Y16.000I0.000J0.600
N28340G01Z-5.800F30.0
N28350G3X54.500Y16.600I-0.600J0.000F600.0
N28360G3X53.900Y16.000I0.000J-0.600
N28370G3X54.500Y15.400I0.600J0.000
N28380G3X55.100Y16.000I0.000J0.600
N28390G01Z-5.900F30.0
N28400G3X54.500Y16.600I-0.600J0.000F600.0
N28410G3X53.900Y16.000I0.000J-0.600
N28420G3X54.500Y15.400I0.600J0.000
N28430G3X55.100Y16.000I0.000J0.600
N28440G01Z-6.000F30.0
N28450G3X54.500Y16.600I-0.600J0.000F600.0
N28460G3X53.900Y16.000I0.000J-0.600
N28470G3X54.500Y15.400I0.600J0.000
N28480G3X55.100Y16.000I0.000J0.600
N28490G01Z-6.100F30.0
N28500G3X54.500Y16.600I-0.600J0.000F600.0
N28510G3X53.900Y16.000I0.000J-0.600
N28520G3X54.500Y15.400I0.600J0.000
N28530G3X55.100Y16.000I0.000J0.600
N28540G01Z-6.200F30.0
N28550G3X54.500Y16.600I-0.600J0.000F600.0
N28560G3X53.900Y16.000I0.000J-0.600
N28570G3X54.500Y15.400I0.600J0.000
N28580G3X55.100Y16.000I0.000J0.600
N28590G01Z-6.300F30.0
N28600G3X54.500Y16.600I-0.600J0.000F600.0
N28610G3X53.900Y16.000I0.000J-0.600
N28620G3X54.500Y15.400I0.600J0.000
N28630G3X55.100Y16.000I0.000J0.600
N28640G00Z6.000
N28650G00X72.600Y13.500
N28660G01Z-0.100F30.0
N28670G3X72.000Y14.100I-0.600J0.000F600.0
N28680G3X71.400Y13.500I0.000J-0.600
N28690G3X72.000Y12.900I0.600J0.000
N28700G3X72.600Y13.500I0.000J0.600
N28710G01Z-0.200F30.0
N28720G3X72.000Y14.100I-0.600J0.000F600.0
N28730G3X71.400Y13.500I0.000J-0.600
N28740G3X72.000Y12.900I0.600J0.000
N28750G3X72.600Y13.500I0.000J0.600
N28760G01Z-0.300F30.0
N28770G3X72.000Y14.100I-0.600J0.000F600.0
N28780G3X71.400Y13.500I0.000J-0.600
N28790G3X72.000Y12.900I0.600J0.000
N28800G3X72.600Y13.500I0.000J0.600
N28810G01Z-0.400F30.0
N28820G3X72.000Y14.100I-0.600J0.000F600.0
N28830G3X71.400Y13.500I0.000J-0.600
N28840G3X72.000Y12.900I0.600J0.000
N28850G3X72.600Y13.500I0.000J0.600
N28860G01Z-0.500F30.0
N28870G3X72.000Y14.100I-0.600J0.000F600.0
N28880G3X71.400Y13.500I0.000J-0.600
N28890G3X72.000Y12.900I0.600J0.000
N28900G3X72.600Y13.500I0.000J0.600
N28910G01Z-0.600F30.0
N28920G3X72.000Y14.100I-0.600J0.000F600.0
N28930G3X71.400Y13.500I0.000J-0.600
N28940G3X72.000Y12.900I0.600J0.000
N28950G3X72.600Y13.500I0.000J0.600
N28960G01Z-0.700F30.0
N28970G3X72.000Y14.100I-0.600J0.000F600.0
N28980G3X71.400Y13.500I0.000J-0.600
N28990G3X72.000Y12.900I0.600J0.000
N29000G3X72.600Y13.500I0.000J0.600
N29010G01Z-0.800F30.0
N29020G3X72.000Y14.100I-0.600J0.000F600.0
N29030G3X71.400Y13.500I0.000J-0.600
N29040G3X72.000Y12.900I0.600J0.000
N29050G3X72.600Y13.500I0.000J0.600
N29060G01Z-0.900F30.0
N29070G3X72.000Y14.100I-0.600J0.000F600.0
N29080G3X71.400Y13.500I0.000J-0.600
N29090G3X72.000Y12.900I0.600J0.000
N29100G3X72.600Y13.500I0.000J0.600
N29110G01Z-1.000F30.0
N29120G3X72.000Y14.100I-0.600J0.000F600.0
N29130G3X71.400Y13.500I0.000J-0.600
N29140G3X72.000Y12.900I0.600J0.000
N29150G3X72.600Y13.500I0.000J0.600
N29160G01Z-1.100F30.0
N29170G3X72.000Y14.100I-0.600J0.000F600.0
N29180G3X71.400Y13.500I0.000J-0.600
N29190G3X72.000Y12.900I0.600J0.000
N29200G3X72.600Y13.500I0.000J0.600
N29210G01Z-1.200F30.0
N29220G3X72.000Y14.100I-0.600J0.000F600.0
N29230G3X71.400Y13.500I0.000J-0.600
N29240G3X72.000Y12.900I0.600J0.000
N29250G3X72.600Y13.500I0.000J0.600
N29260G01Z-1.300F30.0
N29270G3X72.000Y14.100I-0.600J0.000F600.0
N29280G3X71.400Y13.500I0.000J-0.600
N29290G3X72.000Y12.900I0.600J0.000
N29300G3X72.600Y13.500I0.000J0.600
N29310G01Z-1.400F30.0
N29320G3X72.000Y14.100I-0.600J0.000F600.0
N29330G3X71.400Y13.500I0.000J-0.600
N29340G3X72.000Y12.900I0.600J0.000
N29350G3X72.600Y13.500I0.000J0.600
N29360G01Z-1.500F30.0
N29370G3X72.000Y14.100I-0.600J0.000F600.0
N29380G3X71.400Y13.500I0.000J-0.600
N29390G3X72.000Y12.900I0.600J0.000
N29400G3X72.600Y13.500I0.000J0.600
N29410G01Z-1.600F30.0
N29420G3X72.000Y14.100I-0.600J0.000F600.0
N29430G3X71.400Y13.500I0.000J-0.600
N29440G3X72.000Y12.900I0.600J0.000
N29450G3X72.600Y13.500I0.000J0.600
N29460G01Z-1.700F30.0
N29470G3X72.000Y14.100I-0.600J0.000F600.0
N29480G3X71.400Y13.500I0.000J-0.600
N29490G3X72.000Y12.900I0.600J0.000
N29500G3X72.600Y13.500I0.000J0.600
N29510G01Z-1.800F30.0
N29520G3X72.000Y14.100I-0.600J0.000F600.0
N29530G3X71.400Y13.500I0.000J-0.600
N29540G3X72.000Y12.900I0.600J0.000
N29550G3X72.600Y13.500I0.000J0.600
N29560G01Z-1.900F30.0
N29570G3X72.000Y14.100I-0.600J0.000F600.0
N29580G3X71.400Y13.500I0.000J-0.600
N29590G3X72.000Y12.900I0.600J0.000
N29600G3X72.600Y13.500I0.000J0.600
N29610G01Z-2.000F30.0
N29620G3X72.000Y14.100I-0.600J0.000F600.0
N29630G3X71.400Y13.500I0.000J-0.600
N29640G3X72.000Y12.900I0.600J0.000
N29650G3X72.600Y13.500I0.000J0.600
N29660G01Z-2.100F30.0
N29670G3X72.000Y14.100I-0.600J0.000F600.0
N29680G3X71.400Y13.500I0.000J-0.600
N29690G3X72.000Y12.900I0.600J0.000
N29700G3X72.600Y13.500I0.000J0.600
N29710G01Z-2.200F30.0
N29720G3X72.000Y14.100I-0.600J0.000F600.0
N29730G3X71.400Y13.500I0.000J-0.600
N29740G3X72.000Y12.900I0.600J0.000
N29750G3X72.600Y13.500I0.000J0.600
N29760G01Z-2.300F30.0
N29770G3X72.000Y14.100I-0.600J0.000F600.0
N29780G3X71.400Y13.500I0.000J-0.600
N29790G3X72.000Y12.900I0.600J0.000
N29800G3X72.600Y13.500I0.000J0.600
N29810G01Z-2.400F30.0
N29820G3X72.000Y14.100I-0.600J0.000F600.0
N29830G3X71.400Y13.500I0.000J-0.600
N29840G3X72.000Y12.900I0.600J0.000
N29850G3X72.600Y13.500I0.000J0.600
N29860G01Z-2.500F30.0
N29870G3X72.000Y14.100I-0.600J0.000F600.0
N29880G3X71.400Y13.500I0.000J-0.600
N29890G3X72.000Y12.900I0.600J0.000
N29900G3X72.600Y13.500I0.000J0.600
N29910G01Z-2.600F30.0
N29920G3X72.000Y14.100I-0.600J0.000F600.0
N29930G3X71.400Y13.500I0.000J-0.600
N29940G3X72.000Y12.900I0.600J0.000
N29950G3X72.600Y13.500I0.000J0.600
N29960G01Z-2.700F30.0
N29970G3X72.000Y14.100I-0.600J0.000F600.0
N29980G3X71.400Y13.500I0.000J-0.600
N29990G3X72.000Y12.900I0.600J0.000
N30000G3X72.600Y13.500I0.000J0.600
N30010G01Z-2.800F30.0
N30020G3X72.000Y14.100I-0.600J0.000F600.0
N30030G3X71.400Y13.500I0.000J-0.600
N30040G3X72.000Y12.900I0.600J0.000
N30050G3X72.600Y13.500I0.000J0.600
N30060G01Z-2.900F30.0
N30070G3X72.000Y14.100I-0.600J0.000F600.0
N30080G3X71.400Y13.500I0.000J-0.600
N30090G3X72.000Y12.900I0.600J0.000
N30100G3X72.600Y13.500I0.000J0.600
N30110G01Z-3.000F30.0
N30120G3X72.000Y14.100I-0.600J0.000F600.0
N30130G3X71.400Y13.500I0.000J-0.600
N30140G3X72.000Y12.900I0.600J0.000
N30150G3X72.600Y13.500I0.000J0.600
N30160G01Z-3.100F30.0
N30170G3X72.000Y14.100I-0.600J0.000F600.0
N30180G3X71.400Y13.500I0.000J-0.600
N30190G3X72.000Y12.900I0.600J0.000
N30200G3X72.600Y13.500I0.000J0.600
N30210G01Z-3.200F30.0
N30220G3X72.000Y14.100I-0.600J0.000F600.0
N30230G3X71.400Y13.500I0.000J-0.600
N30240G3X72.000Y12.900I0.600J0.000
N30250G3X72.600Y13.500I0.000J0.600
N30260G01Z-3.300F30.0
N30270G3X72.000Y14.100I-0.600J0.000F600.0
N30280G3X71.400Y13.500I0.000J-0.600
N30290G3X72.000Y12.900I0.600J0.000
N30300G3X72.600Y13.500I0.000J0.600
N30310G01Z-3.400F30.0
N30320G3X72.000Y14.100I-0.600J0.000F600.0
N30330G3X71.400Y13.500I0.000J-0.600
N30340G3X72.000Y12.900I0.600J0.000
N30350G3X72.600Y13.500I0.000J0.600
N30360G01Z-3.500F30.0
N30370G3X72.000Y14.100I-0.600J0.000F600.0
N30380G3X71.400Y13.500I0.000J-0.600
N30390G3X72.000Y12.900I0.600J0.000
N30400G3X72.600Y13.500I0.000J0.600
N30410G01Z-3.600F30.0
N30420G3X72.000Y14.100I-0.600J0.000F600.0
N30430G3X71.400Y13.500I0.000J-0.600
N30440G3X72.000Y12.900I0.600J0.000
N30450G3X72.600Y13.500I0.000J0.600
N30460G01Z-3.700F30.0
N30470G3X72.000Y14.100I-0.600J0.000F600.0
N30480G3X71.400Y13.500I0.000J-0.600
N30490G3X72.000Y12.900I0.600J0.000
N30500G3X72.600Y13.500I0.000J0.600
N30510G01Z-3.800F30.0
N30520G3X72.000Y14.100I-0.600J0.000F600.0
N30530G3X71.400Y13.500I0.000J-0.600
N30540G3X72.000Y12.900I0.600J0.000
N30550G3X72.600Y13.500I0.000J0.600
N30560G01Z-3.900F30.0
N30570G3X72.000Y14.100I-0.600J0.000F600.0
N30580G3X71.400Y13.500I0.000J-0.600
N30590G3X72.000Y12.900I0.600J0.000
N30600G3X72.600Y13.500I0.000J0.600
N30610G01Z-4.000F30.0
N30620G3X72.000Y14.100I-0.600J0.000F600.0
N30630G3X71.400Y13.500I0.000J-0.600
N30640G3X72.000Y12.900I0.600J0.000
N30650G3X72.600Y13.500I0.000J0.600
N30660G01Z-4.100F30.0
N30670G3X72.000Y14.100I-0.600J0.000F600.0
N30680G3X71.400Y13.500I0.000J-0.600
N30690G3X72.000Y12.900I0.600J0.000
N30700G3X72.600Y13.500I0.000J0.600
N30710G01Z-4.200F30.0
N30720G3X72.000Y14.100I-0.600J0.000F600.0
N30730G3X71.400Y13.500I0.000J-0.600
N30740G3X72.000Y12.900I0.600J0.000
N30750G3X72.600Y13.500I0.000J0.600
N30760G01Z-4.300F30.0
N30770G3X72.000Y14.100I-0.600J0.000F600.0
N30780G3X71.400Y13.500I0.000J-0.600
N30790G3X72.000Y12.900I0.600J0.000
N30800G3X72.600Y13.500I0.000J0.600
N30810G01Z-4.400F30.0
N30820G3X72.000Y14.100I-0.600J0.000F600.0
N30830G3X71.400Y13.500I0.000J-0.600
N30840G3X72.000Y12.900I0.600J0.000
N30850G3X72.600Y13.500I0.000J0.600
N30860G01Z-4.500F30.0
N30870G3X72.000Y14.100I-0.600J0.000F600.0
N30880G3X71.400Y13.500I0.000J-0.600
N30890G3X72.000Y12.900I0.600J0.000
N30900G3X72.600Y13.500I0.000J0.600
N30910G01Z-4.600F30.0
N30920G3X72.000Y14.100I-0.600J0.000F600.0
N30930G3X71.400Y13.500I0.000J-0.600
N30940G3X72.000Y12.900I0.600J0.000
N30950G3X72.600Y13.500I0.000J0.600
N30960G01Z-4.700F30.0
N30970G3X72.000Y14.100I-0.600J0.000F600.0
N30980G3X71.400Y13.500I0.000J-0.600
N30990G3X72.000Y12.900I0.600J0.000
N31000G3X72.600Y13.500I0.000J0.600
N31010G01Z-4.800F30.0
N31020G3X72.000Y14.100I-0.600J0.000F600.0
N31030G3X71.400Y13.500I0.000J-0.600
N31040G3X72.000Y12.900I0.600J0.000
N31050G3X72.600Y13.500I0.000J0.600
N31060G01Z-4.900F30.0
N31070G3X72.000Y14.100I-0.600J0.000F600.0
N31080G3X71.400Y13.500I0.000J-0.600
N31090G3X72.000Y12.900I0.600J0.000
N31100G3X72.600Y13.500I0.000J0.600
N31110G01Z-5.000F30.0
N31120G3X72.000Y14.100I-0.600J0.000F600.0
N31130G3X71.400Y13.500I0.000J-0.600
N31140G3X72.000Y12.900I0.600J0.000
N31150G3X72.600Y13.500I0.000J0.600
N31160G01Z-5.100F30.0
N31170G3X72.000Y14.100I-0.600J0.000F600.0
N31180G3X71.400Y13.500I0.000J-0.600
N31190G3X72.000Y12.900I0.600J0.000
N31200G3X72.600Y13.500I0.000J0.600
N31210G01Z-5.200F30.0
N31220G3X72.000Y14.100I-0.600J0.000F600.0
N31230G3X71.400Y13.500I0.000J-0.600
N31240G3X72.000Y12.900I0.600J0.000
N31250G3X72.600Y13.500I0.000J0.600
N31260G01Z-5.300F30.0
N31270G3X72.000Y14.100I-0.600J0.000F600.0
N31280G3X71.400Y13.500I0.000J-0.600
N31290G3X72.000Y12.900I0.600J0.000
N31300G3X72.600Y13.500I0.000J0.600
N31310G01Z-5.400F30.0
N31320G3X72.000Y14.100I-0.600J0.000F600.0
N31330G3X71.400Y13.500I0.000J-0.600
N31340G3X72.000Y12.900I0.600J0.000
N31350G3X72.600Y13.500I0.000J0.600
N31360G01Z-5.500F30.0
N31370G3X72.000Y14.100I-0.600J0.000F600.0
N31380G3X71.400Y13.500I0.000J-0.600
N31390G3X72.000Y12.900I0.600J0.000
N31400G3X72.600Y13.500I0.000J0.600
N31410G01Z-5.600F30.0
N31420G3X72.000Y14.100I-0.600J0.000F600.0
N31430G3X71.400Y13.500I0.000J-0.600
N31440G3X72.000Y12.900I0.600J0.000
N31450G3X72.600Y13.500I0.000J0.600
N31460G01Z-5.700F30.0
N31470G3X72.000Y14.100I-0.600J0.000F600.0
N31480G3X71.400Y13.500I0.000J-0.600
N31490G3X72.000Y12.900I0.600J0.000
N31500G3X72.600Y13.500I0.000J0.600
N31510G01Z-5.800F30.0
N31520G3X72.000Y14.100I-0.600J0.000F600.0
N31530G3X71.400Y13.500I0.000J-0.600
N31540G3X72.000Y12.900I0.600J0.000
N31550G3X72.600Y13.500I0.000J0.600
N31560G01Z-5.900F30.0
N31570G3X72.000Y14.100I-0.600J0.000F600.0
N31580G3X71.400Y13.500I0.000J-0.600
N31590G3X72.000Y12.900I0.600J0.000
