( Profile 14 )
( USBCNC Postprocessor )
N20G00G21G17G90G40G49
N30G80
N40G00G43Z20.000H5
N50S8000M03
N60G94
N70X0.000Y0.000F200.0
N80G00X16.436Y21.464Z6.000
N90G01Z-0.025F30.0
N100G01X16.336Y21.564F200.0
N110X16.236Y21.464
N120X16.336Y21.364
N130X16.436Y21.464
N140G01Z-0.050F30.0
N150G01X16.336Y21.564F200.0
N160X16.236Y21.464
N170X16.336Y21.364
N180X16.436Y21.464
N190G01Z-0.075F30.0
N200G01X16.336Y21.564F200.0
N210X16.236Y21.464
N220X16.336Y21.364
N230X16.436Y21.464
N240G01Z-0.100F30.0
N250G01X16.336Y21.564F200.0
N260X16.236Y21.464
N270X16.336Y21.364
N280X16.436Y21.464
N290G01Z-0.125F30.0
N300G01X16.336Y21.564F200.0
N310X16.236Y21.464
N320X16.336Y21.364
N330X16.436Y21.464
N340G01Z-0.150F30.0
N350G01X16.336Y21.564F200.0
N360X16.236Y21.464
N370X16.336Y21.364
N380X16.436Y21.464
N390G01Z-0.175F30.0
N400G01X16.336Y21.564F200.0
N410X16.236Y21.464
N420X16.336Y21.364
N430X16.436Y21.464
N440G01Z-0.200F30.0
N450G01X16.336Y21.564F200.0
N460X16.236Y21.464
N470X16.336Y21.364
N480X16.436Y21.464
N490G01Z-0.225F30.0
N500G01X16.336Y21.564F200.0
N510X16.236Y21.464
N520X16.336Y21.364
N530X16.436Y21.464
N540G01Z-0.250F30.0
N550G01X16.336Y21.564F200.0
N560X16.236Y21.464
N570X16.336Y21.364
N580X16.436Y21.464
N590G01Z-0.275F30.0
N600G01X16.336Y21.564F200.0
N610X16.236Y21.464
N620X16.336Y21.364
N630X16.436Y21.464
N640G01Z-0.300F30.0
N650G01X16.336Y21.564F200.0
N660X16.236Y21.464
N670X16.336Y21.364
N680X16.436Y21.464
N690G01Z-0.325F30.0
N700G01X16.336Y21.564F200.0
N710X16.236Y21.464
N720X16.336Y21.364
N730X16.436Y21.464
N740G01Z-0.350F30.0
N750G01X16.336Y21.564F200.0
N760X16.236Y21.464
N770X16.336Y21.364
N780X16.436Y21.464
N790G01Z-0.375F30.0
N800G01X16.336Y21.564F200.0
N810X16.236Y21.464
N820X16.336Y21.364
N830X16.436Y21.464
N840G01Z-0.400F30.0
N850G01X16.336Y21.564F200.0
N860X16.236Y21.464
N870X16.336Y21.364
N880X16.436Y21.464
N890G01Z-0.425F30.0
N900G01X16.336Y21.564F200.0
N910X16.236Y21.464
N920X16.336Y21.364
N930X16.436Y21.464
N940G01Z-0.450F30.0
N950G01X16.336Y21.564F200.0
N960X16.236Y21.464
N970X16.336Y21.364
N980X16.436Y21.464
N990G01Z-0.475F30.0
N1000G01X16.336Y21.564F200.0
N1010X16.236Y21.464
N1020X16.336Y21.364
N1030X16.436Y21.464
N1040G01Z-0.500F30.0
N1050G01X16.336Y21.564F200.0
N1060X16.236Y21.464
N1070X16.336Y21.364
N1080X16.436Y21.464
N1090G01Z-0.525F30.0
N1100G01X16.336Y21.564F200.0
N1110X16.236Y21.464
N1120X16.336Y21.364
N1130X16.436Y21.464
N1140G01Z-0.550F30.0
N1150G01X16.336Y21.564F200.0
N1160X16.236Y21.464
N1170X16.336Y21.364
N1180X16.436Y21.464
N1190G01Z-0.575F30.0
N1200G01X16.336Y21.564F200.0
N1210X16.236Y21.464
N1220X16.336Y21.364
N1230X16.436Y21.464
N1240G01Z-0.600F30.0
N1250G01X16.336Y21.564F200.0
N1260X16.236Y21.464
N1270X16.336Y21.364
N1280X16.436Y21.464
N1290G01Z-0.625F30.0
N1300G01X16.336Y21.564F200.0
N1310X16.236Y21.464
N1320X16.336Y21.364
N1330X16.436Y21.464
N1340G01Z-0.650F30.0
N1350G01X16.336Y21.564F200.0
N1360X16.236Y21.464
N1370X16.336Y21.364
N1380X16.436Y21.464
N1390G01Z-0.675F30.0
N1400G01X16.336Y21.564F200.0
N1410X16.236Y21.464
N1420X16.336Y21.364
N1430X16.436Y21.464
N1440G01Z-0.700F30.0
N1450G01X16.336Y21.564F200.0
N1460X16.236Y21.464
N1470X16.336Y21.364
N1480X16.436Y21.464
N1490G01Z-0.725F30.0
N1500G01X16.336Y21.564F200.0
N1510X16.236Y21.464
N1520X16.336Y21.364
N1530X16.436Y21.464
N1540G01Z-0.750F30.0
N1550G01X16.336Y21.564F200.0
N1560X16.236Y21.464
N1570X16.336Y21.364
N1580X16.436Y21.464
N1590G01Z-0.775F30.0
N1600G01X16.336Y21.564F200.0
N1610X16.236Y21.464
N1620X16.336Y21.364
N1630X16.436Y21.464
N1640G01Z-0.800F30.0
N1650G01X16.336Y21.564F200.0
N1660X16.236Y21.464
N1670X16.336Y21.364
N1680X16.436Y21.464
N1690G01Z-0.825F30.0
N1700G01X16.336Y21.564F200.0
N1710X16.236Y21.464
N1720X16.336Y21.364
N1730X16.436Y21.464
N1740G01Z-0.850F30.0
N1750G01X16.336Y21.564F200.0
N1760X16.236Y21.464
N1770X16.336Y21.364
N1780X16.436Y21.464
N1790G01Z-0.875F30.0
N1800G01X16.336Y21.564F200.0
N1810X16.236Y21.464
N1820X16.336Y21.364
N1830X16.436Y21.464
N1840G01Z-0.900F30.0
N1850G01X16.336Y21.564F200.0
N1860X16.236Y21.464
N1870X16.336Y21.364
N1880X16.436Y21.464
N1890G01Z-0.925F30.0
N1900G01X16.336Y21.564F200.0
N1910X16.236Y21.464
N1920X16.336Y21.364
N1930X16.436Y21.464
N1940G01Z-0.950F30.0
N1950G01X16.336Y21.564F200.0
N1960X16.236Y21.464
N1970X16.336Y21.364
N1980X16.436Y21.464
N1990G01Z-0.975F30.0
N2000G01X16.336Y21.564F200.0
N2010X16.236Y21.464
N2020X16.336Y21.364
N2030X16.436Y21.464
N2040G01Z-1.000F30.0
N2050G01X16.336Y21.564F200.0
N2060X16.236Y21.464
N2070X16.336Y21.364
N2080X16.436Y21.464
N2090G01Z-1.025F30.0
N2100G01X16.336Y21.564F200.0
N2110X16.236Y21.464
N2120X16.336Y21.364
N2130X16.436Y21.464
N2140G01Z-1.050F30.0
N2150G01X16.336Y21.564F200.0
N2160X16.236Y21.464
N2170X16.336Y21.364
N2180X16.436Y21.464
N2190G01Z-1.075F30.0
N2200G01X16.336Y21.564F200.0
N2210X16.236Y21.464
N2220X16.336Y21.364
N2230X16.436Y21.464
N2240G01Z-1.100F30.0
N2250G01X16.336Y21.564F200.0
N2260X16.236Y21.464
N2270X16.336Y21.364
N2280X16.436Y21.464
N2290G01Z-1.125F30.0
N2300G01X16.336Y21.564F200.0
N2310X16.236Y21.464
N2320X16.336Y21.364
N2330X16.436Y21.464
N2340G01Z-1.150F30.0
N2350G01X16.336Y21.564F200.0
N2360X16.236Y21.464
N2370X16.336Y21.364
N2380X16.436Y21.464
N2390G01Z-1.175F30.0
N2400G01X16.336Y21.564F200.0
N2410X16.236Y21.464
N2420X16.336Y21.364
N2430X16.436Y21.464
N2440G01Z-1.200F30.0
N2450G01X16.336Y21.564F200.0
N2460X16.236Y21.464
N2470X16.336Y21.364
N2480X16.436Y21.464
N2490G01Z-1.225F30.0
N2500G01X16.336Y21.564F200.0
N2510X16.236Y21.464
N2520X16.336Y21.364
N2530X16.436Y21.464
N2540G01Z-1.250F30.0
N2550G01X16.336Y21.564F200.0
N2560X16.236Y21.464
N2570X16.336Y21.364
N2580X16.436Y21.464
N2590G01Z-1.275F30.0
N2600G01X16.336Y21.564F200.0
N2610X16.236Y21.464
N2620X16.336Y21.364
N2630X16.436Y21.464
N2640G01Z-1.300F30.0
N2650G01X16.336Y21.564F200.0
N2660X16.236Y21.464
N2670X16.336Y21.364
N2680X16.436Y21.464
N2690G01Z-1.325F30.0
N2700G01X16.336Y21.564F200.0
N2710X16.236Y21.464
N2720X16.336Y21.364
N2730X16.436Y21.464
N2740G01Z-1.350F30.0
N2750G01X16.336Y21.564F200.0
N2760X16.236Y21.464
N2770X16.336Y21.364
N2780X16.436Y21.464
N2790G01Z-1.375F30.0
N2800G01X16.336Y21.564F200.0
N2810X16.236Y21.464
N2820X16.336Y21.364
N2830X16.436Y21.464
N2840G01Z-1.400F30.0
N2850G01X16.336Y21.564F200.0
N2860X16.236Y21.464
N2870X16.336Y21.364
N2880X16.436Y21.464
N2890G01Z-1.425F30.0
N2900G01X16.336Y21.564F200.0
N2910X16.236Y21.464
N2920X16.336Y21.364
N2930X16.436Y21.464
N2940G01Z-1.450F30.0
N2950G01X16.336Y21.564F200.0
N2960X16.236Y21.464
N2970X16.336Y21.364
N2980X16.436Y21.464
N2990G01Z-1.475F30.0
N3000G01X16.336Y21.564F200.0
N3010X16.236Y21.464
N3020X16.336Y21.364
N3030X16.436Y21.464
N3040G01Z-1.500F30.0
N3050G01X16.336Y21.564F200.0
N3060X16.236Y21.464
N3070X16.336Y21.364
N3080X16.436Y21.464
N3090G01Z-1.525F30.0
N3100G01X16.336Y21.564F200.0
N3110X16.236Y21.464
N3120X16.336Y21.364
N3130X16.436Y21.464
N3140G01Z-1.550F30.0
N3150G01X16.336Y21.564F200.0
N3160X16.236Y21.464
N3170X16.336Y21.364
N3180X16.436Y21.464
N3190G01Z-1.575F30.0
N3200G01X16.336Y21.564F200.0
N3210X16.236Y21.464
N3220X16.336Y21.364
N3230X16.436Y21.464
N3240G01Z-1.600F30.0
N3250G01X16.336Y21.564F200.0
N3260X16.236Y21.464
N3270X16.336Y21.364
N3280X16.436Y21.464
N3290G01Z-1.625F30.0
N3300G01X16.336Y21.564F200.0
N3310X16.236Y21.464
N3320X16.336Y21.364
N3330X16.436Y21.464
N3340G01Z-1.650F30.0
N3350G01X16.336Y21.564F200.0
N3360X16.236Y21.464
N3370X16.336Y21.364
N3380X16.436Y21.464
N3390G01Z-1.675F30.0
N3400G01X16.336Y21.564F200.0
N3410X16.236Y21.464
N3420X16.336Y21.364
N3430X16.436Y21.464
N3440G01Z-1.700F30.0
N3450G01X16.336Y21.564F200.0
N3460X16.236Y21.464
N3470X16.336Y21.364
N3480X16.436Y21.464
N3490G01Z-1.725F30.0
N3500G01X16.336Y21.564F200.0
N3510X16.236Y21.464
N3520X16.336Y21.364
N3530X16.436Y21.464
N3540G01Z-1.750F30.0
N3550G01X16.336Y21.564F200.0
N3560X16.236Y21.464
N3570X16.336Y21.364
N3580X16.436Y21.464
N3590G01Z-1.775F30.0
N3600G01X16.336Y21.564F200.0
N3610X16.236Y21.464
N3620X16.336Y21.364
N3630X16.436Y21.464
N3640G01Z-1.800F30.0
N3650G01X16.336Y21.564F200.0
N3660X16.236Y21.464
N3670X16.336Y21.364
N3680X16.436Y21.464
N3690G01Z-1.825F30.0
N3700G01X16.336Y21.564F200.0
N3710X16.236Y21.464
N3720X16.336Y21.364
N3730X16.436Y21.464
N3740G01Z-1.850F30.0
N3750G01X16.336Y21.564F200.0
N3760X16.236Y21.464
N3770X16.336Y21.364
N3780X16.436Y21.464
N3790G01Z-1.875F30.0
N3800G01X16.336Y21.564F200.0
N3810X16.236Y21.464
N3820X16.336Y21.364
N3830X16.436Y21.464
N3840G01Z-1.900F30.0
N3850G01X16.336Y21.564F200.0
N3860X16.236Y21.464
N3870X16.336Y21.364
N3880X16.436Y21.464
N3890G01Z-1.925F30.0
N3900G01X16.336Y21.564F200.0
N3910X16.236Y21.464
N3920X16.336Y21.364
N3930X16.436Y21.464
N3940G01Z-1.950F30.0
N3950G01X16.336Y21.564F200.0
N3960X16.236Y21.464
N3970X16.336Y21.364
N3980X16.436Y21.464
N3990G01Z-1.975F30.0
N4000G01X16.336Y21.564F200.0
N4010X16.236Y21.464
N4020X16.336Y21.364
N4030X16.436Y21.464
N4040G01Z-2.000F30.0
N4050G01X16.336Y21.564F200.0
N4060X16.236Y21.464
N4070X16.336Y21.364
N4080X16.436Y21.464
N4090G01Z-2.025F30.0
N4100G01X16.336Y21.564F200.0
N4110X16.236Y21.464
N4120X16.336Y21.364
N4130X16.436Y21.464
N4140G01Z-2.050F30.0
N4150G01X16.336Y21.564F200.0
N4160X16.236Y21.464
N4170X16.336Y21.364
N4180X16.436Y21.464
N4190G01Z-2.075F30.0
N4200G01X16.336Y21.564F200.0
N4210X16.236Y21.464
N4220X16.336Y21.364
N4230X16.436Y21.464
N4240G01Z-2.100F30.0
N4250G01X16.336Y21.564F200.0
N4260X16.236Y21.464
N4270X16.336Y21.364
N4280X16.436Y21.464
N4290G01Z-2.125F30.0
N4300G01X16.336Y21.564F200.0
N4310X16.236Y21.464
N4320X16.336Y21.364
N4330X16.436Y21.464
N4340G01Z-2.150F30.0
N4350G01X16.336Y21.564F200.0
N4360X16.236Y21.464
N4370X16.336Y21.364
N4380X16.436Y21.464
N4390G01Z-2.175F30.0
N4400G01X16.336Y21.564F200.0
N4410X16.236Y21.464
N4420X16.336Y21.364
N4430X16.436Y21.464
N4440G01Z-2.200F30.0
N4450G01X16.336Y21.564F200.0
N4460X16.236Y21.464
N4470X16.336Y21.364
N4480X16.436Y21.464
N4490G01Z-2.225F30.0
N4500G01X16.336Y21.564F200.0
N4510X16.236Y21.464
N4520X16.336Y21.364
N4530X16.436Y21.464
N4540G01Z-2.250F30.0
N4550G01X16.336Y21.564F200.0
N4560X16.236Y21.464
N4570X16.336Y21.364
N4580X16.436Y21.464
N4590G01Z-2.275F30.0
N4600G01X16.336Y21.564F200.0
N4610X16.236Y21.464
N4620X16.336Y21.364
N4630X16.436Y21.464
N4640G01Z-2.300F30.0
N4650G01X16.336Y21.564F200.0
N4660X16.236Y21.464
N4670X16.336Y21.364
N4680X16.436Y21.464
N4690G01Z-2.325F30.0
N4700G01X16.336Y21.564F200.0
N4710X16.236Y21.464
N4720X16.336Y21.364
N4730X16.436Y21.464
N4740G01Z-2.350F30.0
N4750G01X16.336Y21.564F200.0
N4760X16.236Y21.464
N4770X16.336Y21.364
N4780X16.436Y21.464
N4790G01Z-2.375F30.0
N4800G01X16.336Y21.564F200.0
N4810X16.236Y21.464
N4820X16.336Y21.364
N4830X16.436Y21.464
N4840G01Z-2.400F30.0
N4850G01X16.336Y21.564F200.0
N4860X16.236Y21.464
N4870X16.336Y21.364
N4880X16.436Y21.464
N4890G01Z-2.425F30.0
N4900G01X16.336Y21.564F200.0
N4910X16.236Y21.464
N4920X16.336Y21.364
N4930X16.436Y21.464
N4940G01Z-2.450F30.0
N4950G01X16.336Y21.564F200.0
N4960X16.236Y21.464
N4970X16.336Y21.364
N4980X16.436Y21.464
N4990G01Z-2.475F30.0
N5000G01X16.336Y21.564F200.0
N5010X16.236Y21.464
N5020X16.336Y21.364
N5030X16.436Y21.464
N5040G01Z-2.500F30.0
N5050G01X16.336Y21.564F200.0
N5060X16.236Y21.464
N5070X16.336Y21.364
N5080X16.436Y21.464
N5090G01Z-2.525F30.0
N5100G01X16.336Y21.564F200.0
N5110X16.236Y21.464
N5120X16.336Y21.364
N5130X16.436Y21.464
N5140G01Z-2.550F30.0
N5150G01X16.336Y21.564F200.0
N5160X16.236Y21.464
N5170X16.336Y21.364
N5180X16.436Y21.464
N5190G01Z-2.575F30.0
N5200G01X16.336Y21.564F200.0
N5210X16.236Y21.464
N5220X16.336Y21.364
N5230X16.436Y21.464
N5240G01Z-2.600F30.0
N5250G01X16.336Y21.564F200.0
N5260X16.236Y21.464
N5270X16.336Y21.364
N5280X16.436Y21.464
N5290G01Z-2.625F30.0
N5300G01X16.336Y21.564F200.0
N5310X16.236Y21.464
N5320X16.336Y21.364
N5330X16.436Y21.464
N5340G01Z-2.650F30.0
N5350G01X16.336Y21.564F200.0
N5360X16.236Y21.464
N5370X16.336Y21.364
N5380X16.436Y21.464
N5390G01Z-2.675F30.0
N5400G01X16.336Y21.564F200.0
N5410X16.236Y21.464
N5420X16.336Y21.364
N5430X16.436Y21.464
N5440G01Z-2.700F30.0
N5450G01X16.336Y21.564F200.0
N5460X16.236Y21.464
N5470X16.336Y21.364
N5480X16.436Y21.464
N5490G01Z-2.725F30.0
N5500G01X16.336Y21.564F200.0
N5510X16.236Y21.464
N5520X16.336Y21.364
N5530X16.436Y21.464
N5540G01Z-2.750F30.0
N5550G01X16.336Y21.564F200.0
N5560X16.236Y21.464
N5570X16.336Y21.364
N5580X16.436Y21.464
N5590G01Z-2.775F30.0
N5600G01X16.336Y21.564F200.0
N5610X16.236Y21.464
N5620X16.336Y21.364
N5630X16.436Y21.464
N5640G01Z-2.800F30.0
N5650G01X16.336Y21.564F200.0
N5660X16.236Y21.464
N5670X16.336Y21.364
N5680X16.436Y21.464
N5690G01Z-2.825F30.0
N5700G01X16.336Y21.564F200.0
N5710X16.236Y21.464
N5720X16.336Y21.364
N5730X16.436Y21.464
N5740G01Z-2.850F30.0
N5750G01X16.336Y21.564F200.0
N5760X16.236Y21.464
N5770X16.336Y21.364
N5780X16.436Y21.464
N5790G01Z-2.875F30.0
N5800G01X16.336Y21.564F200.0
N5810X16.236Y21.464
N5820X16.336Y21.364
N5830X16.436Y21.464
N5840G01Z-2.900F30.0
N5850G01X16.336Y21.564F200.0
N5860X16.236Y21.464
N5870X16.336Y21.364
N5880X16.436Y21.464
N5890G01Z-2.925F30.0
N5900G01X16.336Y21.564F200.0
N5910X16.236Y21.464
N5920X16.336Y21.364
N5930X16.436Y21.464
N5940G01Z-2.950F30.0
N5950G01X16.336Y21.564F200.0
N5960X16.236Y21.464
N5970X16.336Y21.364
N5980X16.436Y21.464
N5990G01Z-2.975F30.0
N6000G01X16.336Y21.564F200.0
N6010X16.236Y21.464
N6020X16.336Y21.364
N6030X16.436Y21.464
N6040G01Z-3.000F30.0
N6050G01X16.336Y21.564F200.0
N6060X16.236Y21.464
N6070X16.336Y21.364
N6080X16.436Y21.464
N6090G01Z-3.025F30.0
N6100G01X16.336Y21.564F200.0
N6110X16.236Y21.464
N6120X16.336Y21.364
N6130X16.436Y21.464
N6140G01Z-3.050F30.0
N6150G01X16.336Y21.564F200.0
N6160X16.236Y21.464
N6170X16.336Y21.364
N6180X16.436Y21.464
N6190G01Z-3.075F30.0
N6200G01X16.336Y21.564F200.0
N6210X16.236Y21.464
N6220X16.336Y21.364
N6230X16.436Y21.464
N6240G01Z-3.100F30.0
N6250G01X16.336Y21.564F200.0
N6260X16.236Y21.464
N6270X16.336Y21.364
N6280X16.436Y21.464
N6290G01Z-3.125F30.0
N6300G01X16.336Y21.564F200.0
N6310X16.236Y21.464
N6320X16.336Y21.364
N6330X16.436Y21.464
N6340G01Z-3.150F30.0
N6350G01X16.336Y21.564F200.0
N6360X16.236Y21.464
N6370X16.336Y21.364
N6380X16.436Y21.464
N6390G01Z-3.175F30.0
N6400G01X16.336Y21.564F200.0
N6410X16.236Y21.464
N6420X16.336Y21.364
N6430X16.436Y21.464
N6440G01Z-3.200F30.0
N6450G01X16.336Y21.564F200.0
N6460X16.236Y21.464
N6470X16.336Y21.364
N6480X16.436Y21.464
N6490G00Z6.000
N6500G00X26.436Y38.784
N6510G01Z-0.025F30.0
N6520G01X26.336Y38.884F200.0
N6530X26.236Y38.784
N6540X26.336Y38.684
N6550X26.436Y38.784
N6560G01Z-0.050F30.0
N6570G01X26.336Y38.884F200.0
N6580X26.236Y38.784
N6590X26.336Y38.684
N6600X26.436Y38.784
N6610G01Z-0.075F30.0
N6620G01X26.336Y38.884F200.0
N6630X26.236Y38.784
N6640X26.336Y38.684
N6650X26.436Y38.784
N6660G01Z-0.100F30.0
N6670G01X26.336Y38.884F200.0
N6680X26.236Y38.784
N6690X26.336Y38.684
N6700X26.436Y38.784
N6710G01Z-0.125F30.0
N6720G01X26.336Y38.884F200.0
N6730X26.236Y38.784
N6740X26.336Y38.684
N6750X26.436Y38.784
N6760G01Z-0.150F30.0
N6770G01X26.336Y38.884F200.0
N6780X26.236Y38.784
N6790X26.336Y38.684
N6800X26.436Y38.784
N6810G01Z-0.175F30.0
N6820G01X26.336Y38.884F200.0
N6830X26.236Y38.784
N6840X26.336Y38.684
N6850X26.436Y38.784
N6860G01Z-0.200F30.0
N6870G01X26.336Y38.884F200.0
N6880X26.236Y38.784
N6890X26.336Y38.684
N6900X26.436Y38.784
N6910G01Z-0.225F30.0
N6920G01X26.336Y38.884F200.0
N6930X26.236Y38.784
N6940X26.336Y38.684
N6950X26.436Y38.784
N6960G01Z-0.250F30.0
N6970G01X26.336Y38.884F200.0
N6980X26.236Y38.784
N6990X26.336Y38.684
N7000X26.436Y38.784
N7010G01Z-0.275F30.0
N7020G01X26.336Y38.884F200.0
N7030X26.236Y38.784
N7040X26.336Y38.684
N7050X26.436Y38.784
N7060G01Z-0.300F30.0
N7070G01X26.336Y38.884F200.0
N7080X26.236Y38.784
N7090X26.336Y38.684
N7100X26.436Y38.784
N7110G01Z-0.325F30.0
N7120G01X26.336Y38.884F200.0
N7130X26.236Y38.784
N7140X26.336Y38.684
N7150X26.436Y38.784
N7160G01Z-0.350F30.0
N7170G01X26.336Y38.884F200.0
N7180X26.236Y38.784
N7190X26.336Y38.684
N7200X26.436Y38.784
N7210G01Z-0.375F30.0
N7220G01X26.336Y38.884F200.0
N7230X26.236Y38.784
N7240X26.336Y38.684
N7250X26.436Y38.784
N7260G01Z-0.400F30.0
N7270G01X26.336Y38.884F200.0
N7280X26.236Y38.784
N7290X26.336Y38.684
N7300X26.436Y38.784
N7310G01Z-0.425F30.0
N7320G01X26.336Y38.884F200.0
N7330X26.236Y38.784
N7340X26.336Y38.684
N7350X26.436Y38.784
N7360G01Z-0.450F30.0
N7370G01X26.336Y38.884F200.0
N7380X26.236Y38.784
N7390X26.336Y38.684
N7400X26.436Y38.784
N7410G01Z-0.475F30.0
N7420G01X26.336Y38.884F200.0
N7430X26.236Y38.784
N7440X26.336Y38.684
N7450X26.436Y38.784
N7460G01Z-0.500F30.0
N7470G01X26.336Y38.884F200.0
N7480X26.236Y38.784
N7490X26.336Y38.684
N7500X26.436Y38.784
N7510G01Z-0.525F30.0
N7520G01X26.336Y38.884F200.0
N7530X26.236Y38.784
N7540X26.336Y38.684
N7550X26.436Y38.784
N7560G01Z-0.550F30.0
N7570G01X26.336Y38.884F200.0
N7580X26.236Y38.784
N7590X26.336Y38.684
N7600X26.436Y38.784
N7610G01Z-0.575F30.0
N7620G01X26.336Y38.884F200.0
N7630X26.236Y38.784
N7640X26.336Y38.684
N7650X26.436Y38.784
N7660G01Z-0.600F30.0
N7670G01X26.336Y38.884F200.0
N7680X26.236Y38.784
N7690X26.336Y38.684
N7700X26.436Y38.784
N7710G01Z-0.625F30.0
N7720G01X26.336Y38.884F200.0
N7730X26.236Y38.784
N7740X26.336Y38.684
N7750X26.436Y38.784
N7760G01Z-0.650F30.0
N7770G01X26.336Y38.884F200.0
N7780X26.236Y38.784
N7790X26.336Y38.684
N7800X26.436Y38.784
N7810G01Z-0.675F30.0
N7820G01X26.336Y38.884F200.0
N7830X26.236Y38.784
N7840X26.336Y38.684
N7850X26.436Y38.784
N7860G01Z-0.700F30.0
N7870G01X26.336Y38.884F200.0
N7880X26.236Y38.784
N7890X26.336Y38.684
N7900X26.436Y38.784
N7910G01Z-0.725F30.0
N7920G01X26.336Y38.884F200.0
N7930X26.236Y38.784
N7940X26.336Y38.684
N7950X26.436Y38.784
N7960G01Z-0.750F30.0
N7970G01X26.336Y38.884F200.0
N7980X26.236Y38.784
N7990X26.336Y38.684
N8000X26.436Y38.784
N8010G01Z-0.775F30.0
N8020G01X26.336Y38.884F200.0
N8030X26.236Y38.784
N8040X26.336Y38.684
N8050X26.436Y38.784
N8060G01Z-0.800F30.0
N8070G01X26.336Y38.884F200.0
N8080X26.236Y38.784
N8090X26.336Y38.684
N8100X26.436Y38.784
N8110G01Z-0.825F30.0
N8120G01X26.336Y38.884F200.0
N8130X26.236Y38.784
N8140X26.336Y38.684
N8150X26.436Y38.784
N8160G01Z-0.850F30.0
N8170G01X26.336Y38.884F200.0
N8180X26.236Y38.784
N8190X26.336Y38.684
N8200X26.436Y38.784
N8210G01Z-0.875F30.0
N8220G01X26.336Y38.884F200.0
N8230X26.236Y38.784
N8240X26.336Y38.684
N8250X26.436Y38.784
N8260G01Z-0.900F30.0
N8270G01X26.336Y38.884F200.0
N8280X26.236Y38.784
N8290X26.336Y38.684
N8300X26.436Y38.784
N8310G01Z-0.925F30.0
N8320G01X26.336Y38.884F200.0
N8330X26.236Y38.784
N8340X26.336Y38.684
N8350X26.436Y38.784
N8360G01Z-0.950F30.0
N8370G01X26.336Y38.884F200.0
N8380X26.236Y38.784
N8390X26.336Y38.684
N8400X26.436Y38.784
N8410G01Z-0.975F30.0
N8420G01X26.336Y38.884F200.0
N8430X26.236Y38.784
N8440X26.336Y38.684
N8450X26.436Y38.784
N8460G01Z-1.000F30.0
N8470G01X26.336Y38.884F200.0
N8480X26.236Y38.784
N8490X26.336Y38.684
N8500X26.436Y38.784
N8510G01Z-1.025F30.0
N8520G01X26.336Y38.884F200.0
N8530X26.236Y38.784
N8540X26.336Y38.684
N8550X26.436Y38.784
N8560G01Z-1.050F30.0
N8570G01X26.336Y38.884F200.0
N8580X26.236Y38.784
N8590X26.336Y38.684
N8600X26.436Y38.784
N8610G01Z-1.075F30.0
N8620G01X26.336Y38.884F200.0
N8630X26.236Y38.784
N8640X26.336Y38.684
N8650X26.436Y38.784
N8660G01Z-1.100F30.0
N8670G01X26.336Y38.884F200.0
N8680X26.236Y38.784
N8690X26.336Y38.684
N8700X26.436Y38.784
N8710G01Z-1.125F30.0
N8720G01X26.336Y38.884F200.0
N8730X26.236Y38.784
N8740X26.336Y38.684
N8750X26.436Y38.784
N8760G01Z-1.150F30.0
N8770G01X26.336Y38.884F200.0
N8780X26.236Y38.784
N8790X26.336Y38.684
N8800X26.436Y38.784
N8810G01Z-1.175F30.0
N8820G01X26.336Y38.884F200.0
N8830X26.236Y38.784
N8840X26.336Y38.684
N8850X26.436Y38.784
N8860G01Z-1.200F30.0
N8870G01X26.336Y38.884F200.0
N8880X26.236Y38.784
N8890X26.336Y38.684
N8900X26.436Y38.784
N8910G01Z-1.225F30.0
N8920G01X26.336Y38.884F200.0
N8930X26.236Y38.784
N8940X26.336Y38.684
N8950X26.436Y38.784
N8960G01Z-1.250F30.0
N8970G01X26.336Y38.884F200.0
N8980X26.236Y38.784
N8990X26.336Y38.684
N9000X26.436Y38.784
N9010G01Z-1.275F30.0
N9020G01X26.336Y38.884F200.0
N9030X26.236Y38.784
N9040X26.336Y38.684
N9050X26.436Y38.784
N9060G01Z-1.300F30.0
N9070G01X26.336Y38.884F200.0
N9080X26.236Y38.784
N9090X26.336Y38.684
N9100X26.436Y38.784
N9110G01Z-1.325F30.0
N9120G01X26.336Y38.884F200.0
N9130X26.236Y38.784
N9140X26.336Y38.684
N9150X26.436Y38.784
N9160G01Z-1.350F30.0
N9170G01X26.336Y38.884F200.0
N9180X26.236Y38.784
N9190X26.336Y38.684
N9200X26.436Y38.784
N9210G01Z-1.375F30.0
N9220G01X26.336Y38.884F200.0
N9230X26.236Y38.784
N9240X26.336Y38.684
N9250X26.436Y38.784
N9260G01Z-1.400F30.0
N9270G01X26.336Y38.884F200.0
N9280X26.236Y38.784
N9290X26.336Y38.684
N9300X26.436Y38.784
N9310G01Z-1.425F30.0
N9320G01X26.336Y38.884F200.0
N9330X26.236Y38.784
N9340X26.336Y38.684
N9350X26.436Y38.784
N9360G01Z-1.450F30.0
N9370G01X26.336Y38.884F200.0
N9380X26.236Y38.784
N9390X26.336Y38.684
N9400X26.436Y38.784
N9410G01Z-1.475F30.0
N9420G01X26.336Y38.884F200.0
N9430X26.236Y38.784
N9440X26.336Y38.684
N9450X26.436Y38.784
N9460G01Z-1.500F30.0
N9470G01X26.336Y38.884F200.0
N9480X26.236Y38.784
N9490X26.336Y38.684
N9500X26.436Y38.784
N9510G01Z-1.525F30.0
N9520G01X26.336Y38.884F200.0
N9530X26.236Y38.784
N9540X26.336Y38.684
N9550X26.436Y38.784
N9560G01Z-1.550F30.0
N9570G01X26.336Y38.884F200.0
N9580X26.236Y38.784
N9590X26.336Y38.684
N9600X26.436Y38.784
N9610G01Z-1.575F30.0
N9620G01X26.336Y38.884F200.0
N9630X26.236Y38.784
N9640X26.336Y38.684
N9650X26.436Y38.784
N9660G01Z-1.600F30.0
N9670G01X26.336Y38.884F200.0
N9680X26.236Y38.784
N9690X26.336Y38.684
N9700X26.436Y38.784
N9710G01Z-1.625F30.0
N9720G01X26.336Y38.884F200.0
N9730X26.236Y38.784
N9740X26.336Y38.684
N9750X26.436Y38.784
N9760G01Z-1.650F30.0
N9770G01X26.336Y38.884F200.0
N9780X26.236Y38.784
N9790X26.336Y38.684
N9800X26.436Y38.784
N9810G01Z-1.675F30.0
N9820G01X26.336Y38.884F200.0
N9830X26.236Y38.784
N9840X26.336Y38.684
N9850X26.436Y38.784
N9860G01Z-1.700F30.0
N9870G01X26.336Y38.884F200.0
N9880X26.236Y38.784
N9890X26.336Y38.684
N9900X26.436Y38.784
N9910G01Z-1.725F30.0
N9920G01X26.336Y38.884F200.0
N9930X26.236Y38.784
N9940X26.336Y38.684
N9950X26.436Y38.784
N9960G01Z-1.750F30.0
N9970G01X26.336Y38.884F200.0
N9980X26.236Y38.784
N9990X26.336Y38.684
N10000X26.436Y38.784
N10010G01Z-1.775F30.0
N10020G01X26.336Y38.884F200.0
N10030X26.236Y38.784
N10040X26.336Y38.684
N10050X26.436Y38.784
N10060G01Z-1.800F30.0
N10070G01X26.336Y38.884F200.0
N10080X26.236Y38.784
N10090X26.336Y38.684
N10100X26.436Y38.784
N10110G01Z-1.825F30.0
N10120G01X26.336Y38.884F200.0
N10130X26.236Y38.784
N10140X26.336Y38.684
N10150X26.436Y38.784
N10160G01Z-1.850F30.0
N10170G01X26.336Y38.884F200.0
N10180X26.236Y38.784
N10190X26.336Y38.684
N10200X26.436Y38.784
N10210G01Z-1.875F30.0
N10220G01X26.336Y38.884F200.0
N10230X26.236Y38.784
N10240X26.336Y38.684
N10250X26.436Y38.784
N10260G01Z-1.900F30.0
N10270G01X26.336Y38.884F200.0
N10280X26.236Y38.784
N10290X26.336Y38.684
N10300X26.436Y38.784
N10310G01Z-1.925F30.0
N10320G01X26.336Y38.884F200.0
N10330X26.236Y38.784
N10340X26.336Y38.684
N10350X26.436Y38.784
N10360G01Z-1.950F30.0
N10370G01X26.336Y38.884F200.0
N10380X26.236Y38.784
N10390X26.336Y38.684
N10400X26.436Y38.784
N10410G01Z-1.975F30.0
N10420G01X26.336Y38.884F200.0
N10430X26.236Y38.784
N10440X26.336Y38.684
N10450X26.436Y38.784
N10460G01Z-2.000F30.0
N10470G01X26.336Y38.884F200.0
N10480X26.236Y38.784
N10490X26.336Y38.684
N10500X26.436Y38.784
N10510G01Z-2.025F30.0
N10520G01X26.336Y38.884F200.0
N10530X26.236Y38.784
N10540X26.336Y38.684
N10550X26.436Y38.784
N10560G01Z-2.050F30.0
N10570G01X26.336Y38.884F200.0
N10580X26.236Y38.784
N10590X26.336Y38.684
N10600X26.436Y38.784
N10610G01Z-2.075F30.0
N10620G01X26.336Y38.884F200.0
N10630X26.236Y38.784
N10640X26.336Y38.684
N10650X26.436Y38.784
N10660G01Z-2.100F30.0
N10670G01X26.336Y38.884F200.0
N10680X26.236Y38.784
N10690X26.336Y38.684
N10700X26.436Y38.784
N10710G01Z-2.125F30.0
N10720G01X26.336Y38.884F200.0
N10730X26.236Y38.784
N10740X26.336Y38.684
N10750X26.436Y38.784
N10760G01Z-2.150F30.0
N10770G01X26.336Y38.884F200.0
N10780X26.236Y38.784
N10790X26.336Y38.684
N10800X26.436Y38.784
N10810G01Z-2.175F30.0
N10820G01X26.336Y38.884F200.0
N10830X26.236Y38.784
N10840X26.336Y38.684
N10850X26.436Y38.784
N10860G01Z-2.200F30.0
N10870G01X26.336Y38.884F200.0
N10880X26.236Y38.784
N10890X26.336Y38.684
N10900X26.436Y38.784
N10910G01Z-2.225F30.0
N10920G01X26.336Y38.884F200.0
N10930X26.236Y38.784
N10940X26.336Y38.684
N10950X26.436Y38.784
N10960G01Z-2.250F30.0
N10970G01X26.336Y38.884F200.0
N10980X26.236Y38.784
N10990X26.336Y38.684
N11000X26.436Y38.784
N11010G01Z-2.275F30.0
N11020G01X26.336Y38.884F200.0
N11030X26.236Y38.784
N11040X26.336Y38.684
N11050X26.436Y38.784
N11060G01Z-2.300F30.0
N11070G01X26.336Y38.884F200.0
N11080X26.236Y38.784
N11090X26.336Y38.684
N11100X26.436Y38.784
N11110G01Z-2.325F30.0
N11120G01X26.336Y38.884F200.0
N11130X26.236Y38.784
N11140X26.336Y38.684
N11150X26.436Y38.784
N11160G01Z-2.350F30.0
N11170G01X26.336Y38.884F200.0
N11180X26.236Y38.784
N11190X26.336Y38.684
N11200X26.436Y38.784
N11210G01Z-2.375F30.0
N11220G01X26.336Y38.884F200.0
N11230X26.236Y38.784
N11240X26.336Y38.684
N11250X26.436Y38.784
N11260G01Z-2.400F30.0
N11270G01X26.336Y38.884F200.0
N11280X26.236Y38.784
N11290X26.336Y38.684
N11300X26.436Y38.784
N11310G01Z-2.425F30.0
N11320G01X26.336Y38.884F200.0
N11330X26.236Y38.784
N11340X26.336Y38.684
N11350X26.436Y38.784
N11360G01Z-2.450F30.0
N11370G01X26.336Y38.884F200.0
N11380X26.236Y38.784
N11390X26.336Y38.684
N11400X26.436Y38.784
N11410G01Z-2.475F30.0
N11420G01X26.336Y38.884F200.0
N11430X26.236Y38.784
N11440X26.336Y38.684
N11450X26.436Y38.784
N11460G01Z-2.500F30.0
N11470G01X26.336Y38.884F200.0
N11480X26.236Y38.784
N11490X26.336Y38.684
N11500X26.436Y38.784
N11510G01Z-2.525F30.0
N11520G01X26.336Y38.884F200.0
N11530X26.236Y38.784
N11540X26.336Y38.684
N11550X26.436Y38.784
N11560G01Z-2.550F30.0
N11570G01X26.336Y38.884F200.0
N11580X26.236Y38.784
N11590X26.336Y38.684
N11600X26.436Y38.784
N11610G01Z-2.575F30.0
N11620G01X26.336Y38.884F200.0
N11630X26.236Y38.784
N11640X26.336Y38.684
N11650X26.436Y38.784
N11660G01Z-2.600F30.0
N11670G01X26.336Y38.884F200.0
N11680X26.236Y38.784
N11690X26.336Y38.684
N11700X26.436Y38.784
N11710G01Z-2.625F30.0
N11720G01X26.336Y38.884F200.0
N11730X26.236Y38.784
N11740X26.336Y38.684
N11750X26.436Y38.784
N11760G01Z-2.650F30.0
N11770G01X26.336Y38.884F200.0
N11780X26.236Y38.784
N11790X26.336Y38.684
N11800X26.436Y38.784
N11810G01Z-2.675F30.0
N11820G01X26.336Y38.884F200.0
N11830X26.236Y38.784
N11840X26.336Y38.684
N11850X26.436Y38.784
N11860G01Z-2.700F30.0
N11870G01X26.336Y38.884F200.0
N11880X26.236Y38.784
N11890X26.336Y38.684
N11900X26.436Y38.784
N11910G01Z-2.725F30.0
N11920G01X26.336Y38.884F200.0
N11930X26.236Y38.784
N11940X26.336Y38.684
N11950X26.436Y38.784
N11960G01Z-2.750F30.0
N11970G01X26.336Y38.884F200.0
N11980X26.236Y38.784
N11990X26.336Y38.684
N12000X26.436Y38.784
N12010G01Z-2.775F30.0
N12020G01X26.336Y38.884F200.0
N12030X26.236Y38.784
N12040X26.336Y38.684
N12050X26.436Y38.784
N12060G01Z-2.800F30.0
N12070G01X26.336Y38.884F200.0
N12080X26.236Y38.784
N12090X26.336Y38.684
N12100X26.436Y38.784
N12110G01Z-2.825F30.0
N12120G01X26.336Y38.884F200.0
N12130X26.236Y38.784
N12140X26.336Y38.684
N12150X26.436Y38.784
N12160G01Z-2.850F30.0
N12170G01X26.336Y38.884F200.0
N12180X26.236Y38.784
N12190X26.336Y38.684
N12200X26.436Y38.784
N12210G01Z-2.875F30.0
N12220G01X26.336Y38.884F200.0
N12230X26.236Y38.784
N12240X26.336Y38.684
N12250X26.436Y38.784
N12260G01Z-2.900F30.0
N12270G01X26.336Y38.884F200.0
N12280X26.236Y38.784
N12290X26.336Y38.684
N12300X26.436Y38.784
N12310G01Z-2.925F30.0
N12320G01X26.336Y38.884F200.0
N12330X26.236Y38.784
N12340X26.336Y38.684
N12350X26.436Y38.784
N12360G01Z-2.950F30.0
N12370G01X26.336Y38.884F200.0
N12380X26.236Y38.784
N12390X26.336Y38.684
N12400X26.436Y38.784
N12410G01Z-2.975F30.0
N12420G01X26.336Y38.884F200.0
N12430X26.236Y38.784
N12440X26.336Y38.684
N12450X26.436Y38.784
N12460G01Z-3.000F30.0
N12470G01X26.336Y38.884F200.0
N12480X26.236Y38.784
N12490X26.336Y38.684
N12500X26.436Y38.784
N12510G01Z-3.025F30.0
N12520G01X26.336Y38.884F200.0
N12530X26.236Y38.784
N12540X26.336Y38.684
N12550X26.436Y38.784
N12560G01Z-3.050F30.0
N12570G01X26.336Y38.884F200.0
N12580X26.236Y38.784
N12590X26.336Y38.684
N12600X26.436Y38.784
N12610G01Z-3.075F30.0
N12620G01X26.336Y38.884F200.0
N12630X26.236Y38.784
N12640X26.336Y38.684
N12650X26.436Y38.784
N12660G01Z-3.100F30.0
N12670G01X26.336Y38.884F200.0
N12680X26.236Y38.784
N12690X26.336Y38.684
N12700X26.436Y38.784
N12710G01Z-3.125F30.0
N12720G01X26.336Y38.884F200.0
N12730X26.236Y38.784
N12740X26.336Y38.684
N12750X26.436Y38.784
N12760G01Z-3.150F30.0
N12770G01X26.336Y38.884F200.0
N12780X26.236Y38.784
N12790X26.336Y38.684
N12800X26.436Y38.784
N12810G01Z-3.175F30.0
N12820G01X26.336Y38.884F200.0
N12830X26.236Y38.784
N12840X26.336Y38.684
N12850X26.436Y38.784
N12860G01Z-3.200F30.0
N12870G01X26.336Y38.884F200.0
N12880X26.236Y38.784
N12890X26.336Y38.684
N12900X26.436Y38.784
N12910G00Z6.000
N12920G00X36.436Y56.105
N12930G01Z-0.025F30.0
N12940G01X36.336Y56.205F200.0
N12950X36.236Y56.105
N12960X36.336Y56.005
N12970X36.436Y56.105
N12980G01Z-0.050F30.0
N12990G01X36.336Y56.205F200.0
N13000X36.236Y56.105
N13010X36.336Y56.005
N13020X36.436Y56.105
N13030G01Z-0.075F30.0
N13040G01X36.336Y56.205F200.0
N13050X36.236Y56.105
N13060X36.336Y56.005
N13070X36.436Y56.105
N13080G01Z-0.100F30.0
N13090G01X36.336Y56.205F200.0
N13100X36.236Y56.105
N13110X36.336Y56.005
N13120X36.436Y56.105
N13130G01Z-0.125F30.0
N13140G01X36.336Y56.205F200.0
N13150X36.236Y56.105
N13160X36.336Y56.005
N13170X36.436Y56.105
N13180G01Z-0.150F30.0
N13190G01X36.336Y56.205F200.0
N13200X36.236Y56.105
N13210X36.336Y56.005
N13220X36.436Y56.105
N13230G01Z-0.175F30.0
N13240G01X36.336Y56.205F200.0
N13250X36.236Y56.105
N13260X36.336Y56.005
N13270X36.436Y56.105
N13280G01Z-0.200F30.0
N13290G01X36.336Y56.205F200.0
N13300X36.236Y56.105
N13310X36.336Y56.005
N13320X36.436Y56.105
N13330G01Z-0.225F30.0
N13340G01X36.336Y56.205F200.0
N13350X36.236Y56.105
N13360X36.336Y56.005
N13370X36.436Y56.105
N13380G01Z-0.250F30.0
N13390G01X36.336Y56.205F200.0
N13400X36.236Y56.105
N13410X36.336Y56.005
N13420X36.436Y56.105
N13430G01Z-0.275F30.0
N13440G01X36.336Y56.205F200.0
N13450X36.236Y56.105
N13460X36.336Y56.005
N13470X36.436Y56.105
N13480G01Z-0.300F30.0
N13490G01X36.336Y56.205F200.0
N13500X36.236Y56.105
N13510X36.336Y56.005
N13520X36.436Y56.105
N13530G01Z-0.325F30.0
N13540G01X36.336Y56.205F200.0
N13550X36.236Y56.105
N13560X36.336Y56.005
N13570X36.436Y56.105
N13580G01Z-0.350F30.0
N13590G01X36.336Y56.205F200.0
N13600X36.236Y56.105
N13610X36.336Y56.005
N13620X36.436Y56.105
N13630G01Z-0.375F30.0
N13640G01X36.336Y56.205F200.0
N13650X36.236Y56.105
N13660X36.336Y56.005
N13670X36.436Y56.105
N13680G01Z-0.400F30.0
N13690G01X36.336Y56.205F200.0
N13700X36.236Y56.105
N13710X36.336Y56.005
N13720X36.436Y56.105
N13730G01Z-0.425F30.0
N13740G01X36.336Y56.205F200.0
N13750X36.236Y56.105
N13760X36.336Y56.005
N13770X36.436Y56.105
N13780G01Z-0.450F30.0
N13790G01X36.336Y56.205F200.0
N13800X36.236Y56.105
N13810X36.336Y56.005
N13820X36.436Y56.105
N13830G01Z-0.475F30.0
N13840G01X36.336Y56.205F200.0
N13850X36.236Y56.105
N13860X36.336Y56.005
N13870X36.436Y56.105
N13880G01Z-0.500F30.0
N13890G01X36.336Y56.205F200.0
N13900X36.236Y56.105
N13910X36.336Y56.005
N13920X36.436Y56.105
N13930G01Z-0.525F30.0
N13940G01X36.336Y56.205F200.0
N13950X36.236Y56.105
N13960X36.336Y56.005
N13970X36.436Y56.105
N13980G01Z-0.550F30.0
N13990G01X36.336Y56.205F200.0
N14000X36.236Y56.105
N14010X36.336Y56.005
N14020X36.436Y56.105
N14030G01Z-0.575F30.0
N14040G01X36.336Y56.205F200.0
N14050X36.236Y56.105
N14060X36.336Y56.005
N14070X36.436Y56.105
N14080G01Z-0.600F30.0
N14090G01X36.336Y56.205F200.0
N14100X36.236Y56.105
N14110X36.336Y56.005
N14120X36.436Y56.105
N14130G01Z-0.625F30.0
N14140G01X36.336Y56.205F200.0
N14150X36.236Y56.105
N14160X36.336Y56.005
N14170X36.436Y56.105
N14180G01Z-0.650F30.0
N14190G01X36.336Y56.205F200.0
N14200X36.236Y56.105
N14210X36.336Y56.005
N14220X36.436Y56.105
N14230G01Z-0.675F30.0
N14240G01X36.336Y56.205F200.0
N14250X36.236Y56.105
N14260X36.336Y56.005
N14270X36.436Y56.105
N14280G01Z-0.700F30.0
N14290G01X36.336Y56.205F200.0
N14300X36.236Y56.105
N14310X36.336Y56.005
N14320X36.436Y56.105
N14330G01Z-0.725F30.0
N14340G01X36.336Y56.205F200.0
N14350X36.236Y56.105
N14360X36.336Y56.005
N14370X36.436Y56.105
N14380G01Z-0.750F30.0
N14390G01X36.336Y56.205F200.0
N14400X36.236Y56.105
N14410X36.336Y56.005
N14420X36.436Y56.105
N14430G01Z-0.775F30.0
N14440G01X36.336Y56.205F200.0
N14450X36.236Y56.105
N14460X36.336Y56.005
N14470X36.436Y56.105
N14480G01Z-0.800F30.0
N14490G01X36.336Y56.205F200.0
N14500X36.236Y56.105
N14510X36.336Y56.005
N14520X36.436Y56.105
N14530G01Z-0.825F30.0
N14540G01X36.336Y56.205F200.0
N14550X36.236Y56.105
N14560X36.336Y56.005
N14570X36.436Y56.105
N14580G01Z-0.850F30.0
N14590G01X36.336Y56.205F200.0
N14600X36.236Y56.105
N14610X36.336Y56.005
N14620X36.436Y56.105
N14630G01Z-0.875F30.0
N14640G01X36.336Y56.205F200.0
N14650X36.236Y56.105
N14660X36.336Y56.005
N14670X36.436Y56.105
N14680G01Z-0.900F30.0
N14690G01X36.336Y56.205F200.0
N14700X36.236Y56.105
N14710X36.336Y56.005
N14720X36.436Y56.105
N14730G01Z-0.925F30.0
N14740G01X36.336Y56.205F200.0
N14750X36.236Y56.105
N14760X36.336Y56.005
N14770X36.436Y56.105
N14780G01Z-0.950F30.0
N14790G01X36.336Y56.205F200.0
N14800X36.236Y56.105
N14810X36.336Y56.005
N14820X36.436Y56.105
N14830G01Z-0.975F30.0
N14840G01X36.336Y56.205F200.0
N14850X36.236Y56.105
N14860X36.336Y56.005
N14870X36.436Y56.105
N14880G01Z-1.000F30.0
N14890G01X36.336Y56.205F200.0
N14900X36.236Y56.105
N14910X36.336Y56.005
N14920X36.436Y56.105
N14930G01Z-1.025F30.0
N14940G01X36.336Y56.205F200.0
N14950X36.236Y56.105
N14960X36.336Y56.005
N14970X36.436Y56.105
N14980G01Z-1.050F30.0
N14990G01X36.336Y56.205F200.0
N15000X36.236Y56.105
N15010X36.336Y56.005
N15020X36.436Y56.105
N15030G01Z-1.075F30.0
N15040G01X36.336Y56.205F200.0
N15050X36.236Y56.105
N15060X36.336Y56.005
N15070X36.436Y56.105
N15080G01Z-1.100F30.0
N15090G01X36.336Y56.205F200.0
N15100X36.236Y56.105
N15110X36.336Y56.005
N15120X36.436Y56.105
N15130G01Z-1.125F30.0
N15140G01X36.336Y56.205F200.0
N15150X36.236Y56.105
N15160X36.336Y56.005
N15170X36.436Y56.105
N15180G01Z-1.150F30.0
N15190G01X36.336Y56.205F200.0
N15200X36.236Y56.105
N15210X36.336Y56.005
N15220X36.436Y56.105
N15230G01Z-1.175F30.0
N15240G01X36.336Y56.205F200.0
N15250X36.236Y56.105
N15260X36.336Y56.005
N15270X36.436Y56.105
N15280G01Z-1.200F30.0
N15290G01X36.336Y56.205F200.0
N15300X36.236Y56.105
N15310X36.336Y56.005
N15320X36.436Y56.105
N15330G01Z-1.225F30.0
N15340G01X36.336Y56.205F200.0
N15350X36.236Y56.105
N15360X36.336Y56.005
N15370X36.436Y56.105
N15380G01Z-1.250F30.0
N15390G01X36.336Y56.205F200.0
N15400X36.236Y56.105
N15410X36.336Y56.005
N15420X36.436Y56.105
N15430G01Z-1.275F30.0
N15440G01X36.336Y56.205F200.0
N15450X36.236Y56.105
N15460X36.336Y56.005
N15470X36.436Y56.105
N15480G01Z-1.300F30.0
N15490G01X36.336Y56.205F200.0
N15500X36.236Y56.105
N15510X36.336Y56.005
N15520X36.436Y56.105
N15530G01Z-1.325F30.0
N15540G01X36.336Y56.205F200.0
N15550X36.236Y56.105
N15560X36.336Y56.005
N15570X36.436Y56.105
N15580G01Z-1.350F30.0
N15590G01X36.336Y56.205F200.0
N15600X36.236Y56.105
N15610X36.336Y56.005
N15620X36.436Y56.105
N15630G01Z-1.375F30.0
N15640G01X36.336Y56.205F200.0
N15650X36.236Y56.105
N15660X36.336Y56.005
N15670X36.436Y56.105
N15680G01Z-1.400F30.0
N15690G01X36.336Y56.205F200.0
N15700X36.236Y56.105
N15710X36.336Y56.005
N15720X36.436Y56.105
N15730G01Z-1.425F30.0
N15740G01X36.336Y56.205F200.0
N15750X36.236Y56.105
N15760X36.336Y56.005
N15770X36.436Y56.105
N15780G01Z-1.450F30.0
N15790G01X36.336Y56.205F200.0
N15800X36.236Y56.105
N15810X36.336Y56.005
N15820X36.436Y56.105
N15830G01Z-1.475F30.0
N15840G01X36.336Y56.205F200.0
N15850X36.236Y56.105
N15860X36.336Y56.005
N15870X36.436Y56.105
N15880G01Z-1.500F30.0
N15890G01X36.336Y56.205F200.0
N15900X36.236Y56.105
N15910X36.336Y56.005
N15920X36.436Y56.105
N15930G01Z-1.525F30.0
N15940G01X36.336Y56.205F200.0
N15950X36.236Y56.105
N15960X36.336Y56.005
N15970X36.436Y56.105
N15980G01Z-1.550F30.0
N15990G01X36.336Y56.205F200.0
N16000X36.236Y56.105
N16010X36.336Y56.005
N16020X36.436Y56.105
N16030G01Z-1.575F30.0
N16040G01X36.336Y56.205F200.0
N16050X36.236Y56.105
N16060X36.336Y56.005
N16070X36.436Y56.105
N16080G01Z-1.600F30.0
N16090G01X36.336Y56.205F200.0
N16100X36.236Y56.105
N16110X36.336Y56.005
N16120X36.436Y56.105
N16130G01Z-1.625F30.0
N16140G01X36.336Y56.205F200.0
N16150X36.236Y56.105
N16160X36.336Y56.005
N16170X36.436Y56.105
N16180G01Z-1.650F30.0
N16190G01X36.336Y56.205F200.0
N16200X36.236Y56.105
N16210X36.336Y56.005
N16220X36.436Y56.105
N16230G01Z-1.675F30.0
N16240G01X36.336Y56.205F200.0
N16250X36.236Y56.105
N16260X36.336Y56.005
N16270X36.436Y56.105
N16280G01Z-1.700F30.0
N16290G01X36.336Y56.205F200.0
N16300X36.236Y56.105
N16310X36.336Y56.005
N16320X36.436Y56.105
N16330G01Z-1.725F30.0
N16340G01X36.336Y56.205F200.0
N16350X36.236Y56.105
N16360X36.336Y56.005
N16370X36.436Y56.105
N16380G01Z-1.750F30.0
N16390G01X36.336Y56.205F200.0
N16400X36.236Y56.105
N16410X36.336Y56.005
N16420X36.436Y56.105
N16430G01Z-1.775F30.0
N16440G01X36.336Y56.205F200.0
N16450X36.236Y56.105
N16460X36.336Y56.005
N16470X36.436Y56.105
N16480G01Z-1.800F30.0
N16490G01X36.336Y56.205F200.0
N16500X36.236Y56.105
N16510X36.336Y56.005
N16520X36.436Y56.105
N16530G01Z-1.825F30.0
N16540G01X36.336Y56.205F200.0
N16550X36.236Y56.105
N16560X36.336Y56.005
N16570X36.436Y56.105
N16580G01Z-1.850F30.0
N16590G01X36.336Y56.205F200.0
N16600X36.236Y56.105
N16610X36.336Y56.005
N16620X36.436Y56.105
N16630G01Z-1.875F30.0
N16640G01X36.336Y56.205F200.0
N16650X36.236Y56.105
N16660X36.336Y56.005
N16670X36.436Y56.105
N16680G01Z-1.900F30.0
N16690G01X36.336Y56.205F200.0
N16700X36.236Y56.105
N16710X36.336Y56.005
N16720X36.436Y56.105
N16730G01Z-1.925F30.0
N16740G01X36.336Y56.205F200.0
N16750X36.236Y56.105
N16760X36.336Y56.005
N16770X36.436Y56.105
N16780G01Z-1.950F30.0
N16790G01X36.336Y56.205F200.0
N16800X36.236Y56.105
N16810X36.336Y56.005
N16820X36.436Y56.105
N16830G01Z-1.975F30.0
N16840G01X36.336Y56.205F200.0
N16850X36.236Y56.105
N16860X36.336Y56.005
N16870X36.436Y56.105
N16880G01Z-2.000F30.0
N16890G01X36.336Y56.205F200.0
N16900X36.236Y56.105
N16910X36.336Y56.005
N16920X36.436Y56.105
N16930G01Z-2.025F30.0
N16940G01X36.336Y56.205F200.0
N16950X36.236Y56.105
N16960X36.336Y56.005
N16970X36.436Y56.105
N16980G01Z-2.050F30.0
N16990G01X36.336Y56.205F200.0
N17000X36.236Y56.105
N17010X36.336Y56.005
N17020X36.436Y56.105
N17030G01Z-2.075F30.0
N17040G01X36.336Y56.205F200.0
N17050X36.236Y56.105
N17060X36.336Y56.005
N17070X36.436Y56.105
N17080G01Z-2.100F30.0
N17090G01X36.336Y56.205F200.0
N17100X36.236Y56.105
N17110X36.336Y56.005
N17120X36.436Y56.105
N17130G01Z-2.125F30.0
N17140G01X36.336Y56.205F200.0
N17150X36.236Y56.105
N17160X36.336Y56.005
N17170X36.436Y56.105
N17180G01Z-2.150F30.0
N17190G01X36.336Y56.205F200.0
N17200X36.236Y56.105
N17210X36.336Y56.005
N17220X36.436Y56.105
N17230G01Z-2.175F30.0
N17240G01X36.336Y56.205F200.0
N17250X36.236Y56.105
N17260X36.336Y56.005
N17270X36.436Y56.105
N17280G01Z-2.200F30.0
N17290G01X36.336Y56.205F200.0
N17300X36.236Y56.105
N17310X36.336Y56.005
N17320X36.436Y56.105
N17330G01Z-2.225F30.0
N17340G01X36.336Y56.205F200.0
N17350X36.236Y56.105
N17360X36.336Y56.005
N17370X36.436Y56.105
N17380G01Z-2.250F30.0
N17390G01X36.336Y56.205F200.0
N17400X36.236Y56.105
N17410X36.336Y56.005
N17420X36.436Y56.105
N17430G01Z-2.275F30.0
N17440G01X36.336Y56.205F200.0
N17450X36.236Y56.105
N17460X36.336Y56.005
N17470X36.436Y56.105
N17480G01Z-2.300F30.0
N17490G01X36.336Y56.205F200.0
N17500X36.236Y56.105
N17510X36.336Y56.005
N17520X36.436Y56.105
N17530G01Z-2.325F30.0
N17540G01X36.336Y56.205F200.0
N17550X36.236Y56.105
N17560X36.336Y56.005
N17570X36.436Y56.105
N17580G01Z-2.350F30.0
N17590G01X36.336Y56.205F200.0
N17600X36.236Y56.105
N17610X36.336Y56.005
N17620X36.436Y56.105
N17630G01Z-2.375F30.0
N17640G01X36.336Y56.205F200.0
N17650X36.236Y56.105
N17660X36.336Y56.005
N17670X36.436Y56.105
N17680G01Z-2.400F30.0
N17690G01X36.336Y56.205F200.0
N17700X36.236Y56.105
N17710X36.336Y56.005
N17720X36.436Y56.105
N17730G01Z-2.425F30.0
N17740G01X36.336Y56.205F200.0
N17750X36.236Y56.105
N17760X36.336Y56.005
N17770X36.436Y56.105
N17780G01Z-2.450F30.0
N17790G01X36.336Y56.205F200.0
N17800X36.236Y56.105
N17810X36.336Y56.005
N17820X36.436Y56.105
N17830G01Z-2.475F30.0
N17840G01X36.336Y56.205F200.0
N17850X36.236Y56.105
N17860X36.336Y56.005
N17870X36.436Y56.105
N17880G01Z-2.500F30.0
N17890G01X36.336Y56.205F200.0
N17900X36.236Y56.105
N17910X36.336Y56.005
N17920X36.436Y56.105
N17930G01Z-2.525F30.0
N17940G01X36.336Y56.205F200.0
N17950X36.236Y56.105
N17960X36.336Y56.005
N17970X36.436Y56.105
N17980G01Z-2.550F30.0
N17990G01X36.336Y56.205F200.0
N18000X36.236Y56.105
N18010X36.336Y56.005
N18020X36.436Y56.105
N18030G01Z-2.575F30.0
N18040G01X36.336Y56.205F200.0
N18050X36.236Y56.105
N18060X36.336Y56.005
N18070X36.436Y56.105
N18080G01Z-2.600F30.0
N18090G01X36.336Y56.205F200.0
N18100X36.236Y56.105
N18110X36.336Y56.005
N18120X36.436Y56.105
N18130G01Z-2.625F30.0
N18140G01X36.336Y56.205F200.0
N18150X36.236Y56.105
N18160X36.336Y56.005
N18170X36.436Y56.105
N18180G01Z-2.650F30.0
N18190G01X36.336Y56.205F200.0
N18200X36.236Y56.105
N18210X36.336Y56.005
N18220X36.436Y56.105
N18230G01Z-2.675F30.0
N18240G01X36.336Y56.205F200.0
N18250X36.236Y56.105
N18260X36.336Y56.005
N18270X36.436Y56.105
N18280G01Z-2.700F30.0
N18290G01X36.336Y56.205F200.0
N18300X36.236Y56.105
N18310X36.336Y56.005
N18320X36.436Y56.105
N18330G01Z-2.725F30.0
N18340G01X36.336Y56.205F200.0
N18350X36.236Y56.105
N18360X36.336Y56.005
N18370X36.436Y56.105
N18380G01Z-2.750F30.0
N18390G01X36.336Y56.205F200.0
N18400X36.236Y56.105
N18410X36.336Y56.005
N18420X36.436Y56.105
N18430G01Z-2.775F30.0
N18440G01X36.336Y56.205F200.0
N18450X36.236Y56.105
N18460X36.336Y56.005
N18470X36.436Y56.105
N18480G01Z-2.800F30.0
N18490G01X36.336Y56.205F200.0
N18500X36.236Y56.105
N18510X36.336Y56.005
N18520X36.436Y56.105
N18530G01Z-2.825F30.0
N18540G01X36.336Y56.205F200.0
N18550X36.236Y56.105
N18560X36.336Y56.005
N18570X36.436Y56.105
N18580G01Z-2.850F30.0
N18590G01X36.336Y56.205F200.0
N18600X36.236Y56.105
N18610X36.336Y56.005
N18620X36.436Y56.105
N18630G01Z-2.875F30.0
N18640G01X36.336Y56.205F200.0
N18650X36.236Y56.105
N18660X36.336Y56.005
N18670X36.436Y56.105
N18680G01Z-2.900F30.0
N18690G01X36.336Y56.205F200.0
N18700X36.236Y56.105
N18710X36.336Y56.005
N18720X36.436Y56.105
N18730G01Z-2.925F30.0
N18740G01X36.336Y56.205F200.0
N18750X36.236Y56.105
N18760X36.336Y56.005
N18770X36.436Y56.105
N18780G01Z-2.950F30.0
N18790G01X36.336Y56.205F200.0
N18800X36.236Y56.105
N18810X36.336Y56.005
N18820X36.436Y56.105
N18830G01Z-2.975F30.0
N18840G01X36.336Y56.205F200.0
N18850X36.236Y56.105
N18860X36.336Y56.005
N18870X36.436Y56.105
N18880G01Z-3.000F30.0
N18890G01X36.336Y56.205F200.0
N18900X36.236Y56.105
N18910X36.336Y56.005
N18920X36.436Y56.105
N18930G01Z-3.025F30.0
N18940G01X36.336Y56.205F200.0
N18950X36.236Y56.105
N18960X36.336Y56.005
N18970X36.436Y56.105
N18980G01Z-3.050F30.0
N18990G01X36.336Y56.205F200.0
N19000X36.236Y56.105
N19010X36.336Y56.005
N19020X36.436Y56.105
N19030G01Z-3.075F30.0
N19040G01X36.336Y56.205F200.0
N19050X36.236Y56.105
N19060X36.336Y56.005
N19070X36.436Y56.105
N19080G01Z-3.100F30.0
N19090G01X36.336Y56.205F200.0
N19100X36.236Y56.105
N19110X36.336Y56.005
N19120X36.436Y56.105
N19130G01Z-3.125F30.0
N19140G01X36.336Y56.205F200.0
N19150X36.236Y56.105
N19160X36.336Y56.005
N19170X36.436Y56.105
N19180G01Z-3.150F30.0
N19190G01X36.336Y56.205F200.0
N19200X36.236Y56.105
N19210X36.336Y56.005
N19220X36.436Y56.105
N19230G01Z-3.175F30.0
N19240G01X36.336Y56.205F200.0
N19250X36.236Y56.105
N19260X36.336Y56.005
N19270X36.436Y56.105
N19280G01Z-3.200F30.0
N19290G01X36.336Y56.205F200.0
N19300X36.236Y56.105
N19310X36.336Y56.005
N19320X36.436Y56.105
N19330G00Z6.000
N19340G00X61.591Y82.355
N19350G01Z-0.025F30.0
N19360G01X61.491Y82.455F200.0
N19370X61.391Y82.355
N19380X61.491Y82.255
N19390X61.591Y82.355
N19400G01Z-0.050F30.0
N19410G01X61.491Y82.455F200.0
N19420X61.391Y82.355
N19430X61.491Y82.255
N19440X61.591Y82.355
N19450G01Z-0.075F30.0
N19460G01X61.491Y82.455F200.0
N19470X61.391Y82.355
N19480X61.491Y82.255
N19490X61.591Y82.355
N19500G01Z-0.100F30.0
N19510G01X61.491Y82.455F200.0
N19520X61.391Y82.355
N19530X61.491Y82.255
N19540X61.591Y82.355
N19550G01Z-0.125F30.0
N19560G01X61.491Y82.455F200.0
N19570X61.391Y82.355
N19580X61.491Y82.255
N19590X61.591Y82.355
N19600G01Z-0.150F30.0
N19610G01X61.491Y82.455F200.0
N19620X61.391Y82.355
N19630X61.491Y82.255
N19640X61.591Y82.355
N19650G01Z-0.175F30.0
N19660G01X61.491Y82.455F200.0
N19670X61.391Y82.355
N19680X61.491Y82.255
N19690X61.591Y82.355
N19700G01Z-0.200F30.0
N19710G01X61.491Y82.455F200.0
N19720X61.391Y82.355
N19730X61.491Y82.255
N19740X61.591Y82.355
N19750G01Z-0.225F30.0
N19760G01X61.491Y82.455F200.0
N19770X61.391Y82.355
N19780X61.491Y82.255
N19790X61.591Y82.355
N19800G01Z-0.250F30.0
N19810G01X61.491Y82.455F200.0
N19820X61.391Y82.355
N19830X61.491Y82.255
N19840X61.591Y82.355
N19850G01Z-0.275F30.0
N19860G01X61.491Y82.455F200.0
N19870X61.391Y82.355
N19880X61.491Y82.255
N19890X61.591Y82.355
N19900G01Z-0.300F30.0
N19910G01X61.491Y82.455F200.0
N19920X61.391Y82.355
N19930X61.491Y82.255
N19940X61.591Y82.355
N19950G01Z-0.325F30.0
N19960G01X61.491Y82.455F200.0
N19970X61.391Y82.355
N19980X61.491Y82.255
N19990X61.591Y82.355
N20000G01Z-0.350F30.0
N20010G01X61.491Y82.455F200.0
N20020X61.391Y82.355
N20030X61.491Y82.255
N20040X61.591Y82.355
N20050G01Z-0.375F30.0
N20060G01X61.491Y82.455F200.0
N20070X61.391Y82.355
N20080X61.491Y82.255
N20090X61.591Y82.355
N20100G01Z-0.400F30.0
N20110G01X61.491Y82.455F200.0
N20120X61.391Y82.355
N20130X61.491Y82.255
N20140X61.591Y82.355
N20150G01Z-0.425F30.0
N20160G01X61.491Y82.455F200.0
N20170X61.391Y82.355
N20180X61.491Y82.255
N20190X61.591Y82.355
N20200G01Z-0.450F30.0
N20210G01X61.491Y82.455F200.0
N20220X61.391Y82.355
N20230X61.491Y82.255
N20240X61.591Y82.355
N20250G01Z-0.475F30.0
N20260G01X61.491Y82.455F200.0
N20270X61.391Y82.355
N20280X61.491Y82.255
N20290X61.591Y82.355
N20300G01Z-0.500F30.0
N20310G01X61.491Y82.455F200.0
N20320X61.391Y82.355
N20330X61.491Y82.255
N20340X61.591Y82.355
N20350G01Z-0.525F30.0
N20360G01X61.491Y82.455F200.0
N20370X61.391Y82.355
N20380X61.491Y82.255
N20390X61.591Y82.355
N20400G01Z-0.550F30.0
N20410G01X61.491Y82.455F200.0
N20420X61.391Y82.355
N20430X61.491Y82.255
N20440X61.591Y82.355
N20450G01Z-0.575F30.0
N20460G01X61.491Y82.455F200.0
N20470X61.391Y82.355
N20480X61.491Y82.255
N20490X61.591Y82.355
N20500G01Z-0.600F30.0
N20510G01X61.491Y82.455F200.0
N20520X61.391Y82.355
N20530X61.491Y82.255
N20540X61.591Y82.355
N20550G01Z-0.625F30.0
N20560G01X61.491Y82.455F200.0
N20570X61.391Y82.355
N20580X61.491Y82.255
N20590X61.591Y82.355
N20600G01Z-0.650F30.0
N20610G01X61.491Y82.455F200.0
N20620X61.391Y82.355
N20630X61.491Y82.255
N20640X61.591Y82.355
N20650G01Z-0.675F30.0
N20660G01X61.491Y82.455F200.0
N20670X61.391Y82.355
N20680X61.491Y82.255
N20690X61.591Y82.355
N20700G01Z-0.700F30.0
N20710G01X61.491Y82.455F200.0
N20720X61.391Y82.355
N20730X61.491Y82.255
N20740X61.591Y82.355
N20750G01Z-0.725F30.0
N20760G01X61.491Y82.455F200.0
N20770X61.391Y82.355
N20780X61.491Y82.255
N20790X61.591Y82.355
N20800G01Z-0.750F30.0
N20810G01X61.491Y82.455F200.0
N20820X61.391Y82.355
N20830X61.491Y82.255
N20840X61.591Y82.355
N20850G01Z-0.775F30.0
N20860G01X61.491Y82.455F200.0
N20870X61.391Y82.355
N20880X61.491Y82.255
N20890X61.591Y82.355
N20900G01Z-0.800F30.0
N20910G01X61.491Y82.455F200.0
N20920X61.391Y82.355
N20930X61.491Y82.255
N20940X61.591Y82.355
N20950G01Z-0.825F30.0
N20960G01X61.491Y82.455F200.0
N20970X61.391Y82.355
N20980X61.491Y82.255
N20990X61.591Y82.355
N21000G01Z-0.850F30.0
N21010G01X61.491Y82.455F200.0
N21020X61.391Y82.355
N21030X61.491Y82.255
N21040X61.591Y82.355
N21050G01Z-0.875F30.0
N21060G01X61.491Y82.455F200.0
N21070X61.391Y82.355
N21080X61.491Y82.255
N21090X61.591Y82.355
N21100G01Z-0.900F30.0
N21110G01X61.491Y82.455F200.0
N21120X61.391Y82.355
N21130X61.491Y82.255
N21140X61.591Y82.355
N21150G01Z-0.925F30.0
N21160G01X61.491Y82.455F200.0
N21170X61.391Y82.355
N21180X61.491Y82.255
N21190X61.591Y82.355
N21200G01Z-0.950F30.0
N21210G01X61.491Y82.455F200.0
N21220X61.391Y82.355
N21230X61.491Y82.255
N21240X61.591Y82.355
N21250G01Z-0.975F30.0
N21260G01X61.491Y82.455F200.0
N21270X61.391Y82.355
N21280X61.491Y82.255
N21290X61.591Y82.355
N21300G01Z-1.000F30.0
N21310G01X61.491Y82.455F200.0
N21320X61.391Y82.355
N21330X61.491Y82.255
N21340X61.591Y82.355
N21350G01Z-1.025F30.0
N21360G01X61.491Y82.455F200.0
N21370X61.391Y82.355
N21380X61.491Y82.255
N21390X61.591Y82.355
N21400G01Z-1.050F30.0
N21410G01X61.491Y82.455F200.0
N21420X61.391Y82.355
N21430X61.491Y82.255
N21440X61.591Y82.355
N21450G01Z-1.075F30.0
N21460G01X61.491Y82.455F200.0
N21470X61.391Y82.355
N21480X61.491Y82.255
N21490X61.591Y82.355
N21500G01Z-1.100F30.0
N21510G01X61.491Y82.455F200.0
N21520X61.391Y82.355
N21530X61.491Y82.255
N21540X61.591Y82.355
N21550G01Z-1.125F30.0
N21560G01X61.491Y82.455F200.0
N21570X61.391Y82.355
N21580X61.491Y82.255
N21590X61.591Y82.355
N21600G01Z-1.150F30.0
N21610G01X61.491Y82.455F200.0
N21620X61.391Y82.355
N21630X61.491Y82.255
N21640X61.591Y82.355
N21650G01Z-1.175F30.0
N21660G01X61.491Y82.455F200.0
N21670X61.391Y82.355
N21680X61.491Y82.255
N21690X61.591Y82.355
N21700G01Z-1.200F30.0
N21710G01X61.491Y82.455F200.0
N21720X61.391Y82.355
N21730X61.491Y82.255
N21740X61.591Y82.355
N21750G01Z-1.225F30.0
N21760G01X61.491Y82.455F200.0
N21770X61.391Y82.355
N21780X61.491Y82.255
N21790X61.591Y82.355
N21800G01Z-1.250F30.0
N21810G01X61.491Y82.455F200.0
N21820X61.391Y82.355
N21830X61.491Y82.255
N21840X61.591Y82.355
N21850G01Z-1.275F30.0
N21860G01X61.491Y82.455F200.0
N21870X61.391Y82.355
N21880X61.491Y82.255
N21890X61.591Y82.355
N21900G01Z-1.300F30.0
N21910G01X61.491Y82.455F200.0
N21920X61.391Y82.355
N21930X61.491Y82.255
N21940X61.591Y82.355
N21950G01Z-1.325F30.0
N21960G01X61.491Y82.455F200.0
N21970X61.391Y82.355
N21980X61.491Y82.255
N21990X61.591Y82.355
N22000G01Z-1.350F30.0
N22010G01X61.491Y82.455F200.0
N22020X61.391Y82.355
N22030X61.491Y82.255
N22040X61.591Y82.355
N22050G01Z-1.375F30.0
N22060G01X61.491Y82.455F200.0
N22070X61.391Y82.355
N22080X61.491Y82.255
N22090X61.591Y82.355
N22100G01Z-1.400F30.0
N22110G01X61.491Y82.455F200.0
N22120X61.391Y82.355
N22130X61.491Y82.255
N22140X61.591Y82.355
N22150G01Z-1.425F30.0
N22160G01X61.491Y82.455F200.0
N22170X61.391Y82.355
N22180X61.491Y82.255
N22190X61.591Y82.355
N22200G01Z-1.450F30.0
N22210G01X61.491Y82.455F200.0
N22220X61.391Y82.355
N22230X61.491Y82.255
N22240X61.591Y82.355
N22250G01Z-1.475F30.0
N22260G01X61.491Y82.455F200.0
N22270X61.391Y82.355
N22280X61.491Y82.255
N22290X61.591Y82.355
N22300G01Z-1.500F30.0
N22310G01X61.491Y82.455F200.0
N22320X61.391Y82.355
N22330X61.491Y82.255
N22340X61.591Y82.355
N22350G01Z-1.525F30.0
N22360G01X61.491Y82.455F200.0
N22370X61.391Y82.355
N22380X61.491Y82.255
N22390X61.591Y82.355
N22400G01Z-1.550F30.0
N22410G01X61.491Y82.455F200.0
N22420X61.391Y82.355
N22430X61.491Y82.255
N22440X61.591Y82.355
N22450G01Z-1.575F30.0
N22460G01X61.491Y82.455F200.0
N22470X61.391Y82.355
N22480X61.491Y82.255
N22490X61.591Y82.355
N22500G01Z-1.600F30.0
N22510G01X61.491Y82.455F200.0
N22520X61.391Y82.355
N22530X61.491Y82.255
N22540X61.591Y82.355
N22550G01Z-1.625F30.0
N22560G01X61.491Y82.455F200.0
N22570X61.391Y82.355
N22580X61.491Y82.255
N22590X61.591Y82.355
N22600G01Z-1.650F30.0
N22610G01X61.491Y82.455F200.0
N22620X61.391Y82.355
N22630X61.491Y82.255
N22640X61.591Y82.355
N22650G01Z-1.675F30.0
N22660G01X61.491Y82.455F200.0
N22670X61.391Y82.355
N22680X61.491Y82.255
N22690X61.591Y82.355
N22700G01Z-1.700F30.0
N22710G01X61.491Y82.455F200.0
N22720X61.391Y82.355
N22730X61.491Y82.255
N22740X61.591Y82.355
N22750G01Z-1.725F30.0
N22760G01X61.491Y82.455F200.0
N22770X61.391Y82.355
N22780X61.491Y82.255
N22790X61.591Y82.355
N22800G01Z-1.750F30.0
N22810G01X61.491Y82.455F200.0
N22820X61.391Y82.355
N22830X61.491Y82.255
N22840X61.591Y82.355
N22850G01Z-1.775F30.0
N22860G01X61.491Y82.455F200.0
N22870X61.391Y82.355
N22880X61.491Y82.255
N22890X61.591Y82.355
N22900G01Z-1.800F30.0
N22910G01X61.491Y82.455F200.0
N22920X61.391Y82.355
N22930X61.491Y82.255
N22940X61.591Y82.355
N22950G01Z-1.825F30.0
N22960G01X61.491Y82.455F200.0
N22970X61.391Y82.355
N22980X61.491Y82.255
N22990X61.591Y82.355
N23000G01Z-1.850F30.0
N23010G01X61.491Y82.455F200.0
N23020X61.391Y82.355
N23030X61.491Y82.255
N23040X61.591Y82.355
N23050G01Z-1.875F30.0
N23060G01X61.491Y82.455F200.0
N23070X61.391Y82.355
N23080X61.491Y82.255
N23090X61.591Y82.355
N23100G01Z-1.900F30.0
N23110G01X61.491Y82.455F200.0
N23120X61.391Y82.355
N23130X61.491Y82.255
N23140X61.591Y82.355
N23150G01Z-1.925F30.0
N23160G01X61.491Y82.455F200.0
N23170X61.391Y82.355
N23180X61.491Y82.255
N23190X61.591Y82.355
N23200G01Z-1.950F30.0
N23210G01X61.491Y82.455F200.0
N23220X61.391Y82.355
N23230X61.491Y82.255
N23240X61.591Y82.355
N23250G01Z-1.975F30.0
N23260G01X61.491Y82.455F200.0
N23270X61.391Y82.355
N23280X61.491Y82.255
N23290X61.591Y82.355
N23300G01Z-2.000F30.0
N23310G01X61.491Y82.455F200.0
N23320X61.391Y82.355
N23330X61.491Y82.255
N23340X61.591Y82.355
N23350G01Z-2.025F30.0
N23360G01X61.491Y82.455F200.0
N23370X61.391Y82.355
N23380X61.491Y82.255
N23390X61.591Y82.355
N23400G01Z-2.050F30.0
N23410G01X61.491Y82.455F200.0
N23420X61.391Y82.355
N23430X61.491Y82.255
N23440X61.591Y82.355
N23450G01Z-2.075F30.0
N23460G01X61.491Y82.455F200.0
N23470X61.391Y82.355
N23480X61.491Y82.255
N23490X61.591Y82.355
N23500G01Z-2.100F30.0
N23510G01X61.491Y82.455F200.0
N23520X61.391Y82.355
N23530X61.491Y82.255
N23540X61.591Y82.355
N23550G01Z-2.125F30.0
N23560G01X61.491Y82.455F200.0
N23570X61.391Y82.355
N23580X61.491Y82.255
N23590X61.591Y82.355
N23600G01Z-2.150F30.0
N23610G01X61.491Y82.455F200.0
N23620X61.391Y82.355
N23630X61.491Y82.255
N23640X61.591Y82.355
N23650G01Z-2.175F30.0
N23660G01X61.491Y82.455F200.0
N23670X61.391Y82.355
N23680X61.491Y82.255
N23690X61.591Y82.355
N23700G01Z-2.200F30.0
N23710G01X61.491Y82.455F200.0
N23720X61.391Y82.355
N23730X61.491Y82.255
N23740X61.591Y82.355
N23750G01Z-2.225F30.0
N23760G01X61.491Y82.455F200.0
N23770X61.391Y82.355
N23780X61.491Y82.255
N23790X61.591Y82.355
N23800G01Z-2.250F30.0
N23810G01X61.491Y82.455F200.0
N23820X61.391Y82.355
N23830X61.491Y82.255
N23840X61.591Y82.355
N23850G01Z-2.275F30.0
N23860G01X61.491Y82.455F200.0
N23870X61.391Y82.355
N23880X61.491Y82.255
N23890X61.591Y82.355
N23900G01Z-2.300F30.0
N23910G01X61.491Y82.455F200.0
N23920X61.391Y82.355
N23930X61.491Y82.255
N23940X61.591Y82.355
N23950G01Z-2.325F30.0
N23960G01X61.491Y82.455F200.0
N23970X61.391Y82.355
N23980X61.491Y82.255
N23990X61.591Y82.355
N24000G01Z-2.350F30.0
N24010G01X61.491Y82.455F200.0
N24020X61.391Y82.355
N24030X61.491Y82.255
N24040X61.591Y82.355
N24050G01Z-2.375F30.0
N24060G01X61.491Y82.455F200.0
N24070X61.391Y82.355
N24080X61.491Y82.255
N24090X61.591Y82.355
N24100G01Z-2.400F30.0
N24110G01X61.491Y82.455F200.0
N24120X61.391Y82.355
N24130X61.491Y82.255
N24140X61.591Y82.355
N24150G01Z-2.425F30.0
N24160G01X61.491Y82.455F200.0
N24170X61.391Y82.355
N24180X61.491Y82.255
N24190X61.591Y82.355
N24200G01Z-2.450F30.0
N24210G01X61.491Y82.455F200.0
N24220X61.391Y82.355
N24230X61.491Y82.255
N24240X61.591Y82.355
N24250G01Z-2.475F30.0
N24260G01X61.491Y82.455F200.0
N24270X61.391Y82.355
N24280X61.491Y82.255
N24290X61.591Y82.355
N24300G01Z-2.500F30.0
N24310G01X61.491Y82.455F200.0
N24320X61.391Y82.355
N24330X61.491Y82.255
N24340X61.591Y82.355
N24350G01Z-2.525F30.0
N24360G01X61.491Y82.455F200.0
N24370X61.391Y82.355
N24380X61.491Y82.255
N24390X61.591Y82.355
N24400G01Z-2.550F30.0
N24410G01X61.491Y82.455F200.0
N24420X61.391Y82.355
N24430X61.491Y82.255
N24440X61.591Y82.355
N24450G01Z-2.575F30.0
N24460G01X61.491Y82.455F200.0
N24470X61.391Y82.355
N24480X61.491Y82.255
N24490X61.591Y82.355
N24500G01Z-2.600F30.0
N24510G01X61.491Y82.455F200.0
N24520X61.391Y82.355
N24530X61.491Y82.255
N24540X61.591Y82.355
N24550G01Z-2.625F30.0
N24560G01X61.491Y82.455F200.0
N24570X61.391Y82.355
N24580X61.491Y82.255
N24590X61.591Y82.355
N24600G01Z-2.650F30.0
N24610G01X61.491Y82.455F200.0
N24620X61.391Y82.355
N24630X61.491Y82.255
N24640X61.591Y82.355
N24650G01Z-2.675F30.0
N24660G01X61.491Y82.455F200.0
N24670X61.391Y82.355
N24680X61.491Y82.255
N24690X61.591Y82.355
N24700G01Z-2.700F30.0
N24710G01X61.491Y82.455F200.0
N24720X61.391Y82.355
N24730X61.491Y82.255
N24740X61.591Y82.355
N24750G01Z-2.725F30.0
N24760G01X61.491Y82.455F200.0
N24770X61.391Y82.355
N24780X61.491Y82.255
N24790X61.591Y82.355
N24800G01Z-2.750F30.0
N24810G01X61.491Y82.455F200.0
N24820X61.391Y82.355
N24830X61.491Y82.255
N24840X61.591Y82.355
N24850G01Z-2.775F30.0
N24860G01X61.491Y82.455F200.0
N24870X61.391Y82.355
N24880X61.491Y82.255
N24890X61.591Y82.355
N24900G01Z-2.800F30.0
N24910G01X61.491Y82.455F200.0
N24920X61.391Y82.355
N24930X61.491Y82.255
N24940X61.591Y82.355
N24950G01Z-2.825F30.0
N24960G01X61.491Y82.455F200.0
N24970X61.391Y82.355
N24980X61.491Y82.255
N24990X61.591Y82.355
N25000G01Z-2.850F30.0
N25010G01X61.491Y82.455F200.0
N25020X61.391Y82.355
N25030X61.491Y82.255
N25040X61.591Y82.355
N25050G01Z-2.875F30.0
N25060G01X61.491Y82.455F200.0
N25070X61.391Y82.355
N25080X61.491Y82.255
N25090X61.591Y82.355
N25100G01Z-2.900F30.0
N25110G01X61.491Y82.455F200.0
N25120X61.391Y82.355
N25130X61.491Y82.255
N25140X61.591Y82.355
N25150G01Z-2.925F30.0
N25160G01X61.491Y82.455F200.0
N25170X61.391Y82.355
N25180X61.491Y82.255
N25190X61.591Y82.355
N25200G01Z-2.950F30.0
N25210G01X61.491Y82.455F200.0
N25220X61.391Y82.355
N25230X61.491Y82.255
N25240X61.591Y82.355
N25250G01Z-2.975F30.0
N25260G01X61.491Y82.455F200.0
N25270X61.391Y82.355
N25280X61.491Y82.255
N25290X61.591Y82.355
N25300G01Z-3.000F30.0
N25310G01X61.491Y82.455F200.0
N25320X61.391Y82.355
N25330X61.491Y82.255
N25340X61.591Y82.355
N25350G01Z-3.025F30.0
N25360G01X61.491Y82.455F200.0
N25370X61.391Y82.355
N25380X61.491Y82.255
N25390X61.591Y82.355
N25400G01Z-3.050F30.0
N25410G01X61.491Y82.455F200.0
N25420X61.391Y82.355
N25430X61.491Y82.255
N25440X61.591Y82.355
N25450G01Z-3.075F30.0
N25460G01X61.491Y82.455F200.0
N25470X61.391Y82.355
N25480X61.491Y82.255
N25490X61.591Y82.355
N25500G01Z-3.100F30.0
N25510G01X61.491Y82.455F200.0
N25520X61.391Y82.355
N25530X61.491Y82.255
N25540X61.591Y82.355
N25550G01Z-3.125F30.0
N25560G01X61.491Y82.455F200.0
N25570X61.391Y82.355
N25580X61.491Y82.255
N25590X61.591Y82.355
N25600G01Z-3.150F30.0
N25610G01X61.491Y82.455F200.0
N25620X61.391Y82.355
N25630X61.491Y82.255
N25640X61.591Y82.355
N25650G01Z-3.175F30.0
N25660G01X61.491Y82.455F200.0
N25670X61.391Y82.355
N25680X61.491Y82.255
N25690X61.591Y82.355
N25700G01Z-3.200F30.0
N25710G01X61.491Y82.455F200.0
N25720X61.391Y82.355
N25730X61.491Y82.255
N25740X61.591Y82.355
N25750G00Z6.000
N25760G00X71.591
N25770G01Z-0.025F30.0
N25780G01X71.491Y82.455F200.0
N25790X71.391Y82.355
N25800X71.491Y82.255
N25810X71.591Y82.355
N25820G01Z-0.050F30.0
N25830G01X71.491Y82.455F200.0
N25840X71.391Y82.355
N25850X71.491Y82.255
N25860X71.591Y82.355
N25870G01Z-0.075F30.0
N25880G01X71.491Y82.455F200.0
N25890X71.391Y82.355
N25900X71.491Y82.255
N25910X71.591Y82.355
N25920G01Z-0.100F30.0
N25930G01X71.491Y82.455F200.0
N25940X71.391Y82.355
N25950X71.491Y82.255
N25960X71.591Y82.355
N25970G01Z-0.125F30.0
N25980G01X71.491Y82.455F200.0
N25990X71.391Y82.355
N26000X71.491Y82.255
N26010X71.591Y82.355
N26020G01Z-0.150F30.0
N26030G01X71.491Y82.455F200.0
N26040X71.391Y82.355
N26050X71.491Y82.255
N26060X71.591Y82.355
N26070G01Z-0.175F30.0
N26080G01X71.491Y82.455F200.0
N26090X71.391Y82.355
N26100X71.491Y82.255
N26110X71.591Y82.355
N26120G01Z-0.200F30.0
N26130G01X71.491Y82.455F200.0
N26140X71.391Y82.355
N26150X71.491Y82.255
N26160X71.591Y82.355
N26170G01Z-0.225F30.0
N26180G01X71.491Y82.455F200.0
N26190X71.391Y82.355
N26200X71.491Y82.255
N26210X71.591Y82.355
N26220G01Z-0.250F30.0
N26230G01X71.491Y82.455F200.0
N26240X71.391Y82.355
N26250X71.491Y82.255
N26260X71.591Y82.355
N26270G01Z-0.275F30.0
N26280G01X71.491Y82.455F200.0
N26290X71.391Y82.355
N26300X71.491Y82.255
N26310X71.591Y82.355
N26320G01Z-0.300F30.0
N26330G01X71.491Y82.455F200.0
N26340X71.391Y82.355
N26350X71.491Y82.255
N26360X71.591Y82.355
N26370G01Z-0.325F30.0
N26380G01X71.491Y82.455F200.0
N26390X71.391Y82.355
N26400X71.491Y82.255
N26410X71.591Y82.355
N26420G01Z-0.350F30.0
N26430G01X71.491Y82.455F200.0
N26440X71.391Y82.355
N26450X71.491Y82.255
N26460X71.591Y82.355
N26470G01Z-0.375F30.0
N26480G01X71.491Y82.455F200.0
N26490X71.391Y82.355
N26500X71.491Y82.255
N26510X71.591Y82.355
N26520G01Z-0.400F30.0
N26530G01X71.491Y82.455F200.0
N26540X71.391Y82.355
N26550X71.491Y82.255
N26560X71.591Y82.355
N26570G01Z-0.425F30.0
N26580G01X71.491Y82.455F200.0
N26590X71.391Y82.355
N26600X71.491Y82.255
N26610X71.591Y82.355
N26620G01Z-0.450F30.0
N26630G01X71.491Y82.455F200.0
N26640X71.391Y82.355
N26650X71.491Y82.255
N26660X71.591Y82.355
N26670G01Z-0.475F30.0
N26680G01X71.491Y82.455F200.0
N26690X71.391Y82.355
N26700X71.491Y82.255
N26710X71.591Y82.355
N26720G01Z-0.500F30.0
N26730G01X71.491Y82.455F200.0
N26740X71.391Y82.355
N26750X71.491Y82.255
N26760X71.591Y82.355
N26770G01Z-0.525F30.0
N26780G01X71.491Y82.455F200.0
N26790X71.391Y82.355
N26800X71.491Y82.255
N26810X71.591Y82.355
N26820G01Z-0.550F30.0
N26830G01X71.491Y82.455F200.0
N26840X71.391Y82.355
N26850X71.491Y82.255
N26860X71.591Y82.355
N26870G01Z-0.575F30.0
N26880G01X71.491Y82.455F200.0
N26890X71.391Y82.355
N26900X71.491Y82.255
N26910X71.591Y82.355
N26920G01Z-0.600F30.0
N26930G01X71.491Y82.455F200.0
N26940X71.391Y82.355
N26950X71.491Y82.255
N26960X71.591Y82.355
N26970G01Z-0.625F30.0
N26980G01X71.491Y82.455F200.0
N26990X71.391Y82.355
N27000X71.491Y82.255
N27010X71.591Y82.355
N27020G01Z-0.650F30.0
N27030G01X71.491Y82.455F200.0
N27040X71.391Y82.355
N27050X71.491Y82.255
N27060X71.591Y82.355
N27070G01Z-0.675F30.0
N27080G01X71.491Y82.455F200.0
N27090X71.391Y82.355
N27100X71.491Y82.255
N27110X71.591Y82.355
N27120G01Z-0.700F30.0
N27130G01X71.491Y82.455F200.0
N27140X71.391Y82.355
N27150X71.491Y82.255
N27160X71.591Y82.355
N27170G01Z-0.725F30.0
N27180G01X71.491Y82.455F200.0
N27190X71.391Y82.355
N27200X71.491Y82.255
N27210X71.591Y82.355
N27220G01Z-0.750F30.0
N27230G01X71.491Y82.455F200.0
N27240X71.391Y82.355
N27250X71.491Y82.255
N27260X71.591Y82.355
N27270G01Z-0.775F30.0
N27280G01X71.491Y82.455F200.0
N27290X71.391Y82.355
N27300X71.491Y82.255
N27310X71.591Y82.355
N27320G01Z-0.800F30.0
N27330G01X71.491Y82.455F200.0
N27340X71.391Y82.355
N27350X71.491Y82.255
N27360X71.591Y82.355
N27370G01Z-0.825F30.0
N27380G01X71.491Y82.455F200.0
N27390X71.391Y82.355
N27400X71.491Y82.255
N27410X71.591Y82.355
N27420G01Z-0.850F30.0
N27430G01X71.491Y82.455F200.0
N27440X71.391Y82.355
N27450X71.491Y82.255
N27460X71.591Y82.355
N27470G01Z-0.875F30.0
N27480G01X71.491Y82.455F200.0
N27490X71.391Y82.355
N27500X71.491Y82.255
N27510X71.591Y82.355
N27520G01Z-0.900F30.0
N27530G01X71.491Y82.455F200.0
N27540X71.391Y82.355
N27550X71.491Y82.255
N27560X71.591Y82.355
N27570G01Z-0.925F30.0
N27580G01X71.491Y82.455F200.0
N27590X71.391Y82.355
N27600X71.491Y82.255
N27610X71.591Y82.355
N27620G01Z-0.950F30.0
N27630G01X71.491Y82.455F200.0
N27640X71.391Y82.355
N27650X71.491Y82.255
N27660X71.591Y82.355
N27670G01Z-0.975F30.0
N27680G01X71.491Y82.455F200.0
N27690X71.391Y82.355
N27700X71.491Y82.255
N27710X71.591Y82.355
N27720G01Z-1.000F30.0
N27730G01X71.491Y82.455F200.0
N27740X71.391Y82.355
N27750X71.491Y82.255
N27760X71.591Y82.355
N27770G01Z-1.025F30.0
N27780G01X71.491Y82.455F200.0
N27790X71.391Y82.355
N27800X71.491Y82.255
N27810X71.591Y82.355
N27820G01Z-1.050F30.0
N27830G01X71.491Y82.455F200.0
N27840X71.391Y82.355
N27850X71.491Y82.255
N27860X71.591Y82.355
N27870G01Z-1.075F30.0
N27880G01X71.491Y82.455F200.0
N27890X71.391Y82.355
N27900X71.491Y82.255
N27910X71.591Y82.355
N27920G01Z-1.100F30.0
N27930G01X71.491Y82.455F200.0
N27940X71.391Y82.355
N27950X71.491Y82.255
N27960X71.591Y82.355
N27970G01Z-1.125F30.0
N27980G01X71.491Y82.455F200.0
N27990X71.391Y82.355
N28000X71.491Y82.255
N28010X71.591Y82.355
N28020G01Z-1.150F30.0
N28030G01X71.491Y82.455F200.0
N28040X71.391Y82.355
N28050X71.491Y82.255
N28060X71.591Y82.355
N28070G01Z-1.175F30.0
N28080G01X71.491Y82.455F200.0
N28090X71.391Y82.355
N28100X71.491Y82.255
N28110X71.591Y82.355
N28120G01Z-1.200F30.0
N28130G01X71.491Y82.455F200.0
N28140X71.391Y82.355
N28150X71.491Y82.255
N28160X71.591Y82.355
N28170G01Z-1.225F30.0
N28180G01X71.491Y82.455F200.0
N28190X71.391Y82.355
N28200X71.491Y82.255
N28210X71.591Y82.355
N28220G01Z-1.250F30.0
N28230G01X71.491Y82.455F200.0
N28240X71.391Y82.355
N28250X71.491Y82.255
N28260X71.591Y82.355
N28270G01Z-1.275F30.0
N28280G01X71.491Y82.455F200.0
N28290X71.391Y82.355
N28300X71.491Y82.255
N28310X71.591Y82.355
N28320G01Z-1.300F30.0
N28330G01X71.491Y82.455F200.0
N28340X71.391Y82.355
N28350X71.491Y82.255
N28360X71.591Y82.355
N28370G01Z-1.325F30.0
N28380G01X71.491Y82.455F200.0
N28390X71.391Y82.355
N28400X71.491Y82.255
N28410X71.591Y82.355
N28420G01Z-1.350F30.0
N28430G01X71.491Y82.455F200.0
N28440X71.391Y82.355
N28450X71.491Y82.255
N28460X71.591Y82.355
N28470G01Z-1.375F30.0
N28480G01X71.491Y82.455F200.0
N28490X71.391Y82.355
N28500X71.491Y82.255
N28510X71.591Y82.355
N28520G01Z-1.400F30.0
N28530G01X71.491Y82.455F200.0
N28540X71.391Y82.355
N28550X71.491Y82.255
N28560X71.591Y82.355
N28570G01Z-1.425F30.0
N28580G01X71.491Y82.455F200.0
N28590X71.391Y82.355
N28600X71.491Y82.255
N28610X71.591Y82.355
N28620G01Z-1.450F30.0
N28630G01X71.491Y82.455F200.0
N28640X71.391Y82.355
N28650X71.491Y82.255
N28660X71.591Y82.355
N28670G01Z-1.475F30.0
N28680G01X71.491Y82.455F200.0
N28690X71.391Y82.355
N28700X71.491Y82.255
N28710X71.591Y82.355
N28720G01Z-1.500F30.0
N28730G01X71.491Y82.455F200.0
N28740X71.391Y82.355
N28750X71.491Y82.255
N28760X71.591Y82.355
N28770G01Z-1.525F30.0
N28780G01X71.491Y82.455F200.0
N28790X71.391Y82.355
N28800X71.491Y82.255
N28810X71.591Y82.355
N28820G01Z-1.550F30.0
N28830G01X71.491Y82.455F200.0
N28840X71.391Y82.355
N28850X71.491Y82.255
N28860X71.591Y82.355
N28870G01Z-1.575F30.0
N28880G01X71.491Y82.455F200.0
N28890X71.391Y82.355
N28900X71.491Y82.255
N28910X71.591Y82.355
N28920G01Z-1.600F30.0
N28930G01X71.491Y82.455F200.0
N28940X71.391Y82.355
N28950X71.491Y82.255
N28960X71.591Y82.355
N28970G01Z-1.625F30.0
N28980G01X71.491Y82.455F200.0
N28990X71.391Y82.355
N29000X71.491Y82.255
N29010X71.591Y82.355
N29020G01Z-1.650F30.0
N29030G01X71.491Y82.455F200.0
N29040X71.391Y82.355
N29050X71.491Y82.255
N29060X71.591Y82.355
N29070G01Z-1.675F30.0
N29080G01X71.491Y82.455F200.0
N29090X71.391Y82.355
N29100X71.491Y82.255
N29110X71.591Y82.355
N29120G01Z-1.700F30.0
N29130G01X71.491Y82.455F200.0
N29140X71.391Y82.355
N29150X71.491Y82.255
N29160X71.591Y82.355
N29170G01Z-1.725F30.0
N29180G01X71.491Y82.455F200.0
N29190X71.391Y82.355
N29200X71.491Y82.255
N29210X71.591Y82.355
N29220G01Z-1.750F30.0
N29230G01X71.491Y82.455F200.0
N29240X71.391Y82.355
N29250X71.491Y82.255
N29260X71.591Y82.355
N29270G01Z-1.775F30.0
N29280G01X71.491Y82.455F200.0
N29290X71.391Y82.355
N29300X71.491Y82.255
N29310X71.591Y82.355
N29320G01Z-1.800F30.0
N29330G01X71.491Y82.455F200.0
N29340X71.391Y82.355
N29350X71.491Y82.255
N29360X71.591Y82.355
N29370G01Z-1.825F30.0
N29380G01X71.491Y82.455F200.0
N29390X71.391Y82.355
N29400X71.491Y82.255
N29410X71.591Y82.355
N29420G01Z-1.850F30.0
N29430G01X71.491Y82.455F200.0
N29440X71.391Y82.355
N29450X71.491Y82.255
N29460X71.591Y82.355
N29470G01Z-1.875F30.0
N29480G01X71.491Y82.455F200.0
N29490X71.391Y82.355
N29500X71.491Y82.255
N29510X71.591Y82.355
N29520G01Z-1.900F30.0
N29530G01X71.491Y82.455F200.0
N29540X71.391Y82.355
N29550X71.491Y82.255
N29560X71.591Y82.355
N29570G01Z-1.925F30.0
N29580G01X71.491Y82.455F200.0
N29590X71.391Y82.355
N29600X71.491Y82.255
N29610X71.591Y82.355
N29620G01Z-1.950F30.0
N29630G01X71.491Y82.455F200.0
N29640X71.391Y82.355
N29650X71.491Y82.255
N29660X71.591Y82.355
N29670G01Z-1.975F30.0
N29680G01X71.491Y82.455F200.0
N29690X71.391Y82.355
N29700X71.491Y82.255
N29710X71.591Y82.355
N29720G01Z-2.000F30.0
N29730G01X71.491Y82.455F200.0
N29740X71.391Y82.355
N29750X71.491Y82.255
N29760X71.591Y82.355
N29770G01Z-2.025F30.0
N29780G01X71.491Y82.455F200.0
N29790X71.391Y82.355
N29800X71.491Y82.255
N29810X71.591Y82.355
N29820G01Z-2.050F30.0
N29830G01X71.491Y82.455F200.0
N29840X71.391Y82.355
N29850X71.491Y82.255
N29860X71.591Y82.355
N29870G01Z-2.075F30.0
N29880G01X71.491Y82.455F200.0
N29890X71.391Y82.355
N29900X71.491Y82.255
N29910X71.591Y82.355
N29920G01Z-2.100F30.0
N29930G01X71.491Y82.455F200.0
N29940X71.391Y82.355
N29950X71.491Y82.255
N29960X71.591Y82.355
N29970G01Z-2.125F30.0
N29980G01X71.491Y82.455F200.0
N29990X71.391Y82.355
N30000X71.491Y82.255
N30010X71.591Y82.355
N30020G01Z-2.150F30.0
N30030G01X71.491Y82.455F200.0
N30040X71.391Y82.355
N30050X71.491Y82.255
N30060X71.591Y82.355
N30070G01Z-2.175F30.0
N30080G01X71.491Y82.455F200.0
N30090X71.391Y82.355
N30100X71.491Y82.255
N30110X71.591Y82.355
N30120G01Z-2.200F30.0
N30130G01X71.491Y82.455F200.0
N30140X71.391Y82.355
N30150X71.491Y82.255
N30160X71.591Y82.355
N30170G01Z-2.225F30.0
N30180G01X71.491Y82.455F200.0
N30190X71.391Y82.355
N30200X71.491Y82.255
N30210X71.591Y82.355
N30220G01Z-2.250F30.0
N30230G01X71.491Y82.455F200.0
N30240X71.391Y82.355
N30250X71.491Y82.255
N30260X71.591Y82.355
N30270G01Z-2.275F30.0
N30280G01X71.491Y82.455F200.0
N30290X71.391Y82.355
N30300X71.491Y82.255
N30310X71.591Y82.355
N30320G01Z-2.300F30.0
N30330G01X71.491Y82.455F200.0
N30340X71.391Y82.355
N30350X71.491Y82.255
N30360X71.591Y82.355
N30370G01Z-2.325F30.0
N30380G01X71.491Y82.455F200.0
N30390X71.391Y82.355
N30400X71.491Y82.255
N30410X71.591Y82.355
N30420G01Z-2.350F30.0
N30430G01X71.491Y82.455F200.0
N30440X71.391Y82.355
N30450X71.491Y82.255
N30460X71.591Y82.355
N30470G01Z-2.375F30.0
N30480G01X71.491Y82.455F200.0
N30490X71.391Y82.355
N30500X71.491Y82.255
N30510X71.591Y82.355
N30520G01Z-2.400F30.0
N30530G01X71.491Y82.455F200.0
N30540X71.391Y82.355
N30550X71.491Y82.255
N30560X71.591Y82.355
N30570G01Z-2.425F30.0
N30580G01X71.491Y82.455F200.0
N30590X71.391Y82.355
N30600X71.491Y82.255
N30610X71.591Y82.355
N30620G01Z-2.450F30.0
N30630G01X71.491Y82.455F200.0
N30640X71.391Y82.355
N30650X71.491Y82.255
N30660X71.591Y82.355
N30670G01Z-2.475F30.0
N30680G01X71.491Y82.455F200.0
N30690X71.391Y82.355
N30700X71.491Y82.255
N30710X71.591Y82.355
N30720G01Z-2.500F30.0
N30730G01X71.491Y82.455F200.0
N30740X71.391Y82.355
N30750X71.491Y82.255
N30760X71.591Y82.355
N30770G01Z-2.525F30.0
N30780G01X71.491Y82.455F200.0
N30790X71.391Y82.355
N30800X71.491Y82.255
N30810X71.591Y82.355
N30820G01Z-2.550F30.0
N30830G01X71.491Y82.455F200.0
N30840X71.391Y82.355
N30850X71.491Y82.255
N30860X71.591Y82.355
N30870G01Z-2.575F30.0
N30880G01X71.491Y82.455F200.0
N30890X71.391Y82.355
N30900X71.491Y82.255
N30910X71.591Y82.355
N30920G01Z-2.600F30.0
N30930G01X71.491Y82.455F200.0
N30940X71.391Y82.355
N30950X71.491Y82.255
N30960X71.591Y82.355
N30970G01Z-2.625F30.0
N30980G01X71.491Y82.455F200.0
N30990X71.391Y82.355
N31000X71.491Y82.255
N31010X71.591Y82.355
N31020G01Z-2.650F30.0
N31030G01X71.491Y82.455F200.0
N31040X71.391Y82.355
N31050X71.491Y82.255
N31060X71.591Y82.355
N31070G01Z-2.675F30.0
N31080G01X71.491Y82.455F200.0
N31090X71.391Y82.355
N31100X71.491Y82.255
N31110X71.591Y82.355
N31120G01Z-2.700F30.0
N31130G01X71.491Y82.455F200.0
N31140X71.391Y82.355
N31150X71.491Y82.255
N31160X71.591Y82.355
N31170G01Z-2.725F30.0
N31180G01X71.491Y82.455F200.0
N31190X71.391Y82.355
N31200X71.491Y82.255
N31210X71.591Y82.355
N31220G01Z-2.750F30.0
N31230G01X71.491Y82.455F200.0
N31240X71.391Y82.355
N31250X71.491Y82.255
N31260X71.591Y82.355
N31270G01Z-2.775F30.0
N31280G01X71.491Y82.455F200.0
N31290X71.391Y82.355
N31300X71.491Y82.255
N31310X71.591Y82.355
N31320G01Z-2.800F30.0
N31330G01X71.491Y82.455F200.0
N31340X71.391Y82.355
N31350X71.491Y82.255
N31360X71.591Y82.355
N31370G01Z-2.825F30.0
N31380G01X71.491Y82.455F200.0
N31390X71.391Y82.355
N31400X71.491Y82.255
N31410X71.591Y82.355
N31420G01Z-2.850F30.0
N31430G01X71.491Y82.455F200.0
N31440X71.391Y82.355
N31450X71.491Y82.255
N31460X71.591Y82.355
N31470G01Z-2.875F30.0
N31480G01X71.491Y82.455F200.0
N31490X71.391Y82.355
N31500X71.491Y82.255
N31510X71.591Y82.355
N31520G01Z-2.900F30.0
N31530G01X71.491Y82.455F200.0
N31540X71.391Y82.355
N31550X71.491Y82.255
N31560X71.591Y82.355
N31570G01Z-2.925F30.0
N31580G01X71.491Y82.455F200.0
N31590X71.391Y82.355
N31600X71.491Y82.255
N31610X71.591Y82.355
N31620G01Z-2.950F30.0
N31630G01X71.491Y82.455F200.0
N31640X71.391Y82.355
N31650X71.491Y82.255
N31660X71.591Y82.355
N31670G01Z-2.975F30.0
N31680G01X71.491Y82.455F200.0
N31690X71.391Y82.355
N31700X71.491Y82.255
N31710X71.591Y82.355
N31720G01Z-3.000F30.0
N31730G01X71.491Y82.455F200.0
N31740X71.391Y82.355
N31750X71.491Y82.255
N31760X71.591Y82.355
N31770G01Z-3.025F30.0
N31780G01X71.491Y82.455F200.0
N31790X71.391Y82.355
N31800X71.491Y82.255
N31810X71.591Y82.355
N31820G01Z-3.050F30.0
N31830G01X71.491Y82.455F200.0
N31840X71.391Y82.355
N31850X71.491Y82.255
N31860X71.591Y82.355
N31870G01Z-3.075F30.0
N31880G01X71.491Y82.455F200.0
N31890X71.391Y82.355
N31900X71.491Y82.255
N31910X71.591Y82.355
N31920G01Z-3.100F30.0
N31930G01X71.491Y82.455F200.0
N31940X71.391Y82.355
N31950X71.491Y82.255
N31960X71.591Y82.355
N31970G01Z-3.125F30.0
N31980G01X71.491Y82.455F200.0
N31990X71.391Y82.355
N32000X71.491Y82.255
N32010X71.591Y82.355
N32020G01Z-3.150F30.0
N32030G01X71.491Y82.455F200.0
N32040X71.391Y82.355
N32050X71.491Y82.255
N32060X71.591Y82.355
N32070G01Z-3.175F30.0
N32080G01X71.491Y82.455F200.0
N32090X71.391Y82.355
N32100X71.491Y82.255
N32110X71.591Y82.355
N32120G01Z-3.200F30.0
N32130G01X71.491Y82.455F200.0
N32140X71.391Y82.355
N32150X71.491Y82.255
N32160X71.591Y82.355
N32170G00Z6.000
N32180G00X70.218Y103.755
N32190G01Z-0.025F30.0
N32200G01X70.118Y103.855F200.0
N32210X70.018Y103.755
N32220X70.118Y103.655
N32230X70.218Y103.755
N32240G01Z-0.050F30.0
N32250G01X70.118Y103.855F200.0
N32260X70.018Y103.755
N32270X70.118Y103.655
N32280X70.218Y103.755
N32290G01Z-0.075F30.0
N32300G01X70.118Y103.855F200.0
N32310X70.018Y103.755
N32320X70.118Y103.655
N32330X70.218Y103.755
N32340G01Z-0.100F30.0
N32350G01X70.118Y103.855F200.0
N32360X70.018Y103.755
N32370X70.118Y103.655
N32380X70.218Y103.755
N32390G01Z-0.125F30.0
N32400G01X70.118Y103.855F200.0
N32410X70.018Y103.755
N32420X70.118Y103.655
N32430X70.218Y103.755
N32440G01Z-0.150F30.0
N32450G01X70.118Y103.855F200.0
N32460X70.018Y103.755
N32470X70.118Y103.655
N32480X70.218Y103.755
N32490G01Z-0.175F30.0
N32500G01X70.118Y103.855F200.0
N32510X70.018Y103.755
N32520X70.118Y103.655
N32530X70.218Y103.755
N32540G01Z-0.200F30.0
N32550G01X70.118Y103.855F200.0
N32560X70.018Y103.755
N32570X70.118Y103.655
N32580X70.218Y103.755
N32590G01Z-0.225F30.0
N32600G01X70.118Y103.855F200.0
N32610X70.018Y103.755
N32620X70.118Y103.655
N32630X70.218Y103.755
N32640G01Z-0.250F30.0
N32650G01X70.118Y103.855F200.0
N32660X70.018Y103.755
N32670X70.118Y103.655
N32680X70.218Y103.755
N32690G01Z-0.275F30.0
N32700G01X70.118Y103.855F200.0
N32710X70.018Y103.755
N32720X70.118Y103.655
N32730X70.218Y103.755
N32740G01Z-0.300F30.0
N32750G01X70.118Y103.855F200.0
N32760X70.018Y103.755
N32770X70.118Y103.655
N32780X70.218Y103.755
N32790G01Z-0.325F30.0
N32800G01X70.118Y103.855F200.0
N32810X70.018Y103.755
N32820X70.118Y103.655
N32830X70.218Y103.755
N32840G01Z-0.350F30.0
N32850G01X70.118Y103.855F200.0
N32860X70.018Y103.755
N32870X70.118Y103.655
N32880X70.218Y103.755
N32890G01Z-0.375F30.0
N32900G01X70.118Y103.855F200.0
N32910X70.018Y103.755
N32920X70.118Y103.655
N32930X70.218Y103.755
N32940G01Z-0.400F30.0
N32950G01X70.118Y103.855F200.0
N32960X70.018Y103.755
N32970X70.118Y103.655
N32980X70.218Y103.755
N32990G01Z-0.425F30.0
N33000G01X70.118Y103.855F200.0
N33010X70.018Y103.755
N33020X70.118Y103.655
N33030X70.218Y103.755
N33040G01Z-0.450F30.0
N33050G01X70.118Y103.855F200.0
N33060X70.018Y103.755
N33070X70.118Y103.655
N33080X70.218Y103.755
N33090G01Z-0.475F30.0
N33100G01X70.118Y103.855F200.0
N33110X70.018Y103.755
N33120X70.118Y103.655
N33130X70.218Y103.755
N33140G01Z-0.500F30.0
N33150G01X70.118Y103.855F200.0
N33160X70.018Y103.755
N33170X70.118Y103.655
N33180X70.218Y103.755
N33190G01Z-0.525F30.0
N33200G01X70.118Y103.855F200.0
N33210X70.018Y103.755
N33220X70.118Y103.655
N33230X70.218Y103.755
N33240G01Z-0.550F30.0
N33250G01X70.118Y103.855F200.0
N33260X70.018Y103.755
N33270X70.118Y103.655
N33280X70.218Y103.755
N33290G01Z-0.575F30.0
N33300G01X70.118Y103.855F200.0
N33310X70.018Y103.755
N33320X70.118Y103.655
N33330X70.218Y103.755
N33340G01Z-0.600F30.0
N33350G01X70.118Y103.855F200.0
N33360X70.018Y103.755
N33370X70.118Y103.655
N33380X70.218Y103.755
N33390G01Z-0.625F30.0
N33400G01X70.118Y103.855F200.0
N33410X70.018Y103.755
N33420X70.118Y103.655
N33430X70.218Y103.755
N33440G01Z-0.650F30.0
N33450G01X70.118Y103.855F200.0
N33460X70.018Y103.755
N33470X70.118Y103.655
N33480X70.218Y103.755
N33490G01Z-0.675F30.0
N33500G01X70.118Y103.855F200.0
N33510X70.018Y103.755
N33520X70.118Y103.655
N33530X70.218Y103.755
N33540G01Z-0.700F30.0
N33550G01X70.118Y103.855F200.0
N33560X70.018Y103.755
N33570X70.118Y103.655
N33580X70.218Y103.755
N33590G01Z-0.725F30.0
N33600G01X70.118Y103.855F200.0
N33610X70.018Y103.755
N33620X70.118Y103.655
N33630X70.218Y103.755
N33640G01Z-0.750F30.0
N33650G01X70.118Y103.855F200.0
N33660X70.018Y103.755
N33670X70.118Y103.655
N33680X70.218Y103.755
N33690G01Z-0.775F30.0
N33700G01X70.118Y103.855F200.0
N33710X70.018Y103.755
N33720X70.118Y103.655
N33730X70.218Y103.755
N33740G01Z-0.800F30.0
N33750G01X70.118Y103.855F200.0
N33760X70.018Y103.755
N33770X70.118Y103.655
N33780X70.218Y103.755
N33790G01Z-0.825F30.0
N33800G01X70.118Y103.855F200.0
N33810X70.018Y103.755
N33820X70.118Y103.655
N33830X70.218Y103.755
N33840G01Z-0.850F30.0
N33850G01X70.118Y103.855F200.0
N33860X70.018Y103.755
N33870X70.118Y103.655
N33880X70.218Y103.755
N33890G01Z-0.875F30.0
N33900G01X70.118Y103.855F200.0
N33910X70.018Y103.755
N33920X70.118Y103.655
N33930X70.218Y103.755
N33940G01Z-0.900F30.0
N33950G01X70.118Y103.855F200.0
N33960X70.018Y103.755
N33970X70.118Y103.655
N33980X70.218Y103.755
N33990G01Z-0.925F30.0
N34000G01X70.118Y103.855F200.0
N34010X70.018Y103.755
N34020X70.118Y103.655
N34030X70.218Y103.755
N34040G01Z-0.950F30.0
N34050G01X70.118Y103.855F200.0
N34060X70.018Y103.755
N34070X70.118Y103.655
N34080X70.218Y103.755
N34090G01Z-0.975F30.0
N34100G01X70.118Y103.855F200.0
N34110X70.018Y103.755
N34120X70.118Y103.655
N34130X70.218Y103.755
N34140G01Z-1.000F30.0
N34150G01X70.118Y103.855F200.0
N34160X70.018Y103.755
N34170X70.118Y103.655
N34180X70.218Y103.755
N34190G01Z-1.025F30.0
N34200G01X70.118Y103.855F200.0
N34210X70.018Y103.755
N34220X70.118Y103.655
N34230X70.218Y103.755
N34240G01Z-1.050F30.0
N34250G01X70.118Y103.855F200.0
N34260X70.018Y103.755
N34270X70.118Y103.655
N34280X70.218Y103.755
N34290G01Z-1.075F30.0
N34300G01X70.118Y103.855F200.0
N34310X70.018Y103.755
N34320X70.118Y103.655
N34330X70.218Y103.755
N34340G01Z-1.100F30.0
N34350G01X70.118Y103.855F200.0
N34360X70.018Y103.755
N34370X70.118Y103.655
N34380X70.218Y103.755
N34390G01Z-1.125F30.0
N34400G01X70.118Y103.855F200.0
N34410X70.018Y103.755
N34420X70.118Y103.655
N34430X70.218Y103.755
N34440G01Z-1.150F30.0
N34450G01X70.118Y103.855F200.0
N34460X70.018Y103.755
N34470X70.118Y103.655
N34480X70.218Y103.755
N34490G01Z-1.175F30.0
N34500G01X70.118Y103.855F200.0
N34510X70.018Y103.755
N34520X70.118Y103.655
N34530X70.218Y103.755
N34540G01Z-1.200F30.0
N34550G01X70.118Y103.855F200.0
N34560X70.018Y103.755
N34570X70.118Y103.655
N34580X70.218Y103.755
N34590G01Z-1.225F30.0
N34600G01X70.118Y103.855F200.0
N34610X70.018Y103.755
N34620X70.118Y103.655
N34630X70.218Y103.755
N34640G01Z-1.250F30.0
N34650G01X70.118Y103.855F200.0
N34660X70.018Y103.755
N34670X70.118Y103.655
N34680X70.218Y103.755
N34690G01Z-1.275F30.0
N34700G01X70.118Y103.855F200.0
N34710X70.018Y103.755
N34720X70.118Y103.655
N34730X70.218Y103.755
N34740G01Z-1.300F30.0
N34750G01X70.118Y103.855F200.0
N34760X70.018Y103.755
N34770X70.118Y103.655
N34780X70.218Y103.755
N34790G01Z-1.325F30.0
N34800G01X70.118Y103.855F200.0
N34810X70.018Y103.755
N34820X70.118Y103.655
N34830X70.218Y103.755
N34840G01Z-1.350F30.0
N34850G01X70.118Y103.855F200.0
N34860X70.018Y103.755
N34870X70.118Y103.655
N34880X70.218Y103.755
N34890G01Z-1.375F30.0
N34900G01X70.118Y103.855F200.0
N34910X70.018Y103.755
N34920X70.118Y103.655
N34930X70.218Y103.755
N34940G01Z-1.400F30.0
N34950G01X70.118Y103.855F200.0
N34960X70.018Y103.755
N34970X70.118Y103.655
N34980X70.218Y103.755
N34990G01Z-1.425F30.0
N35000G01X70.118Y103.855F200.0
N35010X70.018Y103.755
N35020X70.118Y103.655
N35030X70.218Y103.755
N35040G01Z-1.450F30.0
N35050G01X70.118Y103.855F200.0
N35060X70.018Y103.755
N35070X70.118Y103.655
N35080X70.218Y103.755
N35090G01Z-1.475F30.0
N35100G01X70.118Y103.855F200.0
N35110X70.018Y103.755
N35120X70.118Y103.655
N35130X70.218Y103.755
N35140G01Z-1.500F30.0
N35150G01X70.118Y103.855F200.0
N35160X70.018Y103.755
N35170X70.118Y103.655
N35180X70.218Y103.755
N35190G01Z-1.525F30.0
N35200G01X70.118Y103.855F200.0
N35210X70.018Y103.755
N35220X70.118Y103.655
N35230X70.218Y103.755
N35240G01Z-1.550F30.0
N35250G01X70.118Y103.855F200.0
N35260X70.018Y103.755
N35270X70.118Y103.655
N35280X70.218Y103.755
N35290G01Z-1.575F30.0
N35300G01X70.118Y103.855F200.0
N35310X70.018Y103.755
N35320X70.118Y103.655
N35330X70.218Y103.755
N35340G01Z-1.600F30.0
N35350G01X70.118Y103.855F200.0
N35360X70.018Y103.755
N35370X70.118Y103.655
N35380X70.218Y103.755
N35390G01Z-1.625F30.0
N35400G01X70.118Y103.855F200.0
N35410X70.018Y103.755
N35420X70.118Y103.655
N35430X70.218Y103.755
N35440G01Z-1.650F30.0
N35450G01X70.118Y103.855F200.0
N35460X70.018Y103.755
N35470X70.118Y103.655
N35480X70.218Y103.755
N35490G01Z-1.675F30.0
N35500G01X70.118Y103.855F200.0
N35510X70.018Y103.755
N35520X70.118Y103.655
N35530X70.218Y103.755
N35540G01Z-1.700F30.0
N35550G01X70.118Y103.855F200.0
N35560X70.018Y103.755
N35570X70.118Y103.655
N35580X70.218Y103.755
N35590G01Z-1.725F30.0
N35600G01X70.118Y103.855F200.0
N35610X70.018Y103.755
N35620X70.118Y103.655
N35630X70.218Y103.755
N35640G01Z-1.750F30.0
N35650G01X70.118Y103.855F200.0
N35660X70.018Y103.755
N35670X70.118Y103.655
N35680X70.218Y103.755
N35690G01Z-1.775F30.0
N35700G01X70.118Y103.855F200.0
N35710X70.018Y103.755
N35720X70.118Y103.655
N35730X70.218Y103.755
N35740G01Z-1.800F30.0
N35750G01X70.118Y103.855F200.0
N35760X70.018Y103.755
N35770X70.118Y103.655
N35780X70.218Y103.755
N35790G01Z-1.825F30.0
N35800G01X70.118Y103.855F200.0
N35810X70.018Y103.755
N35820X70.118Y103.655
N35830X70.218Y103.755
N35840G01Z-1.850F30.0
N35850G01X70.118Y103.855F200.0
N35860X70.018Y103.755
N35870X70.118Y103.655
N35880X70.218Y103.755
N35890G01Z-1.875F30.0
N35900G01X70.118Y103.855F200.0
N35910X70.018Y103.755
N35920X70.118Y103.655
N35930X70.218Y103.755
N35940G01Z-1.900F30.0
N35950G01X70.118Y103.855F200.0
N35960X70.018Y103.755
N35970X70.118Y103.655
N35980X70.218Y103.755
N35990G01Z-1.925F30.0
N36000G01X70.118Y103.855F200.0
N36010X70.018Y103.755
N36020X70.118Y103.655
N36030X70.218Y103.755
N36040G01Z-1.950F30.0
N36050G01X70.118Y103.855F200.0
N36060X70.018Y103.755
N36070X70.118Y103.655
N36080X70.218Y103.755
N36090G01Z-1.975F30.0
N36100G01X70.118Y103.855F200.0
N36110X70.018Y103.755
N36120X70.118Y103.655
N36130X70.218Y103.755
N36140G01Z-2.000F30.0
N36150G01X70.118Y103.855F200.0
N36160X70.018Y103.755
N36170X70.118Y103.655
N36180X70.218Y103.755
N36190G01Z-2.025F30.0
N36200G01X70.118Y103.855F200.0
N36210X70.018Y103.755
N36220X70.118Y103.655
N36230X70.218Y103.755
N36240G01Z-2.050F30.0
N36250G01X70.118Y103.855F200.0
N36260X70.018Y103.755
N36270X70.118Y103.655
N36280X70.218Y103.755
N36290G01Z-2.075F30.0
N36300G01X70.118Y103.855F200.0
N36310X70.018Y103.755
N36320X70.118Y103.655
N36330X70.218Y103.755
N36340G01Z-2.100F30.0
N36350G01X70.118Y103.855F200.0
N36360X70.018Y103.755
N36370X70.118Y103.655
N36380X70.218Y103.755
N36390G01Z-2.125F30.0
N36400G01X70.118Y103.855F200.0
N36410X70.018Y103.755
N36420X70.118Y103.655
N36430X70.218Y103.755
N36440G01Z-2.150F30.0
N36450G01X70.118Y103.855F200.0
N36460X70.018Y103.755
N36470X70.118Y103.655
N36480X70.218Y103.755
N36490G01Z-2.175F30.0
N36500G01X70.118Y103.855F200.0
N36510X70.018Y103.755
N36520X70.118Y103.655
N36530X70.218Y103.755
N36540G01Z-2.200F30.0
N36550G01X70.118Y103.855F200.0
N36560X70.018Y103.755
N36570X70.118Y103.655
N36580X70.218Y103.755
N36590G01Z-2.225F30.0
N36600G01X70.118Y103.855F200.0
N36610X70.018Y103.755
N36620X70.118Y103.655
N36630X70.218Y103.755
N36640G01Z-2.250F30.0
N36650G01X70.118Y103.855F200.0
N36660X70.018Y103.755
N36670X70.118Y103.655
N36680X70.218Y103.755
N36690G01Z-2.275F30.0
N36700G01X70.118Y103.855F200.0
N36710X70.018Y103.755
N36720X70.118Y103.655
N36730X70.218Y103.755
N36740G01Z-2.300F30.0
N36750G01X70.118Y103.855F200.0
N36760X70.018Y103.755
N36770X70.118Y103.655
N36780X70.218Y103.755
N36790G01Z-2.325F30.0
N36800G01X70.118Y103.855F200.0
N36810X70.018Y103.755
N36820X70.118Y103.655
N36830X70.218Y103.755
N36840G01Z-2.350F30.0
N36850G01X70.118Y103.855F200.0
N36860X70.018Y103.755
N36870X70.118Y103.655
N36880X70.218Y103.755
N36890G01Z-2.375F30.0
N36900G01X70.118Y103.855F200.0
N36910X70.018Y103.755
N36920X70.118Y103.655
N36930X70.218Y103.755
N36940G01Z-2.400F30.0
N36950G01X70.118Y103.855F200.0
N36960X70.018Y103.755
N36970X70.118Y103.655
N36980X70.218Y103.755
N36990G01Z-2.425F30.0
N37000G01X70.118Y103.855F200.0
N37010X70.018Y103.755
N37020X70.118Y103.655
N37030X70.218Y103.755
N37040G01Z-2.450F30.0
N37050G01X70.118Y103.855F200.0
N37060X70.018Y103.755
N37070X70.118Y103.655
N37080X70.218Y103.755
N37090G01Z-2.475F30.0
N37100G01X70.118Y103.855F200.0
N37110X70.018Y103.755
N37120X70.118Y103.655
N37130X70.218Y103.755
N37140G01Z-2.500F30.0
N37150G01X70.118Y103.855F200.0
N37160X70.018Y103.755
N37170X70.118Y103.655
N37180X70.218Y103.755
N37190G01Z-2.525F30.0
N37200G01X70.118Y103.855F200.0
N37210X70.018Y103.755
N37220X70.118Y103.655
N37230X70.218Y103.755
N37240G01Z-2.550F30.0
N37250G01X70.118Y103.855F200.0
N37260X70.018Y103.755
N37270X70.118Y103.655
N37280X70.218Y103.755
N37290G01Z-2.575F30.0
N37300G01X70.118Y103.855F200.0
N37310X70.018Y103.755
N37320X70.118Y103.655
N37330X70.218Y103.755
N37340G01Z-2.600F30.0
N37350G01X70.118Y103.855F200.0
N37360X70.018Y103.755
N37370X70.118Y103.655
N37380X70.218Y103.755
N37390G01Z-2.625F30.0
N37400G01X70.118Y103.855F200.0
N37410X70.018Y103.755
N37420X70.118Y103.655
N37430X70.218Y103.755
N37440G01Z-2.650F30.0
N37450G01X70.118Y103.855F200.0
N37460X70.018Y103.755
N37470X70.118Y103.655
N37480X70.218Y103.755
N37490G01Z-2.675F30.0
N37500G01X70.118Y103.855F200.0
N37510X70.018Y103.755
N37520X70.118Y103.655
N37530X70.218Y103.755
N37540G01Z-2.700F30.0
N37550G01X70.118Y103.855F200.0
N37560X70.018Y103.755
N37570X70.118Y103.655
N37580X70.218Y103.755
N37590G01Z-2.725F30.0
N37600G01X70.118Y103.855F200.0
N37610X70.018Y103.755
N37620X70.118Y103.655
N37630X70.218Y103.755
N37640G01Z-2.750F30.0
N37650G01X70.118Y103.855F200.0
N37660X70.018Y103.755
N37670X70.118Y103.655
N37680X70.218Y103.755
N37690G01Z-2.775F30.0
N37700G01X70.118Y103.855F200.0
N37710X70.018Y103.755
N37720X70.118Y103.655
N37730X70.218Y103.755
N37740G01Z-2.800F30.0
N37750G01X70.118Y103.855F200.0
N37760X70.018Y103.755
N37770X70.118Y103.655
N37780X70.218Y103.755
N37790G01Z-2.825F30.0
N37800G01X70.118Y103.855F200.0
N37810X70.018Y103.755
N37820X70.118Y103.655
N37830X70.218Y103.755
N37840G01Z-2.850F30.0
N37850G01X70.118Y103.855F200.0
N37860X70.018Y103.755
N37870X70.118Y103.655
N37880X70.218Y103.755
N37890G01Z-2.875F30.0
N37900G01X70.118Y103.855F200.0
N37910X70.018Y103.755
N37920X70.118Y103.655
N37930X70.218Y103.755
N37940G01Z-2.900F30.0
N37950G01X70.118Y103.855F200.0
N37960X70.018Y103.755
N37970X70.118Y103.655
N37980X70.218Y103.755
N37990G01Z-2.925F30.0
N38000G01X70.118Y103.855F200.0
N38010X70.018Y103.755
N38020X70.118Y103.655
N38030X70.218Y103.755
N38040G01Z-2.950F30.0
N38050G01X70.118Y103.855F200.0
N38060X70.018Y103.755
N38070X70.118Y103.655
N38080X70.218Y103.755
N38090G01Z-2.975F30.0
N38100G01X70.118Y103.855F200.0
N38110X70.018Y103.755
N38120X70.118Y103.655
N38130X70.218Y103.755
N38140G01Z-3.000F30.0
N38150G01X70.118Y103.855F200.0
N38160X70.018Y103.755
N38170X70.118Y103.655
N38180X70.218Y103.755
N38190G01Z-3.025F30.0
N38200G01X70.118Y103.855F200.0
N38210X70.018Y103.755
N38220X70.118Y103.655
N38230X70.218Y103.755
N38240G01Z-3.050F30.0
N38250G01X70.118Y103.855F200.0
N38260X70.018Y103.755
N38270X70.118Y103.655
N38280X70.218Y103.755
N38290G01Z-3.075F30.0
N38300G01X70.118Y103.855F200.0
N38310X70.018Y103.755
N38320X70.118Y103.655
N38330X70.218Y103.755
N38340G01Z-3.100F30.0
N38350G01X70.118Y103.855F200.0
N38360X70.018Y103.755
N38370X70.118Y103.655
N38380X70.218Y103.755
N38390G01Z-3.125F30.0
N38400G01X70.118Y103.855F200.0
N38410X70.018Y103.755
N38420X70.118Y103.655
N38430X70.218Y103.755
N38440G01Z-3.150F30.0
N38450G01X70.118Y103.855F200.0
N38460X70.018Y103.755
N38470X70.118Y103.655
N38480X70.218Y103.755
N38490G01Z-3.175F30.0
N38500G01X70.118Y103.855F200.0
N38510X70.018Y103.755
N38520X70.118Y103.655
N38530X70.218Y103.755
N38540G01Z-3.200F30.0
N38550G01X70.118Y103.855F200.0
N38560X70.018Y103.755
N38570X70.118Y103.655
N38580X70.218Y103.755
N38590G00Z6.000
N38600G00X80.218
N38610G01Z-0.025F30.0
N38620G01X80.118Y103.855F200.0
N38630X80.018Y103.755
N38640X80.118Y103.655
N38650X80.218Y103.755
N38660G01Z-0.050F30.0
N38670G01X80.118Y103.855F200.0
N38680X80.018Y103.755
N38690X80.118Y103.655
N38700X80.218Y103.755
N38710G01Z-0.075F30.0
N38720G01X80.118Y103.855F200.0
N38730X80.018Y103.755
N38740X80.118Y103.655
N38750X80.218Y103.755
N38760G01Z-0.100F30.0
N38770G01X80.118Y103.855F200.0
N38780X80.018Y103.755
N38790X80.118Y103.655
N38800X80.218Y103.755
N38810G01Z-0.125F30.0
N38820G01X80.118Y103.855F200.0
N38830X80.018Y103.755
N38840X80.118Y103.655
N38850X80.218Y103.755
N38860G01Z-0.150F30.0
N38870G01X80.118Y103.855F200.0
N38880X80.018Y103.755
N38890X80.118Y103.655
N38900X80.218Y103.755
N38910G01Z-0.175F30.0
N38920G01X80.118Y103.855F200.0
N38930X80.018Y103.755
N38940X80.118Y103.655
N38950X80.218Y103.755
N38960G01Z-0.200F30.0
N38970G01X80.118Y103.855F200.0
N38980X80.018Y103.755
N38990X80.118Y103.655
N39000X80.218Y103.755
N39010G01Z-0.225F30.0
N39020G01X80.118Y103.855F200.0
N39030X80.018Y103.755
N39040X80.118Y103.655
N39050X80.218Y103.755
N39060G01Z-0.250F30.0
N39070G01X80.118Y103.855F200.0
N39080X80.018Y103.755
N39090X80.118Y103.655
N39100X80.218Y103.755
N39110G01Z-0.275F30.0
N39120G01X80.118Y103.855F200.0
N39130X80.018Y103.755
N39140X80.118Y103.655
N39150X80.218Y103.755
N39160G01Z-0.300F30.0
N39170G01X80.118Y103.855F200.0
N39180X80.018Y103.755
N39190X80.118Y103.655
N39200X80.218Y103.755
N39210G01Z-0.325F30.0
N39220G01X80.118Y103.855F200.0
N39230X80.018Y103.755
N39240X80.118Y103.655
N39250X80.218Y103.755
N39260G01Z-0.350F30.0
N39270G01X80.118Y103.855F200.0
N39280X80.018Y103.755
N39290X80.118Y103.655
N39300X80.218Y103.755
N39310G01Z-0.375F30.0
N39320G01X80.118Y103.855F200.0
N39330X80.018Y103.755
N39340X80.118Y103.655
N39350X80.218Y103.755
N39360G01Z-0.400F30.0
N39370G01X80.118Y103.855F200.0
N39380X80.018Y103.755
N39390X80.118Y103.655
N39400X80.218Y103.755
N39410G01Z-0.425F30.0
N39420G01X80.118Y103.855F200.0
N39430X80.018Y103.755
N39440X80.118Y103.655
N39450X80.218Y103.755
N39460G01Z-0.450F30.0
N39470G01X80.118Y103.855F200.0
N39480X80.018Y103.755
N39490X80.118Y103.655
N39500X80.218Y103.755
N39510G01Z-0.475F30.0
N39520G01X80.118Y103.855F200.0
N39530X80.018Y103.755
N39540X80.118Y103.655
N39550X80.218Y103.755
N39560G01Z-0.500F30.0
N39570G01X80.118Y103.855F200.0
N39580X80.018Y103.755
N39590X80.118Y103.655
N39600X80.218Y103.755
N39610G01Z-0.525F30.0
N39620G01X80.118Y103.855F200.0
N39630X80.018Y103.755
N39640X80.118Y103.655
N39650X80.218Y103.755
N39660G01Z-0.550F30.0
N39670G01X80.118Y103.855F200.0
N39680X80.018Y103.755
N39690X80.118Y103.655
N39700X80.218Y103.755
N39710G01Z-0.575F30.0
N39720G01X80.118Y103.855F200.0
N39730X80.018Y103.755
N39740X80.118Y103.655
N39750X80.218Y103.755
N39760G01Z-0.600F30.0
N39770G01X80.118Y103.855F200.0
N39780X80.018Y103.755
N39790X80.118Y103.655
N39800X80.218Y103.755
N39810G01Z-0.625F30.0
N39820G01X80.118Y103.855F200.0
N39830X80.018Y103.755
N39840X80.118Y103.655
N39850X80.218Y103.755
N39860G01Z-0.650F30.0
N39870G01X80.118Y103.855F200.0
N39880X80.018Y103.755
N39890X80.118Y103.655
N39900X80.218Y103.755
N39910G01Z-0.675F30.0
N39920G01X80.118Y103.855F200.0
N39930X80.018Y103.755
N39940X80.118Y103.655
N39950X80.218Y103.755
N39960G01Z-0.700F30.0
N39970G01X80.118Y103.855F200.0
N39980X80.018Y103.755
N39990X80.118Y103.655
N40000X80.218Y103.755
N40010G01Z-0.725F30.0
N40020G01X80.118Y103.855F200.0
N40030X80.018Y103.755
N40040X80.118Y103.655
N40050X80.218Y103.755
N40060G01Z-0.750F30.0
N40070G01X80.118Y103.855F200.0
N40080X80.018Y103.755
N40090X80.118Y103.655
N40100X80.218Y103.755
N40110G01Z-0.775F30.0
N40120G01X80.118Y103.855F200.0
N40130X80.018Y103.755
N40140X80.118Y103.655
N40150X80.218Y103.755
N40160G01Z-0.800F30.0
N40170G01X80.118Y103.855F200.0
N40180X80.018Y103.755
N40190X80.118Y103.655
N40200X80.218Y103.755
N40210G01Z-0.825F30.0
N40220G01X80.118Y103.855F200.0
N40230X80.018Y103.755
N40240X80.118Y103.655
N40250X80.218Y103.755
N40260G01Z-0.850F30.0
N40270G01X80.118Y103.855F200.0
N40280X80.018Y103.755
N40290X80.118Y103.655
N40300X80.218Y103.755
N40310G01Z-0.875F30.0
N40320G01X80.118Y103.855F200.0
N40330X80.018Y103.755
N40340X80.118Y103.655
N40350X80.218Y103.755
N40360G01Z-0.900F30.0
N40370G01X80.118Y103.855F200.0
N40380X80.018Y103.755
N40390X80.118Y103.655
N40400X80.218Y103.755
N40410G01Z-0.925F30.0
N40420G01X80.118Y103.855F200.0
N40430X80.018Y103.755
N40440X80.118Y103.655
N40450X80.218Y103.755
N40460G01Z-0.950F30.0
N40470G01X80.118Y103.855F200.0
N40480X80.018Y103.755
N40490X80.118Y103.655
N40500X80.218Y103.755
N40510G01Z-0.975F30.0
N40520G01X80.118Y103.855F200.0
N40530X80.018Y103.755
N40540X80.118Y103.655
N40550X80.218Y103.755
N40560G01Z-1.000F30.0
N40570G01X80.118Y103.855F200.0
N40580X80.018Y103.755
N40590X80.118Y103.655
N40600X80.218Y103.755
N40610G01Z-1.025F30.0
N40620G01X80.118Y103.855F200.0
N40630X80.018Y103.755
N40640X80.118Y103.655
N40650X80.218Y103.755
N40660G01Z-1.050F30.0
N40670G01X80.118Y103.855F200.0
N40680X80.018Y103.755
N40690X80.118Y103.655
N40700X80.218Y103.755
N40710G01Z-1.075F30.0
N40720G01X80.118Y103.855F200.0
N40730X80.018Y103.755
N40740X80.118Y103.655
N40750X80.218Y103.755
N40760G01Z-1.100F30.0
N40770G01X80.118Y103.855F200.0
N40780X80.018Y103.755
N40790X80.118Y103.655
N40800X80.218Y103.755
N40810G01Z-1.125F30.0
N40820G01X80.118Y103.855F200.0
N40830X80.018Y103.755
N40840X80.118Y103.655
N40850X80.218Y103.755
N40860G01Z-1.150F30.0
N40870G01X80.118Y103.855F200.0
N40880X80.018Y103.755
N40890X80.118Y103.655
N40900X80.218Y103.755
N40910G01Z-1.175F30.0
N40920G01X80.118Y103.855F200.0
N40930X80.018Y103.755
N40940X80.118Y103.655
N40950X80.218Y103.755
N40960G01Z-1.200F30.0
N40970G01X80.118Y103.855F200.0
N40980X80.018Y103.755
N40990X80.118Y103.655
N41000X80.218Y103.755
N41010G01Z-1.225F30.0
N41020G01X80.118Y103.855F200.0
N41030X80.018Y103.755
N41040X80.118Y103.655
N41050X80.218Y103.755
N41060G01Z-1.250F30.0
N41070G01X80.118Y103.855F200.0
N41080X80.018Y103.755
N41090X80.118Y103.655
N41100X80.218Y103.755
N41110G01Z-1.275F30.0
N41120G01X80.118Y103.855F200.0
N41130X80.018Y103.755
N41140X80.118Y103.655
N41150X80.218Y103.755
N41160G01Z-1.300F30.0
N41170G01X80.118Y103.855F200.0
N41180X80.018Y103.755
N41190X80.118Y103.655
N41200X80.218Y103.755
N41210G01Z-1.325F30.0
N41220G01X80.118Y103.855F200.0
N41230X80.018Y103.755
N41240X80.118Y103.655
N41250X80.218Y103.755
N41260G01Z-1.350F30.0
N41270G01X80.118Y103.855F200.0
N41280X80.018Y103.755
N41290X80.118Y103.655
N41300X80.218Y103.755
N41310G01Z-1.375F30.0
N41320G01X80.118Y103.855F200.0
N41330X80.018Y103.755
N41340X80.118Y103.655
N41350X80.218Y103.755
N41360G01Z-1.400F30.0
N41370G01X80.118Y103.855F200.0
N41380X80.018Y103.755
N41390X80.118Y103.655
N41400X80.218Y103.755
N41410G01Z-1.425F30.0
N41420G01X80.118Y103.855F200.0
N41430X80.018Y103.755
N41440X80.118Y103.655
N41450X80.218Y103.755
N41460G01Z-1.450F30.0
N41470G01X80.118Y103.855F200.0
N41480X80.018Y103.755
N41490X80.118Y103.655
N41500X80.218Y103.755
N41510G01Z-1.475F30.0
N41520G01X80.118Y103.855F200.0
N41530X80.018Y103.755
N41540X80.118Y103.655
N41550X80.218Y103.755
N41560G01Z-1.500F30.0
N41570G01X80.118Y103.855F200.0
N41580X80.018Y103.755
N41590X80.118Y103.655
N41600X80.218Y103.755
N41610G01Z-1.525F30.0
N41620G01X80.118Y103.855F200.0
N41630X80.018Y103.755
N41640X80.118Y103.655
N41650X80.218Y103.755
N41660G01Z-1.550F30.0
N41670G01X80.118Y103.855F200.0
N41680X80.018Y103.755
N41690X80.118Y103.655
N41700X80.218Y103.755
N41710G01Z-1.575F30.0
N41720G01X80.118Y103.855F200.0
N41730X80.018Y103.755
N41740X80.118Y103.655
N41750X80.218Y103.755
N41760G01Z-1.600F30.0
N41770G01X80.118Y103.855F200.0
N41780X80.018Y103.755
N41790X80.118Y103.655
N41800X80.218Y103.755
N41810G01Z-1.625F30.0
N41820G01X80.118Y103.855F200.0
N41830X80.018Y103.755
N41840X80.118Y103.655
N41850X80.218Y103.755
N41860G01Z-1.650F30.0
N41870G01X80.118Y103.855F200.0
N41880X80.018Y103.755
N41890X80.118Y103.655
N41900X80.218Y103.755
N41910G01Z-1.675F30.0
N41920G01X80.118Y103.855F200.0
N41930X80.018Y103.755
N41940X80.118Y103.655
N41950X80.218Y103.755
N41960G01Z-1.700F30.0
N41970G01X80.118Y103.855F200.0
N41980X80.018Y103.755
N41990X80.118Y103.655
N42000X80.218Y103.755
N42010G01Z-1.725F30.0
N42020G01X80.118Y103.855F200.0
N42030X80.018Y103.755
N42040X80.118Y103.655
N42050X80.218Y103.755
N42060G01Z-1.750F30.0
N42070G01X80.118Y103.855F200.0
N42080X80.018Y103.755
N42090X80.118Y103.655
N42100X80.218Y103.755
N42110G01Z-1.775F30.0
N42120G01X80.118Y103.855F200.0
N42130X80.018Y103.755
N42140X80.118Y103.655
N42150X80.218Y103.755
N42160G01Z-1.800F30.0
N42170G01X80.118Y103.855F200.0
N42180X80.018Y103.755
N42190X80.118Y103.655
N42200X80.218Y103.755
N42210G01Z-1.825F30.0
N42220G01X80.118Y103.855F200.0
N42230X80.018Y103.755
N42240X80.118Y103.655
N42250X80.218Y103.755
N42260G01Z-1.850F30.0
N42270G01X80.118Y103.855F200.0
N42280X80.018Y103.755
N42290X80.118Y103.655
N42300X80.218Y103.755
N42310G01Z-1.875F30.0
N42320G01X80.118Y103.855F200.0
N42330X80.018Y103.755
N42340X80.118Y103.655
N42350X80.218Y103.755
N42360G01Z-1.900F30.0
N42370G01X80.118Y103.855F200.0
N42380X80.018Y103.755
N42390X80.118Y103.655
N42400X80.218Y103.755
N42410G01Z-1.925F30.0
N42420G01X80.118Y103.855F200.0
N42430X80.018Y103.755
N42440X80.118Y103.655
N42450X80.218Y103.755
N42460G01Z-1.950F30.0
N42470G01X80.118Y103.855F200.0
N42480X80.018Y103.755
N42490X80.118Y103.655
N42500X80.218Y103.755
N42510G01Z-1.975F30.0
N42520G01X80.118Y103.855F200.0
N42530X80.018Y103.755
N42540X80.118Y103.655
N42550X80.218Y103.755
N42560G01Z-2.000F30.0
N42570G01X80.118Y103.855F200.0
N42580X80.018Y103.755
N42590X80.118Y103.655
N42600X80.218Y103.755
N42610G01Z-2.025F30.0
N42620G01X80.118Y103.855F200.0
N42630X80.018Y103.755
N42640X80.118Y103.655
N42650X80.218Y103.755
N42660G01Z-2.050F30.0
N42670G01X80.118Y103.855F200.0
N42680X80.018Y103.755
N42690X80.118Y103.655
N42700X80.218Y103.755
N42710G01Z-2.075F30.0
N42720G01X80.118Y103.855F200.0
N42730X80.018Y103.755
N42740X80.118Y103.655
N42750X80.218Y103.755
N42760G01Z-2.100F30.0
N42770G01X80.118Y103.855F200.0
N42780X80.018Y103.755
N42790X80.118Y103.655
N42800X80.218Y103.755
N42810G01Z-2.125F30.0
N42820G01X80.118Y103.855F200.0
N42830X80.018Y103.755
N42840X80.118Y103.655
N42850X80.218Y103.755
N42860G01Z-2.150F30.0
N42870G01X80.118Y103.855F200.0
N42880X80.018Y103.755
N42890X80.118Y103.655
N42900X80.218Y103.755
N42910G01Z-2.175F30.0
N42920G01X80.118Y103.855F200.0
N42930X80.018Y103.755
N42940X80.118Y103.655
N42950X80.218Y103.755
N42960G01Z-2.200F30.0
N42970G01X80.118Y103.855F200.0
N42980X80.018Y103.755
N42990X80.118Y103.655
N43000X80.218Y103.755
N43010G01Z-2.225F30.0
N43020G01X80.118Y103.855F200.0
N43030X80.018Y103.755
N43040X80.118Y103.655
N43050X80.218Y103.755
N43060G01Z-2.250F30.0
N43070G01X80.118Y103.855F200.0
N43080X80.018Y103.755
N43090X80.118Y103.655
N43100X80.218Y103.755
N43110G01Z-2.275F30.0
N43120G01X80.118Y103.855F200.0
N43130X80.018Y103.755
N43140X80.118Y103.655
N43150X80.218Y103.755
N43160G01Z-2.300F30.0
N43170G01X80.118Y103.855F200.0
N43180X80.018Y103.755
N43190X80.118Y103.655
N43200X80.218Y103.755
N43210G01Z-2.325F30.0
N43220G01X80.118Y103.855F200.0
N43230X80.018Y103.755
N43240X80.118Y103.655
N43250X80.218Y103.755
N43260G01Z-2.350F30.0
N43270G01X80.118Y103.855F200.0
N43280X80.018Y103.755
N43290X80.118Y103.655
N43300X80.218Y103.755
N43310G01Z-2.375F30.0
N43320G01X80.118Y103.855F200.0
N43330X80.018Y103.755
N43340X80.118Y103.655
N43350X80.218Y103.755
N43360G01Z-2.400F30.0
N43370G01X80.118Y103.855F200.0
N43380X80.018Y103.755
N43390X80.118Y103.655
N43400X80.218Y103.755
N43410G01Z-2.425F30.0
N43420G01X80.118Y103.855F200.0
N43430X80.018Y103.755
N43440X80.118Y103.655
N43450X80.218Y103.755
N43460G01Z-2.450F30.0
N43470G01X80.118Y103.855F200.0
N43480X80.018Y103.755
N43490X80.118Y103.655
N43500X80.218Y103.755
N43510G01Z-2.475F30.0
N43520G01X80.118Y103.855F200.0
N43530X80.018Y103.755
N43540X80.118Y103.655
N43550X80.218Y103.755
N43560G01Z-2.500F30.0
N43570G01X80.118Y103.855F200.0
N43580X80.018Y103.755
