( Profile 1 )
( USBCNC Postprocessor )
N20G00G21G17G90G40G49
N30G80
N40G00G43Z20.000H5
N50S8000M03
N60G94
N70X0.000Y0.000F600.0
N80G00X13.600Y18.874Z6.000
N90G01Z-0.050F30.0
N100G3X13.500Y18.974I-0.100J0.000F600.0
N110G3X13.400Y18.874I0.000J-0.100
N120G3X13.500Y18.774I0.100J0.000
N130G3X13.600Y18.874I0.000J0.100
N140G01Z-0.100F30.0
N150G3X13.500Y18.974I-0.100J0.000F600.0
N160G3X13.400Y18.874I0.000J-0.100
N170G3X13.500Y18.774I0.100J0.000
N180G3X13.600Y18.874I0.000J0.100
N190G01Z-0.150F30.0
N200G3X13.500Y18.974I-0.100J0.000F600.0
N210G3X13.400Y18.874I0.000J-0.100
N220G3X13.500Y18.774I0.100J0.000
N230G3X13.600Y18.874I0.000J0.100
N240G01Z-0.200F30.0
N250G3X13.500Y18.974I-0.100J0.000F600.0
N260G3X13.400Y18.874I0.000J-0.100
N270G3X13.500Y18.774I0.100J0.000
N280G3X13.600Y18.874I0.000J0.100
N290G01Z-0.250F30.0
N300G3X13.500Y18.974I-0.100J0.000F600.0
N310G3X13.400Y18.874I0.000J-0.100
N320G3X13.500Y18.774I0.100J0.000
N330G3X13.600Y18.874I0.000J0.100
N340G01Z-0.300F30.0
N350G3X13.500Y18.974I-0.100J0.000F600.0
N360G3X13.400Y18.874I0.000J-0.100
N370G3X13.500Y18.774I0.100J0.000
N380G3X13.600Y18.874I0.000J0.100
N390G01Z-0.350F30.0
N400G3X13.500Y18.974I-0.100J0.000F600.0
N410G3X13.400Y18.874I0.000J-0.100
N420G3X13.500Y18.774I0.100J0.000
N430G3X13.600Y18.874I0.000J0.100
N440G01Z-0.400F30.0
N450G3X13.500Y18.974I-0.100J0.000F600.0
N460G3X13.400Y18.874I0.000J-0.100
N470G3X13.500Y18.774I0.100J0.000
N480G3X13.600Y18.874I0.000J0.100
N490G01Z-0.450F30.0
N500G3X13.500Y18.974I-0.100J0.000F600.0
N510G3X13.400Y18.874I0.000J-0.100
N520G3X13.500Y18.774I0.100J0.000
N530G3X13.600Y18.874I0.000J0.100
N540G01Z-0.500F30.0
N550G3X13.500Y18.974I-0.100J0.000F600.0
N560G3X13.400Y18.874I0.000J-0.100
N570G3X13.500Y18.774I0.100J0.000
N580G3X13.600Y18.874I0.000J0.100
N590G01Z-0.550F30.0
N600G3X13.500Y18.974I-0.100J0.000F600.0
N610G3X13.400Y18.874I0.000J-0.100
N620G3X13.500Y18.774I0.100J0.000
N630G3X13.600Y18.874I0.000J0.100
N640G01Z-0.600F30.0
N650G3X13.500Y18.974I-0.100J0.000F600.0
N660G3X13.400Y18.874I0.000J-0.100
N670G3X13.500Y18.774I0.100J0.000
N680G3X13.600Y18.874I0.000J0.100
N690G01Z-0.650F30.0
N700G3X13.500Y18.974I-0.100J0.000F600.0
N710G3X13.400Y18.874I0.000J-0.100
N720G3X13.500Y18.774I0.100J0.000
N730G3X13.600Y18.874I0.000J0.100
N740G01Z-0.700F30.0
N750G3X13.500Y18.974I-0.100J0.000F600.0
N760G3X13.400Y18.874I0.000J-0.100
N770G3X13.500Y18.774I0.100J0.000
N780G3X13.600Y18.874I0.000J0.100
N790G01Z-0.750F30.0
N800G3X13.500Y18.974I-0.100J0.000F600.0
N810G3X13.400Y18.874I0.000J-0.100
N820G3X13.500Y18.774I0.100J0.000
N830G3X13.600Y18.874I0.000J0.100
N840G01Z-0.800F30.0
N850G3X13.500Y18.974I-0.100J0.000F600.0
N860G3X13.400Y18.874I0.000J-0.100
N870G3X13.500Y18.774I0.100J0.000
N880G3X13.600Y18.874I0.000J0.100
N890G01Z-0.850F30.0
N900G3X13.500Y18.974I-0.100J0.000F600.0
N910G3X13.400Y18.874I0.000J-0.100
N920G3X13.500Y18.774I0.100J0.000
N930G3X13.600Y18.874I0.000J0.100
N940G01Z-0.900F30.0
N950G3X13.500Y18.974I-0.100J0.000F600.0
N960G3X13.400Y18.874I0.000J-0.100
N970G3X13.500Y18.774I0.100J0.000
N980G3X13.600Y18.874I0.000J0.100
N990G01Z-0.950F30.0
N1000G3X13.500Y18.974I-0.100J0.000F600.0
N1010G3X13.400Y18.874I0.000J-0.100
N1020G3X13.500Y18.774I0.100J0.000
N1030G3X13.600Y18.874I0.000J0.100
N1040G01Z-1.000F30.0
N1050G3X13.500Y18.974I-0.100J0.000F600.0
N1060G3X13.400Y18.874I0.000J-0.100
N1070G3X13.500Y18.774I0.100J0.000
N1080G3X13.600Y18.874I0.000J0.100
N1090G01Z-1.050F30.0
N1100G3X13.500Y18.974I-0.100J0.000F600.0
N1110G3X13.400Y18.874I0.000J-0.100
N1120G3X13.500Y18.774I0.100J0.000
N1130G3X13.600Y18.874I0.000J0.100
N1140G01Z-1.100F30.0
N1150G3X13.500Y18.974I-0.100J0.000F600.0
N1160G3X13.400Y18.874I0.000J-0.100
N1170G3X13.500Y18.774I0.100J0.000
N1180G3X13.600Y18.874I0.000J0.100
N1190G01Z-1.150F30.0
N1200G3X13.500Y18.974I-0.100J0.000F600.0
N1210G3X13.400Y18.874I0.000J-0.100
N1220G3X13.500Y18.774I0.100J0.000
N1230G3X13.600Y18.874I0.000J0.100
N1240G01Z-1.200F30.0
N1250G3X13.500Y18.974I-0.100J0.000F600.0
N1260G3X13.400Y18.874I0.000J-0.100
N1270G3X13.500Y18.774I0.100J0.000
N1280G3X13.600Y18.874I0.000J0.100
N1290G01Z-1.250F30.0
N1300G3X13.500Y18.974I-0.100J0.000F600.0
N1310G3X13.400Y18.874I0.000J-0.100
N1320G3X13.500Y18.774I0.100J0.000
N1330G3X13.600Y18.874I0.000J0.100
N1340G01Z-1.300F30.0
N1350G3X13.500Y18.974I-0.100J0.000F600.0
N1360G3X13.400Y18.874I0.000J-0.100
N1370G3X13.500Y18.774I0.100J0.000
N1380G3X13.600Y18.874I0.000J0.100
N1390G01Z-1.350F30.0
N1400G3X13.500Y18.974I-0.100J0.000F600.0
N1410G3X13.400Y18.874I0.000J-0.100
N1420G3X13.500Y18.774I0.100J0.000
N1430G3X13.600Y18.874I0.000J0.100
N1440G01Z-1.400F30.0
N1450G3X13.500Y18.974I-0.100J0.000F600.0
N1460G3X13.400Y18.874I0.000J-0.100
N1470G3X13.500Y18.774I0.100J0.000
N1480G3X13.600Y18.874I0.000J0.100
N1490G01Z-1.450F30.0
N1500G3X13.500Y18.974I-0.100J0.000F600.0
N1510G3X13.400Y18.874I0.000J-0.100
N1520G3X13.500Y18.774I0.100J0.000
N1530G3X13.600Y18.874I0.000J0.100
N1540G01Z-1.500F30.0
N1550G3X13.500Y18.974I-0.100J0.000F600.0
N1560G3X13.400Y18.874I0.000J-0.100
N1570G3X13.500Y18.774I0.100J0.000
N1580G3X13.600Y18.874I0.000J0.100
N1590G01Z-1.550F30.0
N1600G3X13.500Y18.974I-0.100J0.000F600.0
N1610G3X13.400Y18.874I0.000J-0.100
N1620G3X13.500Y18.774I0.100J0.000
N1630G3X13.600Y18.874I0.000J0.100
N1640G01Z-1.600F30.0
N1650G3X13.500Y18.974I-0.100J0.000F600.0
N1660G3X13.400Y18.874I0.000J-0.100
N1670G3X13.500Y18.774I0.100J0.000
N1680G3X13.600Y18.874I0.000J0.100
N1690G01Z-1.650F30.0
N1700G3X13.500Y18.974I-0.100J0.000F600.0
N1710G3X13.400Y18.874I0.000J-0.100
N1720G3X13.500Y18.774I0.100J0.000
N1730G3X13.600Y18.874I0.000J0.100
N1740G01Z-1.700F30.0
N1750G3X13.500Y18.974I-0.100J0.000F600.0
N1760G3X13.400Y18.874I0.000J-0.100
N1770G3X13.500Y18.774I0.100J0.000
N1780G3X13.600Y18.874I0.000J0.100
N1790G01Z-1.750F30.0
N1800G3X13.500Y18.974I-0.100J0.000F600.0
N1810G3X13.400Y18.874I0.000J-0.100
N1820G3X13.500Y18.774I0.100J0.000
N1830G3X13.600Y18.874I0.000J0.100
N1840G01Z-1.800F30.0
N1850G3X13.500Y18.974I-0.100J0.000F600.0
N1860G3X13.400Y18.874I0.000J-0.100
N1870G3X13.500Y18.774I0.100J0.000
N1880G3X13.600Y18.874I0.000J0.100
N1890G01Z-1.850F30.0
N1900G3X13.500Y18.974I-0.100J0.000F600.0
N1910G3X13.400Y18.874I0.000J-0.100
N1920G3X13.500Y18.774I0.100J0.000
N1930G3X13.600Y18.874I0.000J0.100
N1940G01Z-1.900F30.0
N1950G3X13.500Y18.974I-0.100J0.000F600.0
N1960G3X13.400Y18.874I0.000J-0.100
N1970G3X13.500Y18.774I0.100J0.000
N1980G3X13.600Y18.874I0.000J0.100
N1990G01Z-1.950F30.0
N2000G3X13.500Y18.974I-0.100J0.000F600.0
N2010G3X13.400Y18.874I0.000J-0.100
N2020G3X13.500Y18.774I0.100J0.000
N2030G3X13.600Y18.874I0.000J0.100
N2040G01Z-2.000F30.0
N2050G3X13.500Y18.974I-0.100J0.000F600.0
N2060G3X13.400Y18.874I0.000J-0.100
N2070G3X13.500Y18.774I0.100J0.000
N2080G3X13.600Y18.874I0.000J0.100
N2090G01Z-2.050F30.0
N2100G3X13.500Y18.974I-0.100J0.000F600.0
N2110G3X13.400Y18.874I0.000J-0.100
N2120G3X13.500Y18.774I0.100J0.000
N2130G3X13.600Y18.874I0.000J0.100
N2140G01Z-2.100F30.0
N2150G3X13.500Y18.974I-0.100J0.000F600.0
N2160G3X13.400Y18.874I0.000J-0.100
N2170G3X13.500Y18.774I0.100J0.000
N2180G3X13.600Y18.874I0.000J0.100
N2190G01Z-2.150F30.0
N2200G3X13.500Y18.974I-0.100J0.000F600.0
N2210G3X13.400Y18.874I0.000J-0.100
N2220G3X13.500Y18.774I0.100J0.000
N2230G3X13.600Y18.874I0.000J0.100
N2240G01Z-2.200F30.0
N2250G3X13.500Y18.974I-0.100J0.000F600.0
N2260G3X13.400Y18.874I0.000J-0.100
N2270G3X13.500Y18.774I0.100J0.000
N2280G3X13.600Y18.874I0.000J0.100
N2290G01Z-2.250F30.0
N2300G3X13.500Y18.974I-0.100J0.000F600.0
N2310G3X13.400Y18.874I0.000J-0.100
N2320G3X13.500Y18.774I0.100J0.000
N2330G3X13.600Y18.874I0.000J0.100
N2340G01Z-2.300F30.0
N2350G3X13.500Y18.974I-0.100J0.000F600.0
N2360G3X13.400Y18.874I0.000J-0.100
N2370G3X13.500Y18.774I0.100J0.000
N2380G3X13.600Y18.874I0.000J0.100
N2390G01Z-2.350F30.0
N2400G3X13.500Y18.974I-0.100J0.000F600.0
N2410G3X13.400Y18.874I0.000J-0.100
N2420G3X13.500Y18.774I0.100J0.000
N2430G3X13.600Y18.874I0.000J0.100
N2440G01Z-2.400F30.0
N2450G3X13.500Y18.974I-0.100J0.000F600.0
N2460G3X13.400Y18.874I0.000J-0.100
N2470G3X13.500Y18.774I0.100J0.000
N2480G3X13.600Y18.874I0.000J0.100
N2490G01Z-2.450F30.0
N2500G3X13.500Y18.974I-0.100J0.000F600.0
N2510G3X13.400Y18.874I0.000J-0.100
N2520G3X13.500Y18.774I0.100J0.000
N2530G3X13.600Y18.874I0.000J0.100
N2540G01Z-2.500F30.0
N2550G3X13.500Y18.974I-0.100J0.000F600.0
N2560G3X13.400Y18.874I0.000J-0.100
N2570G3X13.500Y18.774I0.100J0.000
N2580G3X13.600Y18.874I0.000J0.100
N2590G01Z-2.550F30.0
N2600G3X13.500Y18.974I-0.100J0.000F600.0
N2610G3X13.400Y18.874I0.000J-0.100
N2620G3X13.500Y18.774I0.100J0.000
N2630G3X13.600Y18.874I0.000J0.100
N2640G01Z-2.600F30.0
N2650G3X13.500Y18.974I-0.100J0.000F600.0
N2660G3X13.400Y18.874I0.000J-0.100
N2670G3X13.500Y18.774I0.100J0.000
N2680G3X13.600Y18.874I0.000J0.100
N2690G01Z-2.650F30.0
N2700G3X13.500Y18.974I-0.100J0.000F600.0
N2710G3X13.400Y18.874I0.000J-0.100
N2720G3X13.500Y18.774I0.100J0.000
N2730G3X13.600Y18.874I0.000J0.100
N2740G01Z-2.700F30.0
N2750G3X13.500Y18.974I-0.100J0.000F600.0
N2760G3X13.400Y18.874I0.000J-0.100
N2770G3X13.500Y18.774I0.100J0.000
N2780G3X13.600Y18.874I0.000J0.100
N2790G01Z-2.750F30.0
N2800G3X13.500Y18.974I-0.100J0.000F600.0
N2810G3X13.400Y18.874I0.000J-0.100
N2820G3X13.500Y18.774I0.100J0.000
N2830G3X13.600Y18.874I0.000J0.100
N2840G01Z-2.800F30.0
N2850G3X13.500Y18.974I-0.100J0.000F600.0
N2860G3X13.400Y18.874I0.000J-0.100
N2870G3X13.500Y18.774I0.100J0.000
N2880G3X13.600Y18.874I0.000J0.100
N2890G01Z-2.850F30.0
N2900G3X13.500Y18.974I-0.100J0.000F600.0
N2910G3X13.400Y18.874I0.000J-0.100
N2920G3X13.500Y18.774I0.100J0.000
N2930G3X13.600Y18.874I0.000J0.100
N2940G01Z-2.900F30.0
N2950G3X13.500Y18.974I-0.100J0.000F600.0
N2960G3X13.400Y18.874I0.000J-0.100
N2970G3X13.500Y18.774I0.100J0.000
N2980G3X13.600Y18.874I0.000J0.100
N2990G01Z-2.950F30.0
N3000G3X13.500Y18.974I-0.100J0.000F600.0
N3010G3X13.400Y18.874I0.000J-0.100
N3020G3X13.500Y18.774I0.100J0.000
N3030G3X13.600Y18.874I0.000J0.100
N3040G01Z-3.000F30.0
N3050G3X13.500Y18.974I-0.100J0.000F600.0
N3060G3X13.400Y18.874I0.000J-0.100
N3070G3X13.500Y18.774I0.100J0.000
N3080G3X13.600Y18.874I0.000J0.100
N3090G00Z6.000
N3100G00Y33.874
N3110G01Z-0.050F30.0
N3120G3X13.500Y33.974I-0.100J0.000F600.0
N3130G3X13.400Y33.874I0.000J-0.100
N3140G3X13.500Y33.774I0.100J0.000
N3150G3X13.600Y33.874I0.000J0.100
N3160G01Z-0.100F30.0
N3170G3X13.500Y33.974I-0.100J0.000F600.0
N3180G3X13.400Y33.874I0.000J-0.100
N3190G3X13.500Y33.774I0.100J0.000
N3200G3X13.600Y33.874I0.000J0.100
N3210G01Z-0.150F30.0
N3220G3X13.500Y33.974I-0.100J0.000F600.0
N3230G3X13.400Y33.874I0.000J-0.100
N3240G3X13.500Y33.774I0.100J0.000
N3250G3X13.600Y33.874I0.000J0.100
N3260G01Z-0.200F30.0
N3270G3X13.500Y33.974I-0.100J0.000F600.0
N3280G3X13.400Y33.874I0.000J-0.100
N3290G3X13.500Y33.774I0.100J0.000
N3300G3X13.600Y33.874I0.000J0.100
N3310G01Z-0.250F30.0
N3320G3X13.500Y33.974I-0.100J0.000F600.0
N3330G3X13.400Y33.874I0.000J-0.100
N3340G3X13.500Y33.774I0.100J0.000
N3350G3X13.600Y33.874I0.000J0.100
N3360G01Z-0.300F30.0
N3370G3X13.500Y33.974I-0.100J0.000F600.0
N3380G3X13.400Y33.874I0.000J-0.100
N3390G3X13.500Y33.774I0.100J0.000
N3400G3X13.600Y33.874I0.000J0.100
N3410G01Z-0.350F30.0
N3420G3X13.500Y33.974I-0.100J0.000F600.0
N3430G3X13.400Y33.874I0.000J-0.100
N3440G3X13.500Y33.774I0.100J0.000
N3450G3X13.600Y33.874I0.000J0.100
N3460G01Z-0.400F30.0
N3470G3X13.500Y33.974I-0.100J0.000F600.0
N3480G3X13.400Y33.874I0.000J-0.100
N3490G3X13.500Y33.774I0.100J0.000
N3500G3X13.600Y33.874I0.000J0.100
N3510G01Z-0.450F30.0
N3520G3X13.500Y33.974I-0.100J0.000F600.0
N3530G3X13.400Y33.874I0.000J-0.100
N3540G3X13.500Y33.774I0.100J0.000
N3550G3X13.600Y33.874I0.000J0.100
N3560G01Z-0.500F30.0
N3570G3X13.500Y33.974I-0.100J0.000F600.0
N3580G3X13.400Y33.874I0.000J-0.100
N3590G3X13.500Y33.774I0.100J0.000
N3600G3X13.600Y33.874I0.000J0.100
N3610G01Z-0.550F30.0
N3620G3X13.500Y33.974I-0.100J0.000F600.0
N3630G3X13.400Y33.874I0.000J-0.100
N3640G3X13.500Y33.774I0.100J0.000
N3650G3X13.600Y33.874I0.000J0.100
N3660G01Z-0.600F30.0
N3670G3X13.500Y33.974I-0.100J0.000F600.0
N3680G3X13.400Y33.874I0.000J-0.100
N3690G3X13.500Y33.774I0.100J0.000
N3700G3X13.600Y33.874I0.000J0.100
N3710G01Z-0.650F30.0
N3720G3X13.500Y33.974I-0.100J0.000F600.0
N3730G3X13.400Y33.874I0.000J-0.100
N3740G3X13.500Y33.774I0.100J0.000
N3750G3X13.600Y33.874I0.000J0.100
N3760G01Z-0.700F30.0
N3770G3X13.500Y33.974I-0.100J0.000F600.0
N3780G3X13.400Y33.874I0.000J-0.100
N3790G3X13.500Y33.774I0.100J0.000
N3800G3X13.600Y33.874I0.000J0.100
N3810G01Z-0.750F30.0
N3820G3X13.500Y33.974I-0.100J0.000F600.0
N3830G3X13.400Y33.874I0.000J-0.100
N3840G3X13.500Y33.774I0.100J0.000
N3850G3X13.600Y33.874I0.000J0.100
N3860G01Z-0.800F30.0
N3870G3X13.500Y33.974I-0.100J0.000F600.0
N3880G3X13.400Y33.874I0.000J-0.100
N3890G3X13.500Y33.774I0.100J0.000
N3900G3X13.600Y33.874I0.000J0.100
N3910G01Z-0.850F30.0
N3920G3X13.500Y33.974I-0.100J0.000F600.0
N3930G3X13.400Y33.874I0.000J-0.100
N3940G3X13.500Y33.774I0.100J0.000
N3950G3X13.600Y33.874I0.000J0.100
N3960G01Z-0.900F30.0
N3970G3X13.500Y33.974I-0.100J0.000F600.0
N3980G3X13.400Y33.874I0.000J-0.100
N3990G3X13.500Y33.774I0.100J0.000
N4000G3X13.600Y33.874I0.000J0.100
N4010G01Z-0.950F30.0
N4020G3X13.500Y33.974I-0.100J0.000F600.0
N4030G3X13.400Y33.874I0.000J-0.100
N4040G3X13.500Y33.774I0.100J0.000
N4050G3X13.600Y33.874I0.000J0.100
N4060G01Z-1.000F30.0
N4070G3X13.500Y33.974I-0.100J0.000F600.0
N4080G3X13.400Y33.874I0.000J-0.100
N4090G3X13.500Y33.774I0.100J0.000
N4100G3X13.600Y33.874I0.000J0.100
N4110G01Z-1.050F30.0
N4120G3X13.500Y33.974I-0.100J0.000F600.0
N4130G3X13.400Y33.874I0.000J-0.100
N4140G3X13.500Y33.774I0.100J0.000
N4150G3X13.600Y33.874I0.000J0.100
N4160G01Z-1.100F30.0
N4170G3X13.500Y33.974I-0.100J0.000F600.0
N4180G3X13.400Y33.874I0.000J-0.100
N4190G3X13.500Y33.774I0.100J0.000
N4200G3X13.600Y33.874I0.000J0.100
N4210G01Z-1.150F30.0
N4220G3X13.500Y33.974I-0.100J0.000F600.0
N4230G3X13.400Y33.874I0.000J-0.100
N4240G3X13.500Y33.774I0.100J0.000
N4250G3X13.600Y33.874I0.000J0.100
N4260G01Z-1.200F30.0
N4270G3X13.500Y33.974I-0.100J0.000F600.0
N4280G3X13.400Y33.874I0.000J-0.100
N4290G3X13.500Y33.774I0.100J0.000
N4300G3X13.600Y33.874I0.000J0.100
N4310G01Z-1.250F30.0
N4320G3X13.500Y33.974I-0.100J0.000F600.0
N4330G3X13.400Y33.874I0.000J-0.100
N4340G3X13.500Y33.774I0.100J0.000
N4350G3X13.600Y33.874I0.000J0.100
N4360G01Z-1.300F30.0
N4370G3X13.500Y33.974I-0.100J0.000F600.0
N4380G3X13.400Y33.874I0.000J-0.100
N4390G3X13.500Y33.774I0.100J0.000
N4400G3X13.600Y33.874I0.000J0.100
N4410G01Z-1.350F30.0
N4420G3X13.500Y33.974I-0.100J0.000F600.0
N4430G3X13.400Y33.874I0.000J-0.100
N4440G3X13.500Y33.774I0.100J0.000
N4450G3X13.600Y33.874I0.000J0.100
N4460G01Z-1.400F30.0
N4470G3X13.500Y33.974I-0.100J0.000F600.0
N4480G3X13.400Y33.874I0.000J-0.100
N4490G3X13.500Y33.774I0.100J0.000
N4500G3X13.600Y33.874I0.000J0.100
N4510G01Z-1.450F30.0
N4520G3X13.500Y33.974I-0.100J0.000F600.0
N4530G3X13.400Y33.874I0.000J-0.100
N4540G3X13.500Y33.774I0.100J0.000
N4550G3X13.600Y33.874I0.000J0.100
N4560G01Z-1.500F30.0
N4570G3X13.500Y33.974I-0.100J0.000F600.0
N4580G3X13.400Y33.874I0.000J-0.100
N4590G3X13.500Y33.774I0.100J0.000
N4600G3X13.600Y33.874I0.000J0.100
N4610G01Z-1.550F30.0
N4620G3X13.500Y33.974I-0.100J0.000F600.0
N4630G3X13.400Y33.874I0.000J-0.100
N4640G3X13.500Y33.774I0.100J0.000
N4650G3X13.600Y33.874I0.000J0.100
N4660G01Z-1.600F30.0
N4670G3X13.500Y33.974I-0.100J0.000F600.0
N4680G3X13.400Y33.874I0.000J-0.100
N4690G3X13.500Y33.774I0.100J0.000
N4700G3X13.600Y33.874I0.000J0.100
N4710G01Z-1.650F30.0
N4720G3X13.500Y33.974I-0.100J0.000F600.0
N4730G3X13.400Y33.874I0.000J-0.100
N4740G3X13.500Y33.774I0.100J0.000
N4750G3X13.600Y33.874I0.000J0.100
N4760G01Z-1.700F30.0
N4770G3X13.500Y33.974I-0.100J0.000F600.0
N4780G3X13.400Y33.874I0.000J-0.100
N4790G3X13.500Y33.774I0.100J0.000
N4800G3X13.600Y33.874I0.000J0.100
N4810G01Z-1.750F30.0
N4820G3X13.500Y33.974I-0.100J0.000F600.0
N4830G3X13.400Y33.874I0.000J-0.100
N4840G3X13.500Y33.774I0.100J0.000
N4850G3X13.600Y33.874I0.000J0.100
N4860G01Z-1.800F30.0
N4870G3X13.500Y33.974I-0.100J0.000F600.0
N4880G3X13.400Y33.874I0.000J-0.100
N4890G3X13.500Y33.774I0.100J0.000
N4900G3X13.600Y33.874I0.000J0.100
N4910G01Z-1.850F30.0
N4920G3X13.500Y33.974I-0.100J0.000F600.0
N4930G3X13.400Y33.874I0.000J-0.100
N4940G3X13.500Y33.774I0.100J0.000
N4950G3X13.600Y33.874I0.000J0.100
N4960G01Z-1.900F30.0
N4970G3X13.500Y33.974I-0.100J0.000F600.0
N4980G3X13.400Y33.874I0.000J-0.100
N4990G3X13.500Y33.774I0.100J0.000
N5000G3X13.600Y33.874I0.000J0.100
N5010G01Z-1.950F30.0
N5020G3X13.500Y33.974I-0.100J0.000F600.0
N5030G3X13.400Y33.874I0.000J-0.100
N5040G3X13.500Y33.774I0.100J0.000
N5050G3X13.600Y33.874I0.000J0.100
N5060G01Z-2.000F30.0
N5070G3X13.500Y33.974I-0.100J0.000F600.0
N5080G3X13.400Y33.874I0.000J-0.100
N5090G3X13.500Y33.774I0.100J0.000
N5100G3X13.600Y33.874I0.000J0.100
N5110G01Z-2.050F30.0
N5120G3X13.500Y33.974I-0.100J0.000F600.0
N5130G3X13.400Y33.874I0.000J-0.100
N5140G3X13.500Y33.774I0.100J0.000
N5150G3X13.600Y33.874I0.000J0.100
N5160G01Z-2.100F30.0
N5170G3X13.500Y33.974I-0.100J0.000F600.0
N5180G3X13.400Y33.874I0.000J-0.100
N5190G3X13.500Y33.774I0.100J0.000
N5200G3X13.600Y33.874I0.000J0.100
N5210G01Z-2.150F30.0
N5220G3X13.500Y33.974I-0.100J0.000F600.0
N5230G3X13.400Y33.874I0.000J-0.100
N5240G3X13.500Y33.774I0.100J0.000
N5250G3X13.600Y33.874I0.000J0.100
N5260G01Z-2.200F30.0
N5270G3X13.500Y33.974I-0.100J0.000F600.0
N5280G3X13.400Y33.874I0.000J-0.100
N5290G3X13.500Y33.774I0.100J0.000
N5300G3X13.600Y33.874I0.000J0.100
N5310G01Z-2.250F30.0
N5320G3X13.500Y33.974I-0.100J0.000F600.0
N5330G3X13.400Y33.874I0.000J-0.100
N5340G3X13.500Y33.774I0.100J0.000
N5350G3X13.600Y33.874I0.000J0.100
N5360G01Z-2.300F30.0
N5370G3X13.500Y33.974I-0.100J0.000F600.0
N5380G3X13.400Y33.874I0.000J-0.100
N5390G3X13.500Y33.774I0.100J0.000
N5400G3X13.600Y33.874I0.000J0.100
N5410G01Z-2.350F30.0
N5420G3X13.500Y33.974I-0.100J0.000F600.0
N5430G3X13.400Y33.874I0.000J-0.100
N5440G3X13.500Y33.774I0.100J0.000
N5450G3X13.600Y33.874I0.000J0.100
N5460G01Z-2.400F30.0
N5470G3X13.500Y33.974I-0.100J0.000F600.0
N5480G3X13.400Y33.874I0.000J-0.100
N5490G3X13.500Y33.774I0.100J0.000
N5500G3X13.600Y33.874I0.000J0.100
N5510G01Z-2.450F30.0
N5520G3X13.500Y33.974I-0.100J0.000F600.0
N5530G3X13.400Y33.874I0.000J-0.100
N5540G3X13.500Y33.774I0.100J0.000
N5550G3X13.600Y33.874I0.000J0.100
N5560G01Z-2.500F30.0
N5570G3X13.500Y33.974I-0.100J0.000F600.0
N5580G3X13.400Y33.874I0.000J-0.100
N5590G3X13.500Y33.774I0.100J0.000
N5600G3X13.600Y33.874I0.000J0.100
N5610G01Z-2.550F30.0
N5620G3X13.500Y33.974I-0.100J0.000F600.0
N5630G3X13.400Y33.874I0.000J-0.100
N5640G3X13.500Y33.774I0.100J0.000
N5650G3X13.600Y33.874I0.000J0.100
N5660G01Z-2.600F30.0
N5670G3X13.500Y33.974I-0.100J0.000F600.0
N5680G3X13.400Y33.874I0.000J-0.100
N5690G3X13.500Y33.774I0.100J0.000
N5700G3X13.600Y33.874I0.000J0.100
N5710G01Z-2.650F30.0
N5720G3X13.500Y33.974I-0.100J0.000F600.0
N5730G3X13.400Y33.874I0.000J-0.100
N5740G3X13.500Y33.774I0.100J0.000
N5750G3X13.600Y33.874I0.000J0.100
N5760G01Z-2.700F30.0
N5770G3X13.500Y33.974I-0.100J0.000F600.0
N5780G3X13.400Y33.874I0.000J-0.100
N5790G3X13.500Y33.774I0.100J0.000
N5800G3X13.600Y33.874I0.000J0.100
N5810G01Z-2.750F30.0
N5820G3X13.500Y33.974I-0.100J0.000F600.0
N5830G3X13.400Y33.874I0.000J-0.100
N5840G3X13.500Y33.774I0.100J0.000
N5850G3X13.600Y33.874I0.000J0.100
N5860G01Z-2.800F30.0
N5870G3X13.500Y33.974I-0.100J0.000F600.0
N5880G3X13.400Y33.874I0.000J-0.100
N5890G3X13.500Y33.774I0.100J0.000
N5900G3X13.600Y33.874I0.000J0.100
N5910G01Z-2.850F30.0
N5920G3X13.500Y33.974I-0.100J0.000F600.0
N5930G3X13.400Y33.874I0.000J-0.100
N5940G3X13.500Y33.774I0.100J0.000
N5950G3X13.600Y33.874I0.000J0.100
N5960G01Z-2.900F30.0
N5970G3X13.500Y33.974I-0.100J0.000F600.0
N5980G3X13.400Y33.874I0.000J-0.100
N5990G3X13.500Y33.774I0.100J0.000
N6000G3X13.600Y33.874I0.000J0.100
N6010G01Z-2.950F30.0
N6020G3X13.500Y33.974I-0.100J0.000F600.0
N6030G3X13.400Y33.874I0.000J-0.100
N6040G3X13.500Y33.774I0.100J0.000
N6050G3X13.600Y33.874I0.000J0.100
N6060G01Z-3.000F30.0
N6070G3X13.500Y33.974I-0.100J0.000F600.0
N6080G3X13.400Y33.874I0.000J-0.100
N6090G3X13.500Y33.774I0.100J0.000
N6100G3X13.600Y33.874I0.000J0.100
N6110G00Z6.000
N6120G00Y70.874
N6130G01Z-0.050F30.0
N6140G3X13.500Y70.974I-0.100J0.000F600.0
N6150G3X13.400Y70.874I0.000J-0.100
N6160G3X13.500Y70.774I0.100J0.000
N6170G3X13.600Y70.874I0.000J0.100
N6180G01Z-0.100F30.0
N6190G3X13.500Y70.974I-0.100J0.000F600.0
N6200G3X13.400Y70.874I0.000J-0.100
N6210G3X13.500Y70.774I0.100J0.000
N6220G3X13.600Y70.874I0.000J0.100
N6230G01Z-0.150F30.0
N6240G3X13.500Y70.974I-0.100J0.000F600.0
N6250G3X13.400Y70.874I0.000J-0.100
N6260G3X13.500Y70.774I0.100J0.000
N6270G3X13.600Y70.874I0.000J0.100
N6280G01Z-0.200F30.0
N6290G3X13.500Y70.974I-0.100J0.000F600.0
N6300G3X13.400Y70.874I0.000J-0.100
N6310G3X13.500Y70.774I0.100J0.000
N6320G3X13.600Y70.874I0.000J0.100
N6330G01Z-0.250F30.0
N6340G3X13.500Y70.974I-0.100J0.000F600.0
N6350G3X13.400Y70.874I0.000J-0.100
N6360G3X13.500Y70.774I0.100J0.000
N6370G3X13.600Y70.874I0.000J0.100
N6380G01Z-0.300F30.0
N6390G3X13.500Y70.974I-0.100J0.000F600.0
N6400G3X13.400Y70.874I0.000J-0.100
N6410G3X13.500Y70.774I0.100J0.000
N6420G3X13.600Y70.874I0.000J0.100
N6430G01Z-0.350F30.0
N6440G3X13.500Y70.974I-0.100J0.000F600.0
N6450G3X13.400Y70.874I0.000J-0.100
N6460G3X13.500Y70.774I0.100J0.000
N6470G3X13.600Y70.874I0.000J0.100
N6480G01Z-0.400F30.0
N6490G3X13.500Y70.974I-0.100J0.000F600.0
N6500G3X13.400Y70.874I0.000J-0.100
N6510G3X13.500Y70.774I0.100J0.000
N6520G3X13.600Y70.874I0.000J0.100
N6530G01Z-0.450F30.0
N6540G3X13.500Y70.974I-0.100J0.000F600.0
N6550G3X13.400Y70.874I0.000J-0.100
N6560G3X13.500Y70.774I0.100J0.000
N6570G3X13.600Y70.874I0.000J0.100
N6580G01Z-0.500F30.0
N6590G3X13.500Y70.974I-0.100J0.000F600.0
N6600G3X13.400Y70.874I0.000J-0.100
N6610G3X13.500Y70.774I0.100J0.000
N6620G3X13.600Y70.874I0.000J0.100
N6630G01Z-0.550F30.0
N6640G3X13.500Y70.974I-0.100J0.000F600.0
N6650G3X13.400Y70.874I0.000J-0.100
N6660G3X13.500Y70.774I0.100J0.000
N6670G3X13.600Y70.874I0.000J0.100
N6680G01Z-0.600F30.0
N6690G3X13.500Y70.974I-0.100J0.000F600.0
N6700G3X13.400Y70.874I0.000J-0.100
N6710G3X13.500Y70.774I0.100J0.000
N6720G3X13.600Y70.874I0.000J0.100
N6730G01Z-0.650F30.0
N6740G3X13.500Y70.974I-0.100J0.000F600.0
N6750G3X13.400Y70.874I0.000J-0.100
N6760G3X13.500Y70.774I0.100J0.000
N6770G3X13.600Y70.874I0.000J0.100
N6780G01Z-0.700F30.0
N6790G3X13.500Y70.974I-0.100J0.000F600.0
N6800G3X13.400Y70.874I0.000J-0.100
N6810G3X13.500Y70.774I0.100J0.000
N6820G3X13.600Y70.874I0.000J0.100
N6830G01Z-0.750F30.0
N6840G3X13.500Y70.974I-0.100J0.000F600.0
N6850G3X13.400Y70.874I0.000J-0.100
N6860G3X13.500Y70.774I0.100J0.000
N6870G3X13.600Y70.874I0.000J0.100
N6880G01Z-0.800F30.0
N6890G3X13.500Y70.974I-0.100J0.000F600.0
N6900G3X13.400Y70.874I0.000J-0.100
N6910G3X13.500Y70.774I0.100J0.000
N6920G3X13.600Y70.874I0.000J0.100
N6930G01Z-0.850F30.0
N6940G3X13.500Y70.974I-0.100J0.000F600.0
N6950G3X13.400Y70.874I0.000J-0.100
N6960G3X13.500Y70.774I0.100J0.000
N6970G3X13.600Y70.874I0.000J0.100
N6980G01Z-0.900F30.0
N6990G3X13.500Y70.974I-0.100J0.000F600.0
N7000G3X13.400Y70.874I0.000J-0.100
N7010G3X13.500Y70.774I0.100J0.000
N7020G3X13.600Y70.874I0.000J0.100
N7030G01Z-0.950F30.0
N7040G3X13.500Y70.974I-0.100J0.000F600.0
N7050G3X13.400Y70.874I0.000J-0.100
N7060G3X13.500Y70.774I0.100J0.000
N7070G3X13.600Y70.874I0.000J0.100
N7080G01Z-1.000F30.0
N7090G3X13.500Y70.974I-0.100J0.000F600.0
N7100G3X13.400Y70.874I0.000J-0.100
N7110G3X13.500Y70.774I0.100J0.000
N7120G3X13.600Y70.874I0.000J0.100
N7130G01Z-1.050F30.0
N7140G3X13.500Y70.974I-0.100J0.000F600.0
N7150G3X13.400Y70.874I0.000J-0.100
N7160G3X13.500Y70.774I0.100J0.000
N7170G3X13.600Y70.874I0.000J0.100
N7180G01Z-1.100F30.0
N7190G3X13.500Y70.974I-0.100J0.000F600.0
N7200G3X13.400Y70.874I0.000J-0.100
N7210G3X13.500Y70.774I0.100J0.000
N7220G3X13.600Y70.874I0.000J0.100
N7230G01Z-1.150F30.0
N7240G3X13.500Y70.974I-0.100J0.000F600.0
N7250G3X13.400Y70.874I0.000J-0.100
N7260G3X13.500Y70.774I0.100J0.000
N7270G3X13.600Y70.874I0.000J0.100
N7280G01Z-1.200F30.0
N7290G3X13.500Y70.974I-0.100J0.000F600.0
N7300G3X13.400Y70.874I0.000J-0.100
N7310G3X13.500Y70.774I0.100J0.000
N7320G3X13.600Y70.874I0.000J0.100
N7330G01Z-1.250F30.0
N7340G3X13.500Y70.974I-0.100J0.000F600.0
N7350G3X13.400Y70.874I0.000J-0.100
N7360G3X13.500Y70.774I0.100J0.000
N7370G3X13.600Y70.874I0.000J0.100
N7380G01Z-1.300F30.0
N7390G3X13.500Y70.974I-0.100J0.000F600.0
N7400G3X13.400Y70.874I0.000J-0.100
N7410G3X13.500Y70.774I0.100J0.000
N7420G3X13.600Y70.874I0.000J0.100
N7430G01Z-1.350F30.0
N7440G3X13.500Y70.974I-0.100J0.000F600.0
N7450G3X13.400Y70.874I0.000J-0.100
N7460G3X13.500Y70.774I0.100J0.000
N7470G3X13.600Y70.874I0.000J0.100
N7480G01Z-1.400F30.0
N7490G3X13.500Y70.974I-0.100J0.000F600.0
N7500G3X13.400Y70.874I0.000J-0.100
N7510G3X13.500Y70.774I0.100J0.000
N7520G3X13.600Y70.874I0.000J0.100
N7530G01Z-1.450F30.0
N7540G3X13.500Y70.974I-0.100J0.000F600.0
N7550G3X13.400Y70.874I0.000J-0.100
N7560G3X13.500Y70.774I0.100J0.000
N7570G3X13.600Y70.874I0.000J0.100
N7580G01Z-1.500F30.0
N7590G3X13.500Y70.974I-0.100J0.000F600.0
N7600G3X13.400Y70.874I0.000J-0.100
N7610G3X13.500Y70.774I0.100J0.000
N7620G3X13.600Y70.874I0.000J0.100
N7630G01Z-1.550F30.0
N7640G3X13.500Y70.974I-0.100J0.000F600.0
N7650G3X13.400Y70.874I0.000J-0.100
N7660G3X13.500Y70.774I0.100J0.000
N7670G3X13.600Y70.874I0.000J0.100
N7680G01Z-1.600F30.0
N7690G3X13.500Y70.974I-0.100J0.000F600.0
N7700G3X13.400Y70.874I0.000J-0.100
N7710G3X13.500Y70.774I0.100J0.000
N7720G3X13.600Y70.874I0.000J0.100
N7730G01Z-1.650F30.0
N7740G3X13.500Y70.974I-0.100J0.000F600.0
N7750G3X13.400Y70.874I0.000J-0.100
N7760G3X13.500Y70.774I0.100J0.000
N7770G3X13.600Y70.874I0.000J0.100
N7780G01Z-1.700F30.0
N7790G3X13.500Y70.974I-0.100J0.000F600.0
N7800G3X13.400Y70.874I0.000J-0.100
N7810G3X13.500Y70.774I0.100J0.000
N7820G3X13.600Y70.874I0.000J0.100
N7830G01Z-1.750F30.0
N7840G3X13.500Y70.974I-0.100J0.000F600.0
N7850G3X13.400Y70.874I0.000J-0.100
N7860G3X13.500Y70.774I0.100J0.000
N7870G3X13.600Y70.874I0.000J0.100
N7880G01Z-1.800F30.0
N7890G3X13.500Y70.974I-0.100J0.000F600.0
N7900G3X13.400Y70.874I0.000J-0.100
N7910G3X13.500Y70.774I0.100J0.000
N7920G3X13.600Y70.874I0.000J0.100
N7930G01Z-1.850F30.0
N7940G3X13.500Y70.974I-0.100J0.000F600.0
N7950G3X13.400Y70.874I0.000J-0.100
N7960G3X13.500Y70.774I0.100J0.000
N7970G3X13.600Y70.874I0.000J0.100
N7980G01Z-1.900F30.0
N7990G3X13.500Y70.974I-0.100J0.000F600.0
N8000G3X13.400Y70.874I0.000J-0.100
N8010G3X13.500Y70.774I0.100J0.000
N8020G3X13.600Y70.874I0.000J0.100
N8030G01Z-1.950F30.0
N8040G3X13.500Y70.974I-0.100J0.000F600.0
N8050G3X13.400Y70.874I0.000J-0.100
N8060G3X13.500Y70.774I0.100J0.000
N8070G3X13.600Y70.874I0.000J0.100
N8080G01Z-2.000F30.0
N8090G3X13.500Y70.974I-0.100J0.000F600.0
N8100G3X13.400Y70.874I0.000J-0.100
N8110G3X13.500Y70.774I0.100J0.000
N8120G3X13.600Y70.874I0.000J0.100
N8130G01Z-2.050F30.0
N8140G3X13.500Y70.974I-0.100J0.000F600.0
N8150G3X13.400Y70.874I0.000J-0.100
N8160G3X13.500Y70.774I0.100J0.000
N8170G3X13.600Y70.874I0.000J0.100
N8180G01Z-2.100F30.0
N8190G3X13.500Y70.974I-0.100J0.000F600.0
N8200G3X13.400Y70.874I0.000J-0.100
N8210G3X13.500Y70.774I0.100J0.000
N8220G3X13.600Y70.874I0.000J0.100
N8230G01Z-2.150F30.0
N8240G3X13.500Y70.974I-0.100J0.000F600.0
N8250G3X13.400Y70.874I0.000J-0.100
N8260G3X13.500Y70.774I0.100J0.000
N8270G3X13.600Y70.874I0.000J0.100
N8280G01Z-2.200F30.0
N8290G3X13.500Y70.974I-0.100J0.000F600.0
N8300G3X13.400Y70.874I0.000J-0.100
N8310G3X13.500Y70.774I0.100J0.000
N8320G3X13.600Y70.874I0.000J0.100
N8330G01Z-2.250F30.0
N8340G3X13.500Y70.974I-0.100J0.000F600.0
N8350G3X13.400Y70.874I0.000J-0.100
N8360G3X13.500Y70.774I0.100J0.000
N8370G3X13.600Y70.874I0.000J0.100
N8380G01Z-2.300F30.0
N8390G3X13.500Y70.974I-0.100J0.000F600.0
N8400G3X13.400Y70.874I0.000J-0.100
N8410G3X13.500Y70.774I0.100J0.000
N8420G3X13.600Y70.874I0.000J0.100
N8430G01Z-2.350F30.0
N8440G3X13.500Y70.974I-0.100J0.000F600.0
N8450G3X13.400Y70.874I0.000J-0.100
N8460G3X13.500Y70.774I0.100J0.000
N8470G3X13.600Y70.874I0.000J0.100
N8480G01Z-2.400F30.0
N8490G3X13.500Y70.974I-0.100J0.000F600.0
N8500G3X13.400Y70.874I0.000J-0.100
N8510G3X13.500Y70.774I0.100J0.000
N8520G3X13.600Y70.874I0.000J0.100
N8530G01Z-2.450F30.0
N8540G3X13.500Y70.974I-0.100J0.000F600.0
N8550G3X13.400Y70.874I0.000J-0.100
N8560G3X13.500Y70.774I0.100J0.000
N8570G3X13.600Y70.874I0.000J0.100
N8580G01Z-2.500F30.0
N8590G3X13.500Y70.974I-0.100J0.000F600.0
N8600G3X13.400Y70.874I0.000J-0.100
N8610G3X13.500Y70.774I0.100J0.000
N8620G3X13.600Y70.874I0.000J0.100
N8630G01Z-2.550F30.0
N8640G3X13.500Y70.974I-0.100J0.000F600.0
N8650G3X13.400Y70.874I0.000J-0.100
N8660G3X13.500Y70.774I0.100J0.000
N8670G3X13.600Y70.874I0.000J0.100
N8680G01Z-2.600F30.0
N8690G3X13.500Y70.974I-0.100J0.000F600.0
N8700G3X13.400Y70.874I0.000J-0.100
N8710G3X13.500Y70.774I0.100J0.000
N8720G3X13.600Y70.874I0.000J0.100
N8730G01Z-2.650F30.0
N8740G3X13.500Y70.974I-0.100J0.000F600.0
N8750G3X13.400Y70.874I0.000J-0.100
N8760G3X13.500Y70.774I0.100J0.000
N8770G3X13.600Y70.874I0.000J0.100
N8780G01Z-2.700F30.0
N8790G3X13.500Y70.974I-0.100J0.000F600.0
N8800G3X13.400Y70.874I0.000J-0.100
N8810G3X13.500Y70.774I0.100J0.000
N8820G3X13.600Y70.874I0.000J0.100
N8830G01Z-2.750F30.0
N8840G3X13.500Y70.974I-0.100J0.000F600.0
N8850G3X13.400Y70.874I0.000J-0.100
N8860G3X13.500Y70.774I0.100J0.000
N8870G3X13.600Y70.874I0.000J0.100
N8880G01Z-2.800F30.0
N8890G3X13.500Y70.974I-0.100J0.000F600.0
N8900G3X13.400Y70.874I0.000J-0.100
N8910G3X13.500Y70.774I0.100J0.000
N8920G3X13.600Y70.874I0.000J0.100
N8930G01Z-2.850F30.0
N8940G3X13.500Y70.974I-0.100J0.000F600.0
N8950G3X13.400Y70.874I0.000J-0.100
N8960G3X13.500Y70.774I0.100J0.000
N8970G3X13.600Y70.874I0.000J0.100
N8980G01Z-2.900F30.0
N8990G3X13.500Y70.974I-0.100J0.000F600.0
N9000G3X13.400Y70.874I0.000J-0.100
N9010G3X13.500Y70.774I0.100J0.000
N9020G3X13.600Y70.874I0.000J0.100
N9030G01Z-2.950F30.0
N9040G3X13.500Y70.974I-0.100J0.000F600.0
N9050G3X13.400Y70.874I0.000J-0.100
N9060G3X13.500Y70.774I0.100J0.000
N9070G3X13.600Y70.874I0.000J0.100
N9080G01Z-3.000F30.0
N9090G3X13.500Y70.974I-0.100J0.000F600.0
N9100G3X13.400Y70.874I0.000J-0.100
N9110G3X13.500Y70.774I0.100J0.000
N9120G3X13.600Y70.874I0.000J0.100
N9130G00Z6.000
N9140G00Y85.874
N9150G01Z-0.050F30.0
N9160G3X13.500Y85.974I-0.100J0.000F600.0
N9170G3X13.400Y85.874I0.000J-0.100
N9180G3X13.500Y85.774I0.100J0.000
N9190G3X13.600Y85.874I0.000J0.100
N9200G01Z-0.100F30.0
N9210G3X13.500Y85.974I-0.100J0.000F600.0
N9220G3X13.400Y85.874I0.000J-0.100
N9230G3X13.500Y85.774I0.100J0.000
N9240G3X13.600Y85.874I0.000J0.100
N9250G01Z-0.150F30.0
N9260G3X13.500Y85.974I-0.100J0.000F600.0
N9270G3X13.400Y85.874I0.000J-0.100
N9280G3X13.500Y85.774I0.100J0.000
N9290G3X13.600Y85.874I0.000J0.100
N9300G01Z-0.200F30.0
N9310G3X13.500Y85.974I-0.100J0.000F600.0
N9320G3X13.400Y85.874I0.000J-0.100
N9330G3X13.500Y85.774I0.100J0.000
N9340G3X13.600Y85.874I0.000J0.100
N9350G01Z-0.250F30.0
N9360G3X13.500Y85.974I-0.100J0.000F600.0
N9370G3X13.400Y85.874I0.000J-0.100
N9380G3X13.500Y85.774I0.100J0.000
N9390G3X13.600Y85.874I0.000J0.100
N9400G01Z-0.300F30.0
N9410G3X13.500Y85.974I-0.100J0.000F600.0
N9420G3X13.400Y85.874I0.000J-0.100
N9430G3X13.500Y85.774I0.100J0.000
N9440G3X13.600Y85.874I0.000J0.100
N9450G01Z-0.350F30.0
N9460G3X13.500Y85.974I-0.100J0.000F600.0
N9470G3X13.400Y85.874I0.000J-0.100
N9480G3X13.500Y85.774I0.100J0.000
N9490G3X13.600Y85.874I0.000J0.100
N9500G01Z-0.400F30.0
N9510G3X13.500Y85.974I-0.100J0.000F600.0
N9520G3X13.400Y85.874I0.000J-0.100
N9530G3X13.500Y85.774I0.100J0.000
N9540G3X13.600Y85.874I0.000J0.100
N9550G01Z-0.450F30.0
N9560G3X13.500Y85.974I-0.100J0.000F600.0
N9570G3X13.400Y85.874I0.000J-0.100
N9580G3X13.500Y85.774I0.100J0.000
N9590G3X13.600Y85.874I0.000J0.100
N9600G01Z-0.500F30.0
N9610G3X13.500Y85.974I-0.100J0.000F600.0
N9620G3X13.400Y85.874I0.000J-0.100
N9630G3X13.500Y85.774I0.100J0.000
N9640G3X13.600Y85.874I0.000J0.100
N9650G01Z-0.550F30.0
N9660G3X13.500Y85.974I-0.100J0.000F600.0
N9670G3X13.400Y85.874I0.000J-0.100
N9680G3X13.500Y85.774I0.100J0.000
N9690G3X13.600Y85.874I0.000J0.100
N9700G01Z-0.600F30.0
N9710G3X13.500Y85.974I-0.100J0.000F600.0
N9720G3X13.400Y85.874I0.000J-0.100
N9730G3X13.500Y85.774I0.100J0.000
N9740G3X13.600Y85.874I0.000J0.100
N9750G01Z-0.650F30.0
N9760G3X13.500Y85.974I-0.100J0.000F600.0
N9770G3X13.400Y85.874I0.000J-0.100
N9780G3X13.500Y85.774I0.100J0.000
N9790G3X13.600Y85.874I0.000J0.100
N9800G01Z-0.700F30.0
N9810G3X13.500Y85.974I-0.100J0.000F600.0
N9820G3X13.400Y85.874I0.000J-0.100
N9830G3X13.500Y85.774I0.100J0.000
N9840G3X13.600Y85.874I0.000J0.100
N9850G01Z-0.750F30.0
N9860G3X13.500Y85.974I-0.100J0.000F600.0
N9870G3X13.400Y85.874I0.000J-0.100
N9880G3X13.500Y85.774I0.100J0.000
N9890G3X13.600Y85.874I0.000J0.100
N9900G01Z-0.800F30.0
N9910G3X13.500Y85.974I-0.100J0.000F600.0
N9920G3X13.400Y85.874I0.000J-0.100
N9930G3X13.500Y85.774I0.100J0.000
N9940G3X13.600Y85.874I0.000J0.100
N9950G01Z-0.850F30.0
N9960G3X13.500Y85.974I-0.100J0.000F600.0
N9970G3X13.400Y85.874I0.000J-0.100
N9980G3X13.500Y85.774I0.100J0.000
N9990G3X13.600Y85.874I0.000J0.100
N10000G01Z-0.900F30.0
N10010G3X13.500Y85.974I-0.100J0.000F600.0
N10020G3X13.400Y85.874I0.000J-0.100
N10030G3X13.500Y85.774I0.100J0.000
N10040G3X13.600Y85.874I0.000J0.100
N10050G01Z-0.950F30.0
N10060G3X13.500Y85.974I-0.100J0.000F600.0
N10070G3X13.400Y85.874I0.000J-0.100
N10080G3X13.500Y85.774I0.100J0.000
N10090G3X13.600Y85.874I0.000J0.100
N10100G01Z-1.000F30.0
N10110G3X13.500Y85.974I-0.100J0.000F600.0
N10120G3X13.400Y85.874I0.000J-0.100
N10130G3X13.500Y85.774I0.100J0.000
N10140G3X13.600Y85.874I0.000J0.100
N10150G01Z-1.050F30.0
N10160G3X13.500Y85.974I-0.100J0.000F600.0
N10170G3X13.400Y85.874I0.000J-0.100
N10180G3X13.500Y85.774I0.100J0.000
N10190G3X13.600Y85.874I0.000J0.100
N10200G01Z-1.100F30.0
N10210G3X13.500Y85.974I-0.100J0.000F600.0
N10220G3X13.400Y85.874I0.000J-0.100
N10230G3X13.500Y85.774I0.100J0.000
N10240G3X13.600Y85.874I0.000J0.100
N10250G01Z-1.150F30.0
N10260G3X13.500Y85.974I-0.100J0.000F600.0
N10270G3X13.400Y85.874I0.000J-0.100
N10280G3X13.500Y85.774I0.100J0.000
N10290G3X13.600Y85.874I0.000J0.100
N10300G01Z-1.200F30.0
N10310G3X13.500Y85.974I-0.100J0.000F600.0
N10320G3X13.400Y85.874I0.000J-0.100
N10330G3X13.500Y85.774I0.100J0.000
N10340G3X13.600Y85.874I0.000J0.100
N10350G01Z-1.250F30.0
N10360G3X13.500Y85.974I-0.100J0.000F600.0
N10370G3X13.400Y85.874I0.000J-0.100
N10380G3X13.500Y85.774I0.100J0.000
N10390G3X13.600Y85.874I0.000J0.100
N10400G01Z-1.300F30.0
N10410G3X13.500Y85.974I-0.100J0.000F600.0
N10420G3X13.400Y85.874I0.000J-0.100
N10430G3X13.500Y85.774I0.100J0.000
N10440G3X13.600Y85.874I0.000J0.100
N10450G01Z-1.350F30.0
N10460G3X13.500Y85.974I-0.100J0.000F600.0
N10470G3X13.400Y85.874I0.000J-0.100
N10480G3X13.500Y85.774I0.100J0.000
N10490G3X13.600Y85.874I0.000J0.100
N10500G01Z-1.400F30.0
N10510G3X13.500Y85.974I-0.100J0.000F600.0
N10520G3X13.400Y85.874I0.000J-0.100
N10530G3X13.500Y85.774I0.100J0.000
N10540G3X13.600Y85.874I0.000J0.100
N10550G01Z-1.450F30.0
N10560G3X13.500Y85.974I-0.100J0.000F600.0
N10570G3X13.400Y85.874I0.000J-0.100
N10580G3X13.500Y85.774I0.100J0.000
N10590G3X13.600Y85.874I0.000J0.100
N10600G01Z-1.500F30.0
N10610G3X13.500Y85.974I-0.100J0.000F600.0
N10620G3X13.400Y85.874I0.000J-0.100
N10630G3X13.500Y85.774I0.100J0.000
N10640G3X13.600Y85.874I0.000J0.100
N10650G01Z-1.550F30.0
N10660G3X13.500Y85.974I-0.100J0.000F600.0
N10670G3X13.400Y85.874I0.000J-0.100
N10680G3X13.500Y85.774I0.100J0.000
N10690G3X13.600Y85.874I0.000J0.100
N10700G01Z-1.600F30.0
N10710G3X13.500Y85.974I-0.100J0.000F600.0
N10720G3X13.400Y85.874I0.000J-0.100
N10730G3X13.500Y85.774I0.100J0.000
N10740G3X13.600Y85.874I0.000J0.100
N10750G01Z-1.650F30.0
N10760G3X13.500Y85.974I-0.100J0.000F600.0
N10770G3X13.400Y85.874I0.000J-0.100
N10780G3X13.500Y85.774I0.100J0.000
N10790G3X13.600Y85.874I0.000J0.100
N10800G01Z-1.700F30.0
N10810G3X13.500Y85.974I-0.100J0.000F600.0
N10820G3X13.400Y85.874I0.000J-0.100
N10830G3X13.500Y85.774I0.100J0.000
N10840G3X13.600Y85.874I0.000J0.100
N10850G01Z-1.750F30.0
N10860G3X13.500Y85.974I-0.100J0.000F600.0
N10870G3X13.400Y85.874I0.000J-0.100
N10880G3X13.500Y85.774I0.100J0.000
N10890G3X13.600Y85.874I0.000J0.100
N10900G01Z-1.800F30.0
N10910G3X13.500Y85.974I-0.100J0.000F600.0
N10920G3X13.400Y85.874I0.000J-0.100
N10930G3X13.500Y85.774I0.100J0.000
N10940G3X13.600Y85.874I0.000J0.100
N10950G01Z-1.850F30.0
N10960G3X13.500Y85.974I-0.100J0.000F600.0
N10970G3X13.400Y85.874I0.000J-0.100
N10980G3X13.500Y85.774I0.100J0.000
N10990G3X13.600Y85.874I0.000J0.100
N11000G01Z-1.900F30.0
N11010G3X13.500Y85.974I-0.100J0.000F600.0
N11020G3X13.400Y85.874I0.000J-0.100
N11030G3X13.500Y85.774I0.100J0.000
N11040G3X13.600Y85.874I0.000J0.100
N11050G01Z-1.950F30.0
N11060G3X13.500Y85.974I-0.100J0.000F600.0
N11070G3X13.400Y85.874I0.000J-0.100
N11080G3X13.500Y85.774I0.100J0.000
N11090G3X13.600Y85.874I0.000J0.100
N11100G01Z-2.000F30.0
N11110G3X13.500Y85.974I-0.100J0.000F600.0
N11120G3X13.400Y85.874I0.000J-0.100
N11130G3X13.500Y85.774I0.100J0.000
N11140G3X13.600Y85.874I0.000J0.100
N11150G01Z-2.050F30.0
N11160G3X13.500Y85.974I-0.100J0.000F600.0
N11170G3X13.400Y85.874I0.000J-0.100
N11180G3X13.500Y85.774I0.100J0.000
N11190G3X13.600Y85.874I0.000J0.100
N11200G01Z-2.100F30.0
N11210G3X13.500Y85.974I-0.100J0.000F600.0
N11220G3X13.400Y85.874I0.000J-0.100
N11230G3X13.500Y85.774I0.100J0.000
N11240G3X13.600Y85.874I0.000J0.100
N11250G01Z-2.150F30.0
N11260G3X13.500Y85.974I-0.100J0.000F600.0
N11270G3X13.400Y85.874I0.000J-0.100
N11280G3X13.500Y85.774I0.100J0.000
N11290G3X13.600Y85.874I0.000J0.100
N11300G01Z-2.200F30.0
N11310G3X13.500Y85.974I-0.100J0.000F600.0
N11320G3X13.400Y85.874I0.000J-0.100
N11330G3X13.500Y85.774I0.100J0.000
N11340G3X13.600Y85.874I0.000J0.100
N11350G01Z-2.250F30.0
N11360G3X13.500Y85.974I-0.100J0.000F600.0
N11370G3X13.400Y85.874I0.000J-0.100
N11380G3X13.500Y85.774I0.100J0.000
N11390G3X13.600Y85.874I0.000J0.100
N11400G01Z-2.300F30.0
N11410G3X13.500Y85.974I-0.100J0.000F600.0
N11420G3X13.400Y85.874I0.000J-0.100
N11430G3X13.500Y85.774I0.100J0.000
N11440G3X13.600Y85.874I0.000J0.100
N11450G01Z-2.350F30.0
N11460G3X13.500Y85.974I-0.100J0.000F600.0
N11470G3X13.400Y85.874I0.000J-0.100
N11480G3X13.500Y85.774I0.100J0.000
N11490G3X13.600Y85.874I0.000J0.100
N11500G01Z-2.400F30.0
N11510G3X13.500Y85.974I-0.100J0.000F600.0
N11520G3X13.400Y85.874I0.000J-0.100
N11530G3X13.500Y85.774I0.100J0.000
N11540G3X13.600Y85.874I0.000J0.100
N11550G01Z-2.450F30.0
N11560G3X13.500Y85.974I-0.100J0.000F600.0
N11570G3X13.400Y85.874I0.000J-0.100
N11580G3X13.500Y85.774I0.100J0.000
N11590G3X13.600Y85.874I0.000J0.100
N11600G01Z-2.500F30.0
N11610G3X13.500Y85.974I-0.100J0.000F600.0
N11620G3X13.400Y85.874I0.000J-0.100
N11630G3X13.500Y85.774I0.100J0.000
N11640G3X13.600Y85.874I0.000J0.100
N11650G01Z-2.550F30.0
N11660G3X13.500Y85.974I-0.100J0.000F600.0
N11670G3X13.400Y85.874I0.000J-0.100
N11680G3X13.500Y85.774I0.100J0.000
N11690G3X13.600Y85.874I0.000J0.100
N11700G01Z-2.600F30.0
N11710G3X13.500Y85.974I-0.100J0.000F600.0
N11720G3X13.400Y85.874I0.000J-0.100
N11730G3X13.500Y85.774I0.100J0.000
N11740G3X13.600Y85.874I0.000J0.100
N11750G01Z-2.650F30.0
N11760G3X13.500Y85.974I-0.100J0.000F600.0
N11770G3X13.400Y85.874I0.000J-0.100
N11780G3X13.500Y85.774I0.100J0.000
N11790G3X13.600Y85.874I0.000J0.100
N11800G01Z-2.700F30.0
N11810G3X13.500Y85.974I-0.100J0.000F600.0
N11820G3X13.400Y85.874I0.000J-0.100
N11830G3X13.500Y85.774I0.100J0.000
N11840G3X13.600Y85.874I0.000J0.100
N11850G01Z-2.750F30.0
N11860G3X13.500Y85.974I-0.100J0.000F600.0
N11870G3X13.400Y85.874I0.000J-0.100
N11880G3X13.500Y85.774I0.100J0.000
N11890G3X13.600Y85.874I0.000J0.100
N11900G01Z-2.800F30.0
N11910G3X13.500Y85.974I-0.100J0.000F600.0
N11920G3X13.400Y85.874I0.000J-0.100
N11930G3X13.500Y85.774I0.100J0.000
N11940G3X13.600Y85.874I0.000J0.100
N11950G01Z-2.850F30.0
N11960G3X13.500Y85.974I-0.100J0.000F600.0
N11970G3X13.400Y85.874I0.000J-0.100
N11980G3X13.500Y85.774I0.100J0.000
N11990G3X13.600Y85.874I0.000J0.100
N12000G01Z-2.900F30.0
N12010G3X13.500Y85.974I-0.100J0.000F600.0
N12020G3X13.400Y85.874I0.000J-0.100
N12030G3X13.500Y85.774I0.100J0.000
N12040G3X13.600Y85.874I0.000J0.100
N12050G01Z-2.950F30.0
N12060G3X13.500Y85.974I-0.100J0.000F600.0
N12070G3X13.400Y85.874I0.000J-0.100
N12080G3X13.500Y85.774I0.100J0.000
N12090G3X13.600Y85.874I0.000J0.100
N12100G01Z-3.000F30.0
N12110G3X13.500Y85.974I-0.100J0.000F600.0
N12120G3X13.400Y85.874I0.000J-0.100
N12130G3X13.500Y85.774I0.100J0.000
N12140G3X13.600Y85.874I0.000J0.100
N12150G00Z6.000
N12160G00X13.476Y121.925
N12170G01Z-0.050F30.0
N12180G3X13.376Y122.025I-0.100J0.000F600.0
N12190G3X13.276Y121.925I0.000J-0.100
N12200G3X13.376Y121.825I0.100J0.000
N12210G3X13.476Y121.925I0.000J0.100
N12220G01Z-0.100F30.0
N12230G3X13.376Y122.025I-0.100J0.000F600.0
N12240G3X13.276Y121.925I0.000J-0.100
N12250G3X13.376Y121.825I0.100J0.000
N12260G3X13.476Y121.925I0.000J0.100
N12270G01Z-0.150F30.0
N12280G3X13.376Y122.025I-0.100J0.000F600.0
N12290G3X13.276Y121.925I0.000J-0.100
N12300G3X13.376Y121.825I0.100J0.000
N12310G3X13.476Y121.925I0.000J0.100
N12320G01Z-0.200F30.0
N12330G3X13.376Y122.025I-0.100J0.000F600.0
N12340G3X13.276Y121.925I0.000J-0.100
N12350G3X13.376Y121.825I0.100J0.000
N12360G3X13.476Y121.925I0.000J0.100
N12370G01Z-0.250F30.0
N12380G3X13.376Y122.025I-0.100J0.000F600.0
N12390G3X13.276Y121.925I0.000J-0.100
N12400G3X13.376Y121.825I0.100J0.000
N12410G3X13.476Y121.925I0.000J0.100
N12420G01Z-0.300F30.0
N12430G3X13.376Y122.025I-0.100J0.000F600.0
N12440G3X13.276Y121.925I0.000J-0.100
N12450G3X13.376Y121.825I0.100J0.000
N12460G3X13.476Y121.925I0.000J0.100
N12470G01Z-0.350F30.0
N12480G3X13.376Y122.025I-0.100J0.000F600.0
N12490G3X13.276Y121.925I0.000J-0.100
N12500G3X13.376Y121.825I0.100J0.000
N12510G3X13.476Y121.925I0.000J0.100
N12520G01Z-0.400F30.0
N12530G3X13.376Y122.025I-0.100J0.000F600.0
N12540G3X13.276Y121.925I0.000J-0.100
N12550G3X13.376Y121.825I0.100J0.000
N12560G3X13.476Y121.925I0.000J0.100
N12570G01Z-0.450F30.0
N12580G3X13.376Y122.025I-0.100J0.000F600.0
N12590G3X13.276Y121.925I0.000J-0.100
N12600G3X13.376Y121.825I0.100J0.000
N12610G3X13.476Y121.925I0.000J0.100
N12620G01Z-0.500F30.0
N12630G3X13.376Y122.025I-0.100J0.000F600.0
N12640G3X13.276Y121.925I0.000J-0.100
N12650G3X13.376Y121.825I0.100J0.000
N12660G3X13.476Y121.925I0.000J0.100
N12670G01Z-0.550F30.0
N12680G3X13.376Y122.025I-0.100J0.000F600.0
N12690G3X13.276Y121.925I0.000J-0.100
N12700G3X13.376Y121.825I0.100J0.000
N12710G3X13.476Y121.925I0.000J0.100
N12720G01Z-0.600F30.0
N12730G3X13.376Y122.025I-0.100J0.000F600.0
N12740G3X13.276Y121.925I0.000J-0.100
N12750G3X13.376Y121.825I0.100J0.000
N12760G3X13.476Y121.925I0.000J0.100
N12770G01Z-0.650F30.0
N12780G3X13.376Y122.025I-0.100J0.000F600.0
N12790G3X13.276Y121.925I0.000J-0.100
N12800G3X13.376Y121.825I0.100J0.000
N12810G3X13.476Y121.925I0.000J0.100
N12820G01Z-0.700F30.0
N12830G3X13.376Y122.025I-0.100J0.000F600.0
N12840G3X13.276Y121.925I0.000J-0.100
N12850G3X13.376Y121.825I0.100J0.000
N12860G3X13.476Y121.925I0.000J0.100
N12870G01Z-0.750F30.0
N12880G3X13.376Y122.025I-0.100J0.000F600.0
N12890G3X13.276Y121.925I0.000J-0.100
N12900G3X13.376Y121.825I0.100J0.000
N12910G3X13.476Y121.925I0.000J0.100
N12920G01Z-0.800F30.0
N12930G3X13.376Y122.025I-0.100J0.000F600.0
N12940G3X13.276Y121.925I0.000J-0.100
N12950G3X13.376Y121.825I0.100J0.000
N12960G3X13.476Y121.925I0.000J0.100
N12970G01Z-0.850F30.0
N12980G3X13.376Y122.025I-0.100J0.000F600.0
N12990G3X13.276Y121.925I0.000J-0.100
N13000G3X13.376Y121.825I0.100J0.000
N13010G3X13.476Y121.925I0.000J0.100
N13020G01Z-0.900F30.0
N13030G3X13.376Y122.025I-0.100J0.000F600.0
N13040G3X13.276Y121.925I0.000J-0.100
N13050G3X13.376Y121.825I0.100J0.000
N13060G3X13.476Y121.925I0.000J0.100
N13070G01Z-0.950F30.0
N13080G3X13.376Y122.025I-0.100J0.000F600.0
N13090G3X13.276Y121.925I0.000J-0.100
N13100G3X13.376Y121.825I0.100J0.000
N13110G3X13.476Y121.925I0.000J0.100
N13120G01Z-1.000F30.0
N13130G3X13.376Y122.025I-0.100J0.000F600.0
N13140G3X13.276Y121.925I0.000J-0.100
N13150G3X13.376Y121.825I0.100J0.000
N13160G3X13.476Y121.925I0.000J0.100
N13170G01Z-1.050F30.0
N13180G3X13.376Y122.025I-0.100J0.000F600.0
N13190G3X13.276Y121.925I0.000J-0.100
N13200G3X13.376Y121.825I0.100J0.000
N13210G3X13.476Y121.925I0.000J0.100
N13220G01Z-1.100F30.0
N13230G3X13.376Y122.025I-0.100J0.000F600.0
N13240G3X13.276Y121.925I0.000J-0.100
N13250G3X13.376Y121.825I0.100J0.000
N13260G3X13.476Y121.925I0.000J0.100
N13270G01Z-1.150F30.0
N13280G3X13.376Y122.025I-0.100J0.000F600.0
N13290G3X13.276Y121.925I0.000J-0.100
N13300G3X13.376Y121.825I0.100J0.000
N13310G3X13.476Y121.925I0.000J0.100
N13320G01Z-1.200F30.0
N13330G3X13.376Y122.025I-0.100J0.000F600.0
N13340G3X13.276Y121.925I0.000J-0.100
N13350G3X13.376Y121.825I0.100J0.000
N13360G3X13.476Y121.925I0.000J0.100
N13370G01Z-1.250F30.0
N13380G3X13.376Y122.025I-0.100J0.000F600.0
N13390G3X13.276Y121.925I0.000J-0.100
N13400G3X13.376Y121.825I0.100J0.000
N13410G3X13.476Y121.925I0.000J0.100
N13420G01Z-1.300F30.0
N13430G3X13.376Y122.025I-0.100J0.000F600.0
N13440G3X13.276Y121.925I0.000J-0.100
N13450G3X13.376Y121.825I0.100J0.000
N13460G3X13.476Y121.925I0.000J0.100
N13470G01Z-1.350F30.0
N13480G3X13.376Y122.025I-0.100J0.000F600.0
N13490G3X13.276Y121.925I0.000J-0.100
N13500G3X13.376Y121.825I0.100J0.000
N13510G3X13.476Y121.925I0.000J0.100
N13520G01Z-1.400F30.0
N13530G3X13.376Y122.025I-0.100J0.000F600.0
N13540G3X13.276Y121.925I0.000J-0.100
N13550G3X13.376Y121.825I0.100J0.000
N13560G3X13.476Y121.925I0.000J0.100
N13570G01Z-1.450F30.0
N13580G3X13.376Y122.025I-0.100J0.000F600.0
N13590G3X13.276Y121.925I0.000J-0.100
N13600G3X13.376Y121.825I0.100J0.000
N13610G3X13.476Y121.925I0.000J0.100
N13620G01Z-1.500F30.0
N13630G3X13.376Y122.025I-0.100J0.000F600.0
N13640G3X13.276Y121.925I0.000J-0.100
N13650G3X13.376Y121.825I0.100J0.000
N13660G3X13.476Y121.925I0.000J0.100
N13670G01Z-1.550F30.0
N13680G3X13.376Y122.025I-0.100J0.000F600.0
N13690G3X13.276Y121.925I0.000J-0.100
N13700G3X13.376Y121.825I0.100J0.000
N13710G3X13.476Y121.925I0.000J0.100
N13720G01Z-1.600F30.0
N13730G3X13.376Y122.025I-0.100J0.000F600.0
N13740G3X13.276Y121.925I0.000J-0.100
N13750G3X13.376Y121.825I0.100J0.000
N13760G3X13.476Y121.925I0.000J0.100
N13770G01Z-1.650F30.0
N13780G3X13.376Y122.025I-0.100J0.000F600.0
N13790G3X13.276Y121.925I0.000J-0.100
N13800G3X13.376Y121.825I0.100J0.000
N13810G3X13.476Y121.925I0.000J0.100
N13820G01Z-1.700F30.0
N13830G3X13.376Y122.025I-0.100J0.000F600.0
N13840G3X13.276Y121.925I0.000J-0.100
N13850G3X13.376Y121.825I0.100J0.000
N13860G3X13.476Y121.925I0.000J0.100
N13870G01Z-1.750F30.0
N13880G3X13.376Y122.025I-0.100J0.000F600.0
N13890G3X13.276Y121.925I0.000J-0.100
N13900G3X13.376Y121.825I0.100J0.000
N13910G3X13.476Y121.925I0.000J0.100
N13920G01Z-1.800F30.0
N13930G3X13.376Y122.025I-0.100J0.000F600.0
N13940G3X13.276Y121.925I0.000J-0.100
N13950G3X13.376Y121.825I0.100J0.000
N13960G3X13.476Y121.925I0.000J0.100
N13970G01Z-1.850F30.0
N13980G3X13.376Y122.025I-0.100J0.000F600.0
N13990G3X13.276Y121.925I0.000J-0.100
N14000G3X13.376Y121.825I0.100J0.000
N14010G3X13.476Y121.925I0.000J0.100
N14020G01Z-1.900F30.0
N14030G3X13.376Y122.025I-0.100J0.000F600.0
N14040G3X13.276Y121.925I0.000J-0.100
N14050G3X13.376Y121.825I0.100J0.000
N14060G3X13.476Y121.925I0.000J0.100
N14070G01Z-1.950F30.0
N14080G3X13.376Y122.025I-0.100J0.000F600.0
N14090G3X13.276Y121.925I0.000J-0.100
N14100G3X13.376Y121.825I0.100J0.000
N14110G3X13.476Y121.925I0.000J0.100
N14120G01Z-2.000F30.0
N14130G3X13.376Y122.025I-0.100J0.000F600.0
N14140G3X13.276Y121.925I0.000J-0.100
N14150G3X13.376Y121.825I0.100J0.000
N14160G3X13.476Y121.925I0.000J0.100
N14170G01Z-2.050F30.0
N14180G3X13.376Y122.025I-0.100J0.000F600.0
N14190G3X13.276Y121.925I0.000J-0.100
N14200G3X13.376Y121.825I0.100J0.000
N14210G3X13.476Y121.925I0.000J0.100
N14220G01Z-2.100F30.0
N14230G3X13.376Y122.025I-0.100J0.000F600.0
N14240G3X13.276Y121.925I0.000J-0.100
N14250G3X13.376Y121.825I0.100J0.000
N14260G3X13.476Y121.925I0.000J0.100
N14270G01Z-2.150F30.0
N14280G3X13.376Y122.025I-0.100J0.000F600.0
N14290G3X13.276Y121.925I0.000J-0.100
N14300G3X13.376Y121.825I0.100J0.000
N14310G3X13.476Y121.925I0.000J0.100
N14320G01Z-2.200F30.0
N14330G3X13.376Y122.025I-0.100J0.000F600.0
N14340G3X13.276Y121.925I0.000J-0.100
N14350G3X13.376Y121.825I0.100J0.000
N14360G3X13.476Y121.925I0.000J0.100
N14370G01Z-2.250F30.0
N14380G3X13.376Y122.025I-0.100J0.000F600.0
N14390G3X13.276Y121.925I0.000J-0.100
N14400G3X13.376Y121.825I0.100J0.000
N14410G3X13.476Y121.925I0.000J0.100
N14420G01Z-2.300F30.0
N14430G3X13.376Y122.025I-0.100J0.000F600.0
N14440G3X13.276Y121.925I0.000J-0.100
N14450G3X13.376Y121.825I0.100J0.000
N14460G3X13.476Y121.925I0.000J0.100
N14470G01Z-2.350F30.0
N14480G3X13.376Y122.025I-0.100J0.000F600.0
N14490G3X13.276Y121.925I0.000J-0.100
N14500G3X13.376Y121.825I0.100J0.000
N14510G3X13.476Y121.925I0.000J0.100
N14520G01Z-2.400F30.0
N14530G3X13.376Y122.025I-0.100J0.000F600.0
N14540G3X13.276Y121.925I0.000J-0.100
N14550G3X13.376Y121.825I0.100J0.000
N14560G3X13.476Y121.925I0.000J0.100
N14570G01Z-2.450F30.0
N14580G3X13.376Y122.025I-0.100J0.000F600.0
N14590G3X13.276Y121.925I0.000J-0.100
N14600G3X13.376Y121.825I0.100J0.000
N14610G3X13.476Y121.925I0.000J0.100
N14620G01Z-2.500F30.0
N14630G3X13.376Y122.025I-0.100J0.000F600.0
N14640G3X13.276Y121.925I0.000J-0.100
N14650G3X13.376Y121.825I0.100J0.000
N14660G3X13.476Y121.925I0.000J0.100
N14670G01Z-2.550F30.0
N14680G3X13.376Y122.025I-0.100J0.000F600.0
N14690G3X13.276Y121.925I0.000J-0.100
N14700G3X13.376Y121.825I0.100J0.000
N14710G3X13.476Y121.925I0.000J0.100
N14720G01Z-2.600F30.0
N14730G3X13.376Y122.025I-0.100J0.000F600.0
N14740G3X13.276Y121.925I0.000J-0.100
N14750G3X13.376Y121.825I0.100J0.000
N14760G3X13.476Y121.925I0.000J0.100
N14770G01Z-2.650F30.0
N14780G3X13.376Y122.025I-0.100J0.000F600.0
N14790G3X13.276Y121.925I0.000J-0.100
N14800G3X13.376Y121.825I0.100J0.000
N14810G3X13.476Y121.925I0.000J0.100
N14820G01Z-2.700F30.0
N14830G3X13.376Y122.025I-0.100J0.000F600.0
N14840G3X13.276Y121.925I0.000J-0.100
N14850G3X13.376Y121.825I0.100J0.000
N14860G3X13.476Y121.925I0.000J0.100
N14870G01Z-2.750F30.0
N14880G3X13.376Y122.025I-0.100J0.000F600.0
N14890G3X13.276Y121.925I0.000J-0.100
N14900G3X13.376Y121.825I0.100J0.000
N14910G3X13.476Y121.925I0.000J0.100
N14920G01Z-2.800F30.0
N14930G3X13.376Y122.025I-0.100J0.000F600.0
N14940G3X13.276Y121.925I0.000J-0.100
N14950G3X13.376Y121.825I0.100J0.000
N14960G3X13.476Y121.925I0.000J0.100
N14970G01Z-2.850F30.0
N14980G3X13.376Y122.025I-0.100J0.000F600.0
N14990G3X13.276Y121.925I0.000J-0.100
N15000G3X13.376Y121.825I0.100J0.000
N15010G3X13.476Y121.925I0.000J0.100
N15020G01Z-2.900F30.0
N15030G3X13.376Y122.025I-0.100J0.000F600.0
N15040G3X13.276Y121.925I0.000J-0.100
N15050G3X13.376Y121.825I0.100J0.000
N15060G3X13.476Y121.925I0.000J0.100
N15070G01Z-2.950F30.0
N15080G3X13.376Y122.025I-0.100J0.000F600.0
N15090G3X13.276Y121.925I0.000J-0.100
N15100G3X13.376Y121.825I0.100J0.000
N15110G3X13.476Y121.925I0.000J0.100
N15120G01Z-3.000F30.0
N15130G3X13.376Y122.025I-0.100J0.000F600.0
N15140G3X13.276Y121.925I0.000J-0.100
N15150G3X13.376Y121.825I0.100J0.000
N15160G3X13.476Y121.925I0.000J0.100
N15170G00Z6.000
N15180G00Y136.925
N15190G01Z-0.050F30.0
N15200G3X13.376Y137.025I-0.100J0.000F600.0
N15210G3X13.276Y136.925I0.000J-0.100
N15220G3X13.376Y136.825I0.100J0.000
N15230G3X13.476Y136.925I0.000J0.100
N15240G01Z-0.100F30.0
N15250G3X13.376Y137.025I-0.100J0.000F600.0
N15260G3X13.276Y136.925I0.000J-0.100
N15270G3X13.376Y136.825I0.100J0.000
N15280G3X13.476Y136.925I0.000J0.100
N15290G01Z-0.150F30.0
N15300G3X13.376Y137.025I-0.100J0.000F600.0
N15310G3X13.276Y136.925I0.000J-0.100
N15320G3X13.376Y136.825I0.100J0.000
N15330G3X13.476Y136.925I0.000J0.100
N15340G01Z-0.200F30.0
N15350G3X13.376Y137.025I-0.100J0.000F600.0
N15360G3X13.276Y136.925I0.000J-0.100
N15370G3X13.376Y136.825I0.100J0.000
N15380G3X13.476Y136.925I0.000J0.100
N15390G01Z-0.250F30.0
N15400G3X13.376Y137.025I-0.100J0.000F600.0
N15410G3X13.276Y136.925I0.000J-0.100
N15420G3X13.376Y136.825I0.100J0.000
N15430G3X13.476Y136.925I0.000J0.100
N15440G01Z-0.300F30.0
N15450G3X13.376Y137.025I-0.100J0.000F600.0
N15460G3X13.276Y136.925I0.000J-0.100
N15470G3X13.376Y136.825I0.100J0.000
N15480G3X13.476Y136.925I0.000J0.100
N15490G01Z-0.350F30.0
N15500G3X13.376Y137.025I-0.100J0.000F600.0
N15510G3X13.276Y136.925I0.000J-0.100
N15520G3X13.376Y136.825I0.100J0.000
N15530G3X13.476Y136.925I0.000J0.100
N15540G01Z-0.400F30.0
N15550G3X13.376Y137.025I-0.100J0.000F600.0
N15560G3X13.276Y136.925I0.000J-0.100
N15570G3X13.376Y136.825I0.100J0.000
N15580G3X13.476Y136.925I0.000J0.100
N15590G01Z-0.450F30.0
N15600G3X13.376Y137.025I-0.100J0.000F600.0
N15610G3X13.276Y136.925I0.000J-0.100
N15620G3X13.376Y136.825I0.100J0.000
N15630G3X13.476Y136.925I0.000J0.100
N15640G01Z-0.500F30.0
N15650G3X13.376Y137.025I-0.100J0.000F600.0
N15660G3X13.276Y136.925I0.000J-0.100
N15670G3X13.376Y136.825I0.100J0.000
N15680G3X13.476Y136.925I0.000J0.100
N15690G01Z-0.550F30.0
N15700G3X13.376Y137.025I-0.100J0.000F600.0
N15710G3X13.276Y136.925I0.000J-0.100
N15720G3X13.376Y136.825I0.100J0.000
N15730G3X13.476Y136.925I0.000J0.100
N15740G01Z-0.600F30.0
N15750G3X13.376Y137.025I-0.100J0.000F600.0
N15760G3X13.276Y136.925I0.000J-0.100
N15770G3X13.376Y136.825I0.100J0.000
N15780G3X13.476Y136.925I0.000J0.100
N15790G01Z-0.650F30.0
N15800G3X13.376Y137.025I-0.100J0.000F600.0
N15810G3X13.276Y136.925I0.000J-0.100
N15820G3X13.376Y136.825I0.100J0.000
N15830G3X13.476Y136.925I0.000J0.100
N15840G01Z-0.700F30.0
N15850G3X13.376Y137.025I-0.100J0.000F600.0
N15860G3X13.276Y136.925I0.000J-0.100
N15870G3X13.376Y136.825I0.100J0.000
N15880G3X13.476Y136.925I0.000J0.100
N15890G01Z-0.750F30.0
N15900G3X13.376Y137.025I-0.100J0.000F600.0
N15910G3X13.276Y136.925I0.000J-0.100
N15920G3X13.376Y136.825I0.100J0.000
N15930G3X13.476Y136.925I0.000J0.100
N15940G01Z-0.800F30.0
N15950G3X13.376Y137.025I-0.100J0.000F600.0
N15960G3X13.276Y136.925I0.000J-0.100
N15970G3X13.376Y136.825I0.100J0.000
N15980G3X13.476Y136.925I0.000J0.100
N15990G01Z-0.850F30.0
N16000G3X13.376Y137.025I-0.100J0.000F600.0
N16010G3X13.276Y136.925I0.000J-0.100
N16020G3X13.376Y136.825I0.100J0.000
N16030G3X13.476Y136.925I0.000J0.100
N16040G01Z-0.900F30.0
N16050G3X13.376Y137.025I-0.100J0.000F600.0
N16060G3X13.276Y136.925I0.000J-0.100
N16070G3X13.376Y136.825I0.100J0.000
N16080G3X13.476Y136.925I0.000J0.100
N16090G01Z-0.950F30.0
N16100G3X13.376Y137.025I-0.100J0.000F600.0
N16110G3X13.276Y136.925I0.000J-0.100
N16120G3X13.376Y136.825I0.100J0.000
N16130G3X13.476Y136.925I0.000J0.100
N16140G01Z-1.000F30.0
N16150G3X13.376Y137.025I-0.100J0.000F600.0
N16160G3X13.276Y136.925I0.000J-0.100
N16170G3X13.376Y136.825I0.100J0.000
N16180G3X13.476Y136.925I0.000J0.100
N16190G01Z-1.050F30.0
N16200G3X13.376Y137.025I-0.100J0.000F600.0
N16210G3X13.276Y136.925I0.000J-0.100
N16220G3X13.376Y136.825I0.100J0.000
N16230G3X13.476Y136.925I0.000J0.100
N16240G01Z-1.100F30.0
N16250G3X13.376Y137.025I-0.100J0.000F600.0
N16260G3X13.276Y136.925I0.000J-0.100
N16270G3X13.376Y136.825I0.100J0.000
N16280G3X13.476Y136.925I0.000J0.100
N16290G01Z-1.150F30.0
N16300G3X13.376Y137.025I-0.100J0.000F600.0
N16310G3X13.276Y136.925I0.000J-0.100
N16320G3X13.376Y136.825I0.100J0.000
N16330G3X13.476Y136.925I0.000J0.100
N16340G01Z-1.200F30.0
N16350G3X13.376Y137.025I-0.100J0.000F600.0
N16360G3X13.276Y136.925I0.000J-0.100
N16370G3X13.376Y136.825I0.100J0.000
N16380G3X13.476Y136.925I0.000J0.100
N16390G01Z-1.250F30.0
N16400G3X13.376Y137.025I-0.100J0.000F600.0
N16410G3X13.276Y136.925I0.000J-0.100
N16420G3X13.376Y136.825I0.100J0.000
N16430G3X13.476Y136.925I0.000J0.100
N16440G01Z-1.300F30.0
N16450G3X13.376Y137.025I-0.100J0.000F600.0
N16460G3X13.276Y136.925I0.000J-0.100
N16470G3X13.376Y136.825I0.100J0.000
N16480G3X13.476Y136.925I0.000J0.100
N16490G01Z-1.350F30.0
N16500G3X13.376Y137.025I-0.100J0.000F600.0
N16510G3X13.276Y136.925I0.000J-0.100
N16520G3X13.376Y136.825I0.100J0.000
N16530G3X13.476Y136.925I0.000J0.100
N16540G01Z-1.400F30.0
N16550G3X13.376Y137.025I-0.100J0.000F600.0
N16560G3X13.276Y136.925I0.000J-0.100
N16570G3X13.376Y136.825I0.100J0.000
N16580G3X13.476Y136.925I0.000J0.100
N16590G01Z-1.450F30.0
N16600G3X13.376Y137.025I-0.100J0.000F600.0
N16610G3X13.276Y136.925I0.000J-0.100
N16620G3X13.376Y136.825I0.100J0.000
N16630G3X13.476Y136.925I0.000J0.100
N16640G01Z-1.500F30.0
N16650G3X13.376Y137.025I-0.100J0.000F600.0
N16660G3X13.276Y136.925I0.000J-0.100
N16670G3X13.376Y136.825I0.100J0.000
N16680G3X13.476Y136.925I0.000J0.100
N16690G01Z-1.550F30.0
N16700G3X13.376Y137.025I-0.100J0.000F600.0
N16710G3X13.276Y136.925I0.000J-0.100
N16720G3X13.376Y136.825I0.100J0.000
N16730G3X13.476Y136.925I0.000J0.100
N16740G01Z-1.600F30.0
N16750G3X13.376Y137.025I-0.100J0.000F600.0
N16760G3X13.276Y136.925I0.000J-0.100
N16770G3X13.376Y136.825I0.100J0.000
N16780G3X13.476Y136.925I0.000J0.100
N16790G01Z-1.650F30.0
N16800G3X13.376Y137.025I-0.100J0.000F600.0
N16810G3X13.276Y136.925I0.000J-0.100
N16820G3X13.376Y136.825I0.100J0.000
N16830G3X13.476Y136.925I0.000J0.100
N16840G01Z-1.700F30.0
N16850G3X13.376Y137.025I-0.100J0.000F600.0
N16860G3X13.276Y136.925I0.000J-0.100
N16870G3X13.376Y136.825I0.100J0.000
N16880G3X13.476Y136.925I0.000J0.100
N16890G01Z-1.750F30.0
N16900G3X13.376Y137.025I-0.100J0.000F600.0
N16910G3X13.276Y136.925I0.000J-0.100
N16920G3X13.376Y136.825I0.100J0.000
N16930G3X13.476Y136.925I0.000J0.100
N16940G01Z-1.800F30.0
N16950G3X13.376Y137.025I-0.100J0.000F600.0
N16960G3X13.276Y136.925I0.000J-0.100
N16970G3X13.376Y136.825I0.100J0.000
N16980G3X13.476Y136.925I0.000J0.100
N16990G01Z-1.850F30.0
N17000G3X13.376Y137.025I-0.100J0.000F600.0
N17010G3X13.276Y136.925I0.000J-0.100
N17020G3X13.376Y136.825I0.100J0.000
N17030G3X13.476Y136.925I0.000J0.100
N17040G01Z-1.900F30.0
N17050G3X13.376Y137.025I-0.100J0.000F600.0
N17060G3X13.276Y136.925I0.000J-0.100
N17070G3X13.376Y136.825I0.100J0.000
N17080G3X13.476Y136.925I0.000J0.100
N17090G01Z-1.950F30.0
N17100G3X13.376Y137.025I-0.100J0.000F600.0
N17110G3X13.276Y136.925I0.000J-0.100
N17120G3X13.376Y136.825I0.100J0.000
N17130G3X13.476Y136.925I0.000J0.100
N17140G01Z-2.000F30.0
N17150G3X13.376Y137.025I-0.100J0.000F600.0
N17160G3X13.276Y136.925I0.000J-0.100
N17170G3X13.376Y136.825I0.100J0.000
N17180G3X13.476Y136.925I0.000J0.100
N17190G01Z-2.050F30.0
N17200G3X13.376Y137.025I-0.100J0.000F600.0
N17210G3X13.276Y136.925I0.000J-0.100
N17220G3X13.376Y136.825I0.100J0.000
N17230G3X13.476Y136.925I0.000J0.100
N17240G01Z-2.100F30.0
N17250G3X13.376Y137.025I-0.100J0.000F600.0
N17260G3X13.276Y136.925I0.000J-0.100
N17270G3X13.376Y136.825I0.100J0.000
N17280G3X13.476Y136.925I0.000J0.100
N17290G01Z-2.150F30.0
N17300G3X13.376Y137.025I-0.100J0.000F600.0
N17310G3X13.276Y136.925I0.000J-0.100
N17320G3X13.376Y136.825I0.100J0.000
N17330G3X13.476Y136.925I0.000J0.100
N17340G01Z-2.200F30.0
N17350G3X13.376Y137.025I-0.100J0.000F600.0
N17360G3X13.276Y136.925I0.000J-0.100
N17370G3X13.376Y136.825I0.100J0.000
N17380G3X13.476Y136.925I0.000J0.100
N17390G01Z-2.250F30.0
N17400G3X13.376Y137.025I-0.100J0.000F600.0
N17410G3X13.276Y136.925I0.000J-0.100
N17420G3X13.376Y136.825I0.100J0.000
N17430G3X13.476Y136.925I0.000J0.100
N17440G01Z-2.300F30.0
N17450G3X13.376Y137.025I-0.100J0.000F600.0
N17460G3X13.276Y136.925I0.000J-0.100
N17470G3X13.376Y136.825I0.100J0.000
N17480G3X13.476Y136.925I0.000J0.100
N17490G01Z-2.350F30.0
N17500G3X13.376Y137.025I-0.100J0.000F600.0
N17510G3X13.276Y136.925I0.000J-0.100
N17520G3X13.376Y136.825I0.100J0.000
N17530G3X13.476Y136.925I0.000J0.100
N17540G01Z-2.400F30.0
N17550G3X13.376Y137.025I-0.100J0.000F600.0
N17560G3X13.276Y136.925I0.000J-0.100
N17570G3X13.376Y136.825I0.100J0.000
N17580G3X13.476Y136.925I0.000J0.100
N17590G01Z-2.450F30.0
N17600G3X13.376Y137.025I-0.100J0.000F600.0
N17610G3X13.276Y136.925I0.000J-0.100
N17620G3X13.376Y136.825I0.100J0.000
N17630G3X13.476Y136.925I0.000J0.100
N17640G01Z-2.500F30.0
N17650G3X13.376Y137.025I-0.100J0.000F600.0
N17660G3X13.276Y136.925I0.000J-0.100
N17670G3X13.376Y136.825I0.100J0.000
N17680G3X13.476Y136.925I0.000J0.100
N17690G01Z-2.550F30.0
N17700G3X13.376Y137.025I-0.100J0.000F600.0
N17710G3X13.276Y136.925I0.000J-0.100
N17720G3X13.376Y136.825I0.100J0.000
N17730G3X13.476Y136.925I0.000J0.100
N17740G01Z-2.600F30.0
N17750G3X13.376Y137.025I-0.100J0.000F600.0
N17760G3X13.276Y136.925I0.000J-0.100
N17770G3X13.376Y136.825I0.100J0.000
N17780G3X13.476Y136.925I0.000J0.100
N17790G01Z-2.650F30.0
N17800G3X13.376Y137.025I-0.100J0.000F600.0
N17810G3X13.276Y136.925I0.000J-0.100
N17820G3X13.376Y136.825I0.100J0.000
N17830G3X13.476Y136.925I0.000J0.100
N17840G01Z-2.700F30.0
N17850G3X13.376Y137.025I-0.100J0.000F600.0
N17860G3X13.276Y136.925I0.000J-0.100
N17870G3X13.376Y136.825I0.100J0.000
N17880G3X13.476Y136.925I0.000J0.100
N17890G01Z-2.750F30.0
N17900G3X13.376Y137.025I-0.100J0.000F600.0
N17910G3X13.276Y136.925I0.000J-0.100
N17920G3X13.376Y136.825I0.100J0.000
N17930G3X13.476Y136.925I0.000J0.100
N17940G01Z-2.800F30.0
N17950G3X13.376Y137.025I-0.100J0.000F600.0
N17960G3X13.276Y136.925I0.000J-0.100
N17970G3X13.376Y136.825I0.100J0.000
N17980G3X13.476Y136.925I0.000J0.100
N17990G01Z-2.850F30.0
N18000G3X13.376Y137.025I-0.100J0.000F600.0
N18010G3X13.276Y136.925I0.000J-0.100
N18020G3X13.376Y136.825I0.100J0.000
N18030G3X13.476Y136.925I0.000J0.100
N18040G01Z-2.900F30.0
N18050G3X13.376Y137.025I-0.100J0.000F600.0
N18060G3X13.276Y136.925I0.000J-0.100
N18070G3X13.376Y136.825I0.100J0.000
N18080G3X13.476Y136.925I0.000J0.100
N18090G01Z-2.950F30.0
N18100G3X13.376Y137.025I-0.100J0.000F600.0
N18110G3X13.276Y136.925I0.000J-0.100
N18120G3X13.376Y136.825I0.100J0.000
N18130G3X13.476Y136.925I0.000J0.100
N18140G01Z-3.000F30.0
N18150G3X13.376Y137.025I-0.100J0.000F600.0
N18160G3X13.276Y136.925I0.000J-0.100
N18170G3X13.376Y136.825I0.100J0.000
N18180G3X13.476Y136.925I0.000J0.100
N18190G00Z6.000
N18200G00Y173.925
N18210G01Z-0.050F30.0
N18220G3X13.376Y174.025I-0.100J0.000F600.0
N18230G3X13.276Y173.925I0.000J-0.100
N18240G3X13.376Y173.825I0.100J0.000
N18250G3X13.476Y173.925I0.000J0.100
N18260G01Z-0.100F30.0
N18270G3X13.376Y174.025I-0.100J0.000F600.0
N18280G3X13.276Y173.925I0.000J-0.100
N18290G3X13.376Y173.825I0.100J0.000
N18300G3X13.476Y173.925I0.000J0.100
N18310G01Z-0.150F30.0
N18320G3X13.376Y174.025I-0.100J0.000F600.0
N18330G3X13.276Y173.925I0.000J-0.100
N18340G3X13.376Y173.825I0.100J0.000
N18350G3X13.476Y173.925I0.000J0.100
N18360G01Z-0.200F30.0
N18370G3X13.376Y174.025I-0.100J0.000F600.0
N18380G3X13.276Y173.925I0.000J-0.100
N18390G3X13.376Y173.825I0.100J0.000
N18400G3X13.476Y173.925I0.000J0.100
N18410G01Z-0.250F30.0
N18420G3X13.376Y174.025I-0.100J0.000F600.0
N18430G3X13.276Y173.925I0.000J-0.100
N18440G3X13.376Y173.825I0.100J0.000
N18450G3X13.476Y173.925I0.000J0.100
N18460G01Z-0.300F30.0
N18470G3X13.376Y174.025I-0.100J0.000F600.0
N18480G3X13.276Y173.925I0.000J-0.100
N18490G3X13.376Y173.825I0.100J0.000
N18500G3X13.476Y173.925I0.000J0.100
N18510G01Z-0.350F30.0
N18520G3X13.376Y174.025I-0.100J0.000F600.0
N18530G3X13.276Y173.925I0.000J-0.100
N18540G3X13.376Y173.825I0.100J0.000
N18550G3X13.476Y173.925I0.000J0.100
N18560G01Z-0.400F30.0
N18570G3X13.376Y174.025I-0.100J0.000F600.0
N18580G3X13.276Y173.925I0.000J-0.100
N18590G3X13.376Y173.825I0.100J0.000
N18600G3X13.476Y173.925I0.000J0.100
N18610G01Z-0.450F30.0
N18620G3X13.376Y174.025I-0.100J0.000F600.0
N18630G3X13.276Y173.925I0.000J-0.100
N18640G3X13.376Y173.825I0.100J0.000
N18650G3X13.476Y173.925I0.000J0.100
N18660G01Z-0.500F30.0
N18670G3X13.376Y174.025I-0.100J0.000F600.0
N18680G3X13.276Y173.925I0.000J-0.100
N18690G3X13.376Y173.825I0.100J0.000
N18700G3X13.476Y173.925I0.000J0.100
N18710G01Z-0.550F30.0
N18720G3X13.376Y174.025I-0.100J0.000F600.0
N18730G3X13.276Y173.925I0.000J-0.100
N18740G3X13.376Y173.825I0.100J0.000
N18750G3X13.476Y173.925I0.000J0.100
N18760G01Z-0.600F30.0
N18770G3X13.376Y174.025I-0.100J0.000F600.0
N18780G3X13.276Y173.925I0.000J-0.100
N18790G3X13.376Y173.825I0.100J0.000
N18800G3X13.476Y173.925I0.000J0.100
N18810G01Z-0.650F30.0
N18820G3X13.376Y174.025I-0.100J0.000F600.0
N18830G3X13.276Y173.925I0.000J-0.100
N18840G3X13.376Y173.825I0.100J0.000
N18850G3X13.476Y173.925I0.000J0.100
N18860G01Z-0.700F30.0
N18870G3X13.376Y174.025I-0.100J0.000F600.0
N18880G3X13.276Y173.925I0.000J-0.100
N18890G3X13.376Y173.825I0.100J0.000
N18900G3X13.476Y173.925I0.000J0.100
N18910G01Z-0.750F30.0
N18920G3X13.376Y174.025I-0.100J0.000F600.0
N18930G3X13.276Y173.925I0.000J-0.100
N18940G3X13.376Y173.825I0.100J0.000
N18950G3X13.476Y173.925I0.000J0.100
N18960G01Z-0.800F30.0
N18970G3X13.376Y174.025I-0.100J0.000F600.0
N18980G3X13.276Y173.925I0.000J-0.100
N18990G3X13.376Y173.825I0.100J0.000
N19000G3X13.476Y173.925I0.000J0.100
N19010G01Z-0.850F30.0
N19020G3X13.376Y174.025I-0.100J0.000F600.0
N19030G3X13.276Y173.925I0.000J-0.100
N19040G3X13.376Y173.825I0.100J0.000
N19050G3X13.476Y173.925I0.000J0.100
N19060G01Z-0.900F30.0
N19070G3X13.376Y174.025I-0.100J0.000F600.0
N19080G3X13.276Y173.925I0.000J-0.100
N19090G3X13.376Y173.825I0.100J0.000
N19100G3X13.476Y173.925I0.000J0.100
N19110G01Z-0.950F30.0
N19120G3X13.376Y174.025I-0.100J0.000F600.0
N19130G3X13.276Y173.925I0.000J-0.100
N19140G3X13.376Y173.825I0.100J0.000
N19150G3X13.476Y173.925I0.000J0.100
N19160G01Z-1.000F30.0
N19170G3X13.376Y174.025I-0.100J0.000F600.0
N19180G3X13.276Y173.925I0.000J-0.100
N19190G3X13.376Y173.825I0.100J0.000
N19200G3X13.476Y173.925I0.000J0.100
N19210G01Z-1.050F30.0
N19220G3X13.376Y174.025I-0.100J0.000F600.0
N19230G3X13.276Y173.925I0.000J-0.100
N19240G3X13.376Y173.825I0.100J0.000
N19250G3X13.476Y173.925I0.000J0.100
N19260G01Z-1.100F30.0
N19270G3X13.376Y174.025I-0.100J0.000F600.0
N19280G3X13.276Y173.925I0.000J-0.100
N19290G3X13.376Y173.825I0.100J0.000
N19300G3X13.476Y173.925I0.000J0.100
N19310G01Z-1.150F30.0
N19320G3X13.376Y174.025I-0.100J0.000F600.0
N19330G3X13.276Y173.925I0.000J-0.100
N19340G3X13.376Y173.825I0.100J0.000
N19350G3X13.476Y173.925I0.000J0.100
N19360G01Z-1.200F30.0
N19370G3X13.376Y174.025I-0.100J0.000F600.0
N19380G3X13.276Y173.925I0.000J-0.100
N19390G3X13.376Y173.825I0.100J0.000
N19400G3X13.476Y173.925I0.000J0.100
N19410G01Z-1.250F30.0
N19420G3X13.376Y174.025I-0.100J0.000F600.0
N19430G3X13.276Y173.925I0.000J-0.100
N19440G3X13.376Y173.825I0.100J0.000
N19450G3X13.476Y173.925I0.000J0.100
N19460G01Z-1.300F30.0
N19470G3X13.376Y174.025I-0.100J0.000F600.0
N19480G3X13.276Y173.925I0.000J-0.100
N19490G3X13.376Y173.825I0.100J0.000
N19500G3X13.476Y173.925I0.000J0.100
N19510G01Z-1.350F30.0
N19520G3X13.376Y174.025I-0.100J0.000F600.0
N19530G3X13.276Y173.925I0.000J-0.100
N19540G3X13.376Y173.825I0.100J0.000
N19550G3X13.476Y173.925I0.000J0.100
N19560G01Z-1.400F30.0
N19570G3X13.376Y174.025I-0.100J0.000F600.0
N19580G3X13.276Y173.925I0.000J-0.100
N19590G3X13.376Y173.825I0.100J0.000
N19600G3X13.476Y173.925I0.000J0.100
N19610G01Z-1.450F30.0
N19620G3X13.376Y174.025I-0.100J0.000F600.0
N19630G3X13.276Y173.925I0.000J-0.100
N19640G3X13.376Y173.825I0.100J0.000
N19650G3X13.476Y173.925I0.000J0.100
N19660G01Z-1.500F30.0
N19670G3X13.376Y174.025I-0.100J0.000F600.0
N19680G3X13.276Y173.925I0.000J-0.100
N19690G3X13.376Y173.825I0.100J0.000
N19700G3X13.476Y173.925I0.000J0.100
N19710G01Z-1.550F30.0
N19720G3X13.376Y174.025I-0.100J0.000F600.0
N19730G3X13.276Y173.925I0.000J-0.100
N19740G3X13.376Y173.825I0.100J0.000
N19750G3X13.476Y173.925I0.000J0.100
N19760G01Z-1.600F30.0
N19770G3X13.376Y174.025I-0.100J0.000F600.0
N19780G3X13.276Y173.925I0.000J-0.100
N19790G3X13.376Y173.825I0.100J0.000
N19800G3X13.476Y173.925I0.000J0.100
N19810G01Z-1.650F30.0
N19820G3X13.376Y174.025I-0.100J0.000F600.0
N19830G3X13.276Y173.925I0.000J-0.100
N19840G3X13.376Y173.825I0.100J0.000
N19850G3X13.476Y173.925I0.000J0.100
N19860G01Z-1.700F30.0
N19870G3X13.376Y174.025I-0.100J0.000F600.0
N19880G3X13.276Y173.925I0.000J-0.100
N19890G3X13.376Y173.825I0.100J0.000
N19900G3X13.476Y173.925I0.000J0.100
N19910G01Z-1.750F30.0
N19920G3X13.376Y174.025I-0.100J0.000F600.0
N19930G3X13.276Y173.925I0.000J-0.100
N19940G3X13.376Y173.825I0.100J0.000
N19950G3X13.476Y173.925I0.000J0.100
N19960G01Z-1.800F30.0
N19970G3X13.376Y174.025I-0.100J0.000F600.0
N19980G3X13.276Y173.925I0.000J-0.100
N19990G3X13.376Y173.825I0.100J0.000
N20000G3X13.476Y173.925I0.000J0.100
N20010G01Z-1.850F30.0
N20020G3X13.376Y174.025I-0.100J0.000F600.0
N20030G3X13.276Y173.925I0.000J-0.100
N20040G3X13.376Y173.825I0.100J0.000
N20050G3X13.476Y173.925I0.000J0.100
N20060G01Z-1.900F30.0
N20070G3X13.376Y174.025I-0.100J0.000F600.0
N20080G3X13.276Y173.925I0.000J-0.100
N20090G3X13.376Y173.825I0.100J0.000
N20100G3X13.476Y173.925I0.000J0.100
N20110G01Z-1.950F30.0
N20120G3X13.376Y174.025I-0.100J0.000F600.0
N20130G3X13.276Y173.925I0.000J-0.100
N20140G3X13.376Y173.825I0.100J0.000
N20150G3X13.476Y173.925I0.000J0.100
N20160G01Z-2.000F30.0
N20170G3X13.376Y174.025I-0.100J0.000F600.0
N20180G3X13.276Y173.925I0.000J-0.100
N20190G3X13.376Y173.825I0.100J0.000
N20200G3X13.476Y173.925I0.000J0.100
N20210G01Z-2.050F30.0
N20220G3X13.376Y174.025I-0.100J0.000F600.0
N20230G3X13.276Y173.925I0.000J-0.100
N20240G3X13.376Y173.825I0.100J0.000
N20250G3X13.476Y173.925I0.000J0.100
N20260G01Z-2.100F30.0
N20270G3X13.376Y174.025I-0.100J0.000F600.0
N20280G3X13.276Y173.925I0.000J-0.100
N20290G3X13.376Y173.825I0.100J0.000
N20300G3X13.476Y173.925I0.000J0.100
N20310G01Z-2.150F30.0
N20320G3X13.376Y174.025I-0.100J0.000F600.0
N20330G3X13.276Y173.925I0.000J-0.100
N20340G3X13.376Y173.825I0.100J0.000
N20350G3X13.476Y173.925I0.000J0.100
N20360G01Z-2.200F30.0
N20370G3X13.376Y174.025I-0.100J0.000F600.0
N20380G3X13.276Y173.925I0.000J-0.100
N20390G3X13.376Y173.825I0.100J0.000
N20400G3X13.476Y173.925I0.000J0.100
N20410G01Z-2.250F30.0
N20420G3X13.376Y174.025I-0.100J0.000F600.0
N20430G3X13.276Y173.925I0.000J-0.100
N20440G3X13.376Y173.825I0.100J0.000
N20450G3X13.476Y173.925I0.000J0.100
N20460G01Z-2.300F30.0
N20470G3X13.376Y174.025I-0.100J0.000F600.0
N20480G3X13.276Y173.925I0.000J-0.100
N20490G3X13.376Y173.825I0.100J0.000
N20500G3X13.476Y173.925I0.000J0.100
N20510G01Z-2.350F30.0
N20520G3X13.376Y174.025I-0.100J0.000F600.0
N20530G3X13.276Y173.925I0.000J-0.100
N20540G3X13.376Y173.825I0.100J0.000
N20550G3X13.476Y173.925I0.000J0.100
N20560G01Z-2.400F30.0
N20570G3X13.376Y174.025I-0.100J0.000F600.0
N20580G3X13.276Y173.925I0.000J-0.100
N20590G3X13.376Y173.825I0.100J0.000
N20600G3X13.476Y173.925I0.000J0.100
N20610G01Z-2.450F30.0
N20620G3X13.376Y174.025I-0.100J0.000F600.0
N20630G3X13.276Y173.925I0.000J-0.100
N20640G3X13.376Y173.825I0.100J0.000
N20650G3X13.476Y173.925I0.000J0.100
N20660G01Z-2.500F30.0
N20670G3X13.376Y174.025I-0.100J0.000F600.0
N20680G3X13.276Y173.925I0.000J-0.100
N20690G3X13.376Y173.825I0.100J0.000
N20700G3X13.476Y173.925I0.000J0.100
N20710G01Z-2.550F30.0
N20720G3X13.376Y174.025I-0.100J0.000F600.0
N20730G3X13.276Y173.925I0.000J-0.100
N20740G3X13.376Y173.825I0.100J0.000
N20750G3X13.476Y173.925I0.000J0.100
N20760G01Z-2.600F30.0
N20770G3X13.376Y174.025I-0.100J0.000F600.0
N20780G3X13.276Y173.925I0.000J-0.100
N20790G3X13.376Y173.825I0.100J0.000
N20800G3X13.476Y173.925I0.000J0.100
N20810G01Z-2.650F30.0
N20820G3X13.376Y174.025I-0.100J0.000F600.0
N20830G3X13.276Y173.925I0.000J-0.100
N20840G3X13.376Y173.825I0.100J0.000
N20850G3X13.476Y173.925I0.000J0.100
N20860G01Z-2.700F30.0
N20870G3X13.376Y174.025I-0.100J0.000F600.0
N20880G3X13.276Y173.925I0.000J-0.100
N20890G3X13.376Y173.825I0.100J0.000
N20900G3X13.476Y173.925I0.000J0.100
N20910G01Z-2.750F30.0
N20920G3X13.376Y174.025I-0.100J0.000F600.0
N20930G3X13.276Y173.925I0.000J-0.100
N20940G3X13.376Y173.825I0.100J0.000
N20950G3X13.476Y173.925I0.000J0.100
N20960G01Z-2.800F30.0
N20970G3X13.376Y174.025I-0.100J0.000F600.0
N20980G3X13.276Y173.925I0.000J-0.100
N20990G3X13.376Y173.825I0.100J0.000
N21000G3X13.476Y173.925I0.000J0.100
N21010G01Z-2.850F30.0
N21020G3X13.376Y174.025I-0.100J0.000F600.0
N21030G3X13.276Y173.925I0.000J-0.100
N21040G3X13.376Y173.825I0.100J0.000
N21050G3X13.476Y173.925I0.000J0.100
N21060G01Z-2.900F30.0
N21070G3X13.376Y174.025I-0.100J0.000F600.0
N21080G3X13.276Y173.925I0.000J-0.100
N21090G3X13.376Y173.825I0.100J0.000
N21100G3X13.476Y173.925I0.000J0.100
N21110G01Z-2.950F30.0
N21120G3X13.376Y174.025I-0.100J0.000F600.0
N21130G3X13.276Y173.925I0.000J-0.100
N21140G3X13.376Y173.825I0.100J0.000
N21150G3X13.476Y173.925I0.000J0.100
N21160G01Z-3.000F30.0
N21170G3X13.376Y174.025I-0.100J0.000F600.0
N21180G3X13.276Y173.925I0.000J-0.100
N21190G3X13.376Y173.825I0.100J0.000
N21200G3X13.476Y173.925I0.000J0.100
N21210G00Z6.000
N21220G00Y188.925
N21230G01Z-0.050F30.0
N21240G3X13.376Y189.025I-0.100J0.000F600.0
N21250G3X13.276Y188.925I0.000J-0.100
N21260G3X13.376Y188.825I0.100J0.000
N21270G3X13.476Y188.925I0.000J0.100
N21280G01Z-0.100F30.0
N21290G3X13.376Y189.025I-0.100J0.000F600.0
N21300G3X13.276Y188.925I0.000J-0.100
N21310G3X13.376Y188.825I0.100J0.000
N21320G3X13.476Y188.925I0.000J0.100
N21330G01Z-0.150F30.0
N21340G3X13.376Y189.025I-0.100J0.000F600.0
N21350G3X13.276Y188.925I0.000J-0.100
N21360G3X13.376Y188.825I0.100J0.000
N21370G3X13.476Y188.925I0.000J0.100
N21380G01Z-0.200F30.0
N21390G3X13.376Y189.025I-0.100J0.000F600.0
N21400G3X13.276Y188.925I0.000J-0.100
N21410G3X13.376Y188.825I0.100J0.000
N21420G3X13.476Y188.925I0.000J0.100
N21430G01Z-0.250F30.0
N21440G3X13.376Y189.025I-0.100J0.000F600.0
N21450G3X13.276Y188.925I0.000J-0.100
N21460G3X13.376Y188.825I0.100J0.000
N21470G3X13.476Y188.925I0.000J0.100
N21480G01Z-0.300F30.0
N21490G3X13.376Y189.025I-0.100J0.000F600.0
N21500G3X13.276Y188.925I0.000J-0.100
N21510G3X13.376Y188.825I0.100J0.000
N21520G3X13.476Y188.925I0.000J0.100
N21530G01Z-0.350F30.0
N21540G3X13.376Y189.025I-0.100J0.000F600.0
N21550G3X13.276Y188.925I0.000J-0.100
N21560G3X13.376Y188.825I0.100J0.000
N21570G3X13.476Y188.925I0.000J0.100
N21580G01Z-0.400F30.0
N21590G3X13.376Y189.025I-0.100J0.000F600.0
N21600G3X13.276Y188.925I0.000J-0.100
N21610G3X13.376Y188.825I0.100J0.000
N21620G3X13.476Y188.925I0.000J0.100
N21630G01Z-0.450F30.0
N21640G3X13.376Y189.025I-0.100J0.000F600.0
N21650G3X13.276Y188.925I0.000J-0.100
N21660G3X13.376Y188.825I0.100J0.000
N21670G3X13.476Y188.925I0.000J0.100
N21680G01Z-0.500F30.0
N21690G3X13.376Y189.025I-0.100J0.000F600.0
N21700G3X13.276Y188.925I0.000J-0.100
N21710G3X13.376Y188.825I0.100J0.000
N21720G3X13.476Y188.925I0.000J0.100
N21730G01Z-0.550F30.0
N21740G3X13.376Y189.025I-0.100J0.000F600.0
N21750G3X13.276Y188.925I0.000J-0.100
N21760G3X13.376Y188.825I0.100J0.000
N21770G3X13.476Y188.925I0.000J0.100
N21780G01Z-0.600F30.0
N21790G3X13.376Y189.025I-0.100J0.000F600.0
N21800G3X13.276Y188.925I0.000J-0.100
N21810G3X13.376Y188.825I0.100J0.000
N21820G3X13.476Y188.925I0.000J0.100
N21830G01Z-0.650F30.0
N21840G3X13.376Y189.025I-0.100J0.000F600.0
N21850G3X13.276Y188.925I0.000J-0.100
N21860G3X13.376Y188.825I0.100J0.000
N21870G3X13.476Y188.925I0.000J0.100
N21880G01Z-0.700F30.0
N21890G3X13.376Y189.025I-0.100J0.000F600.0
N21900G3X13.276Y188.925I0.000J-0.100
N21910G3X13.376Y188.825I0.100J0.000
N21920G3X13.476Y188.925I0.000J0.100
N21930G01Z-0.750F30.0
N21940G3X13.376Y189.025I-0.100J0.000F600.0
N21950G3X13.276Y188.925I0.000J-0.100
N21960G3X13.376Y188.825I0.100J0.000
N21970G3X13.476Y188.925I0.000J0.100
N21980G01Z-0.800F30.0
N21990G3X13.376Y189.025I-0.100J0.000F600.0
N22000G3X13.276Y188.925I0.000J-0.100
N22010G3X13.376Y188.825I0.100J0.000
N22020G3X13.476Y188.925I0.000J0.100
N22030G01Z-0.850F30.0
N22040G3X13.376Y189.025I-0.100J0.000F600.0
N22050G3X13.276Y188.925I0.000J-0.100
N22060G3X13.376Y188.825I0.100J0.000
N22070G3X13.476Y188.925I0.000J0.100
N22080G01Z-0.900F30.0
N22090G3X13.376Y189.025I-0.100J0.000F600.0
N22100G3X13.276Y188.925I0.000J-0.100
N22110G3X13.376Y188.825I0.100J0.000
N22120G3X13.476Y188.925I0.000J0.100
N22130G01Z-0.950F30.0
N22140G3X13.376Y189.025I-0.100J0.000F600.0
N22150G3X13.276Y188.925I0.000J-0.100
N22160G3X13.376Y188.825I0.100J0.000
N22170G3X13.476Y188.925I0.000J0.100
N22180G01Z-1.000F30.0
N22190G3X13.376Y189.025I-0.100J0.000F600.0
N22200G3X13.276Y188.925I0.000J-0.100
N22210G3X13.376Y188.825I0.100J0.000
N22220G3X13.476Y188.925I0.000J0.100
N22230G01Z-1.050F30.0
N22240G3X13.376Y189.025I-0.100J0.000F600.0
N22250G3X13.276Y188.925I0.000J-0.100
N22260G3X13.376Y188.825I0.100J0.000
N22270G3X13.476Y188.925I0.000J0.100
N22280G01Z-1.100F30.0
N22290G3X13.376Y189.025I-0.100J0.000F600.0
N22300G3X13.276Y188.925I0.000J-0.100
N22310G3X13.376Y188.825I0.100J0.000
N22320G3X13.476Y188.925I0.000J0.100
N22330G01Z-1.150F30.0
N22340G3X13.376Y189.025I-0.100J0.000F600.0
N22350G3X13.276Y188.925I0.000J-0.100
N22360G3X13.376Y188.825I0.100J0.000
N22370G3X13.476Y188.925I0.000J0.100
N22380G01Z-1.200F30.0
N22390G3X13.376Y189.025I-0.100J0.000F600.0
N22400G3X13.276Y188.925I0.000J-0.100
N22410G3X13.376Y188.825I0.100J0.000
N22420G3X13.476Y188.925I0.000J0.100
N22430G01Z-1.250F30.0
N22440G3X13.376Y189.025I-0.100J0.000F600.0
N22450G3X13.276Y188.925I0.000J-0.100
N22460G3X13.376Y188.825I0.100J0.000
N22470G3X13.476Y188.925I0.000J0.100
N22480G01Z-1.300F30.0
N22490G3X13.376Y189.025I-0.100J0.000F600.0
N22500G3X13.276Y188.925I0.000J-0.100
N22510G3X13.376Y188.825I0.100J0.000
N22520G3X13.476Y188.925I0.000J0.100
N22530G01Z-1.350F30.0
N22540G3X13.376Y189.025I-0.100J0.000F600.0
N22550G3X13.276Y188.925I0.000J-0.100
N22560G3X13.376Y188.825I0.100J0.000
N22570G3X13.476Y188.925I0.000J0.100
N22580G01Z-1.400F30.0
N22590G3X13.376Y189.025I-0.100J0.000F600.0
N22600G3X13.276Y188.925I0.000J-0.100
N22610G3X13.376Y188.825I0.100J0.000
N22620G3X13.476Y188.925I0.000J0.100
N22630G01Z-1.450F30.0
N22640G3X13.376Y189.025I-0.100J0.000F600.0
N22650G3X13.276Y188.925I0.000J-0.100
N22660G3X13.376Y188.825I0.100J0.000
N22670G3X13.476Y188.925I0.000J0.100
N22680G01Z-1.500F30.0
N22690G3X13.376Y189.025I-0.100J0.000F600.0
N22700G3X13.276Y188.925I0.000J-0.100
N22710G3X13.376Y188.825I0.100J0.000
N22720G3X13.476Y188.925I0.000J0.100
N22730G01Z-1.550F30.0
N22740G3X13.376Y189.025I-0.100J0.000F600.0
N22750G3X13.276Y188.925I0.000J-0.100
N22760G3X13.376Y188.825I0.100J0.000
N22770G3X13.476Y188.925I0.000J0.100
N22780G01Z-1.600F30.0
N22790G3X13.376Y189.025I-0.100J0.000F600.0
N22800G3X13.276Y188.925I0.000J-0.100
N22810G3X13.376Y188.825I0.100J0.000
N22820G3X13.476Y188.925I0.000J0.100
N22830G01Z-1.650F30.0
N22840G3X13.376Y189.025I-0.100J0.000F600.0
N22850G3X13.276Y188.925I0.000J-0.100
N22860G3X13.376Y188.825I0.100J0.000
N22870G3X13.476Y188.925I0.000J0.100
N22880G01Z-1.700F30.0
N22890G3X13.376Y189.025I-0.100J0.000F600.0
N22900G3X13.276Y188.925I0.000J-0.100
N22910G3X13.376Y188.825I0.100J0.000
N22920G3X13.476Y188.925I0.000J0.100
N22930G01Z-1.750F30.0
N22940G3X13.376Y189.025I-0.100J0.000F600.0
N22950G3X13.276Y188.925I0.000J-0.100
N22960G3X13.376Y188.825I0.100J0.000
N22970G3X13.476Y188.925I0.000J0.100
N22980G01Z-1.800F30.0
N22990G3X13.376Y189.025I-0.100J0.000F600.0
N23000G3X13.276Y188.925I0.000J-0.100
N23010G3X13.376Y188.825I0.100J0.000
N23020G3X13.476Y188.925I0.000J0.100
N23030G01Z-1.850F30.0
N23040G3X13.376Y189.025I-0.100J0.000F600.0
N23050G3X13.276Y188.925I0.000J-0.100
N23060G3X13.376Y188.825I0.100J0.000
N23070G3X13.476Y188.925I0.000J0.100
N23080G01Z-1.900F30.0
N23090G3X13.376Y189.025I-0.100J0.000F600.0
N23100G3X13.276Y188.925I0.000J-0.100
N23110G3X13.376Y188.825I0.100J0.000
N23120G3X13.476Y188.925I0.000J0.100
N23130G01Z-1.950F30.0
N23140G3X13.376Y189.025I-0.100J0.000F600.0
N23150G3X13.276Y188.925I0.000J-0.100
N23160G3X13.376Y188.825I0.100J0.000
N23170G3X13.476Y188.925I0.000J0.100
N23180G01Z-2.000F30.0
N23190G3X13.376Y189.025I-0.100J0.000F600.0
N23200G3X13.276Y188.925I0.000J-0.100
N23210G3X13.376Y188.825I0.100J0.000
N23220G3X13.476Y188.925I0.000J0.100
N23230G01Z-2.050F30.0
N23240G3X13.376Y189.025I-0.100J0.000F600.0
N23250G3X13.276Y188.925I0.000J-0.100
N23260G3X13.376Y188.825I0.100J0.000
N23270G3X13.476Y188.925I0.000J0.100
N23280G01Z-2.100F30.0
N23290G3X13.376Y189.025I-0.100J0.000F600.0
N23300G3X13.276Y188.925I0.000J-0.100
N23310G3X13.376Y188.825I0.100J0.000
N23320G3X13.476Y188.925I0.000J0.100
N23330G01Z-2.150F30.0
N23340G3X13.376Y189.025I-0.100J0.000F600.0
N23350G3X13.276Y188.925I0.000J-0.100
N23360G3X13.376Y188.825I0.100J0.000
N23370G3X13.476Y188.925I0.000J0.100
N23380G01Z-2.200F30.0
N23390G3X13.376Y189.025I-0.100J0.000F600.0
N23400G3X13.276Y188.925I0.000J-0.100
N23410G3X13.376Y188.825I0.100J0.000
N23420G3X13.476Y188.925I0.000J0.100
N23430G01Z-2.250F30.0
N23440G3X13.376Y189.025I-0.100J0.000F600.0
N23450G3X13.276Y188.925I0.000J-0.100
N23460G3X13.376Y188.825I0.100J0.000
N23470G3X13.476Y188.925I0.000J0.100
N23480G01Z-2.300F30.0
N23490G3X13.376Y189.025I-0.100J0.000F600.0
N23500G3X13.276Y188.925I0.000J-0.100
N23510G3X13.376Y188.825I0.100J0.000
N23520G3X13.476Y188.925I0.000J0.100
N23530G01Z-2.350F30.0
N23540G3X13.376Y189.025I-0.100J0.000F600.0
N23550G3X13.276Y188.925I0.000J-0.100
N23560G3X13.376Y188.825I0.100J0.000
N23570G3X13.476Y188.925I0.000J0.100
N23580G01Z-2.400F30.0
N23590G3X13.376Y189.025I-0.100J0.000F600.0
N23600G3X13.276Y188.925I0.000J-0.100
N23610G3X13.376Y188.825I0.100J0.000
N23620G3X13.476Y188.925I0.000J0.100
N23630G01Z-2.450F30.0
N23640G3X13.376Y189.025I-0.100J0.000F600.0
N23650G3X13.276Y188.925I0.000J-0.100
N23660G3X13.376Y188.825I0.100J0.000
N23670G3X13.476Y188.925I0.000J0.100
N23680G01Z-2.500F30.0
N23690G3X13.376Y189.025I-0.100J0.000F600.0
N23700G3X13.276Y188.925I0.000J-0.100
N23710G3X13.376Y188.825I0.100J0.000
N23720G3X13.476Y188.925I0.000J0.100
N23730G01Z-2.550F30.0
N23740G3X13.376Y189.025I-0.100J0.000F600.0
N23750G3X13.276Y188.925I0.000J-0.100
N23760G3X13.376Y188.825I0.100J0.000
N23770G3X13.476Y188.925I0.000J0.100
N23780G01Z-2.600F30.0
N23790G3X13.376Y189.025I-0.100J0.000F600.0
N23800G3X13.276Y188.925I0.000J-0.100
N23810G3X13.376Y188.825I0.100J0.000
N23820G3X13.476Y188.925I0.000J0.100
N23830G01Z-2.650F30.0
N23840G3X13.376Y189.025I-0.100J0.000F600.0
N23850G3X13.276Y188.925I0.000J-0.100
N23860G3X13.376Y188.825I0.100J0.000
N23870G3X13.476Y188.925I0.000J0.100
N23880G01Z-2.700F30.0
N23890G3X13.376Y189.025I-0.100J0.000F600.0
N23900G3X13.276Y188.925I0.000J-0.100
N23910G3X13.376Y188.825I0.100J0.000
N23920G3X13.476Y188.925I0.000J0.100
N23930G01Z-2.750F30.0
N23940G3X13.376Y189.025I-0.100J0.000F600.0
N23950G3X13.276Y188.925I0.000J-0.100
N23960G3X13.376Y188.825I0.100J0.000
N23970G3X13.476Y188.925I0.000J0.100
N23980G01Z-2.800F30.0
N23990G3X13.376Y189.025I-0.100J0.000F600.0
N24000G3X13.276Y188.925I0.000J-0.100
N24010G3X13.376Y188.825I0.100J0.000
N24020G3X13.476Y188.925I0.000J0.100
N24030G01Z-2.850F30.0
N24040G3X13.376Y189.025I-0.100J0.000F600.0
N24050G3X13.276Y188.925I0.000J-0.100
N24060G3X13.376Y188.825I0.100J0.000
N24070G3X13.476Y188.925I0.000J0.100
N24080G01Z-2.900F30.0
N24090G3X13.376Y189.025I-0.100J0.000F600.0
N24100G3X13.276Y188.925I0.000J-0.100
N24110G3X13.376Y188.825I0.100J0.000
N24120G3X13.476Y188.925I0.000J0.100
N24130G01Z-2.950F30.0
N24140G3X13.376Y189.025I-0.100J0.000F600.0
N24150G3X13.276Y188.925I0.000J-0.100
N24160G3X13.376Y188.825I0.100J0.000
N24170G3X13.476Y188.925I0.000J0.100
N24180G01Z-3.000F30.0
N24190G3X13.376Y189.025I-0.100J0.000F600.0
N24200G3X13.276Y188.925I0.000J-0.100
N24210G3X13.376Y188.825I0.100J0.000
N24220G3X13.476Y188.925I0.000J0.100
N24230G00Z6.000
N24240G00X15.040Y225.343
N24250G01Z-0.050F30.0
N24260G3X14.940Y225.443I-0.100J0.000F600.0
N24270G3X14.840Y225.343I0.000J-0.100
N24280G3X14.940Y225.243I0.100J0.000
N24290G3X15.040Y225.343I0.000J0.100
N24300G01Z-0.100F30.0
N24310G3X14.940Y225.443I-0.100J0.000F600.0
N24320G3X14.840Y225.343I0.000J-0.100
N24330G3X14.940Y225.243I0.100J0.000
N24340G3X15.040Y225.343I0.000J0.100
N24350G01Z-0.150F30.0
N24360G3X14.940Y225.443I-0.100J0.000F600.0
N24370G3X14.840Y225.343I0.000J-0.100
N24380G3X14.940Y225.243I0.100J0.000
N24390G3X15.040Y225.343I0.000J0.100
N24400G01Z-0.200F30.0
N24410G3X14.940Y225.443I-0.100J0.000F600.0
N24420G3X14.840Y225.343I0.000J-0.100
N24430G3X14.940Y225.243I0.100J0.000
N24440G3X15.040Y225.343I0.000J0.100
N24450G01Z-0.250F30.0
N24460G3X14.940Y225.443I-0.100J0.000F600.0
N24470G3X14.840Y225.343I0.000J-0.100
N24480G3X14.940Y225.243I0.100J0.000
N24490G3X15.040Y225.343I0.000J0.100
N24500G01Z-0.300F30.0
N24510G3X14.940Y225.443I-0.100J0.000F600.0
N24520G3X14.840Y225.343I0.000J-0.100
N24530G3X14.940Y225.243I0.100J0.000
N24540G3X15.040Y225.343I0.000J0.100
N24550G01Z-0.350F30.0
N24560G3X14.940Y225.443I-0.100J0.000F600.0
N24570G3X14.840Y225.343I0.000J-0.100
N24580G3X14.940Y225.243I0.100J0.000
N24590G3X15.040Y225.343I0.000J0.100
N24600G01Z-0.400F30.0
N24610G3X14.940Y225.443I-0.100J0.000F600.0
N24620G3X14.840Y225.343I0.000J-0.100
N24630G3X14.940Y225.243I0.100J0.000
N24640G3X15.040Y225.343I0.000J0.100
N24650G01Z-0.450F30.0
N24660G3X14.940Y225.443I-0.100J0.000F600.0
N24670G3X14.840Y225.343I0.000J-0.100
N24680G3X14.940Y225.243I0.100J0.000
N24690G3X15.040Y225.343I0.000J0.100
N24700G01Z-0.500F30.0
N24710G3X14.940Y225.443I-0.100J0.000F600.0
N24720G3X14.840Y225.343I0.000J-0.100
N24730G3X14.940Y225.243I0.100J0.000
N24740G3X15.040Y225.343I0.000J0.100
N24750G01Z-0.550F30.0
N24760G3X14.940Y225.443I-0.100J0.000F600.0
N24770G3X14.840Y225.343I0.000J-0.100
N24780G3X14.940Y225.243I0.100J0.000
N24790G3X15.040Y225.343I0.000J0.100
N24800G01Z-0.600F30.0
N24810G3X14.940Y225.443I-0.100J0.000F600.0
N24820G3X14.840Y225.343I0.000J-0.100
N24830G3X14.940Y225.243I0.100J0.000
N24840G3X15.040Y225.343I0.000J0.100
N24850G01Z-0.650F30.0
N24860G3X14.940Y225.443I-0.100J0.000F600.0
N24870G3X14.840Y225.343I0.000J-0.100
N24880G3X14.940Y225.243I0.100J0.000
N24890G3X15.040Y225.343I0.000J0.100
N24900G01Z-0.700F30.0
N24910G3X14.940Y225.443I-0.100J0.000F600.0
N24920G3X14.840Y225.343I0.000J-0.100
N24930G3X14.940Y225.243I0.100J0.000
N24940G3X15.040Y225.343I0.000J0.100
N24950G01Z-0.750F30.0
N24960G3X14.940Y225.443I-0.100J0.000F600.0
N24970G3X14.840Y225.343I0.000J-0.100
N24980G3X14.940Y225.243I0.100J0.000
N24990G3X15.040Y225.343I0.000J0.100
N25000G01Z-0.800F30.0
N25010G3X14.940Y225.443I-0.100J0.000F600.0
N25020G3X14.840Y225.343I0.000J-0.100
N25030G3X14.940Y225.243I0.100J0.000
N25040G3X15.040Y225.343I0.000J0.100
N25050G01Z-0.850F30.0
N25060G3X14.940Y225.443I-0.100J0.000F600.0
N25070G3X14.840Y225.343I0.000J-0.100
N25080G3X14.940Y225.243I0.100J0.000
N25090G3X15.040Y225.343I0.000J0.100
N25100G01Z-0.900F30.0
N25110G3X14.940Y225.443I-0.100J0.000F600.0
N25120G3X14.840Y225.343I0.000J-0.100
N25130G3X14.940Y225.243I0.100J0.000
N25140G3X15.040Y225.343I0.000J0.100
N25150G01Z-0.950F30.0
N25160G3X14.940Y225.443I-0.100J0.000F600.0
N25170G3X14.840Y225.343I0.000J-0.100
N25180G3X14.940Y225.243I0.100J0.000
N25190G3X15.040Y225.343I0.000J0.100
N25200G01Z-1.000F30.0
N25210G3X14.940Y225.443I-0.100J0.000F600.0
N25220G3X14.840Y225.343I0.000J-0.100
N25230G3X14.940Y225.243I0.100J0.000
N25240G3X15.040Y225.343I0.000J0.100
N25250G01Z-1.050F30.0
N25260G3X14.940Y225.443I-0.100J0.000F600.0
N25270G3X14.840Y225.343I0.000J-0.100
N25280G3X14.940Y225.243I0.100J0.000
N25290G3X15.040Y225.343I0.000J0.100
N25300G01Z-1.100F30.0
N25310G3X14.940Y225.443I-0.100J0.000F600.0
N25320G3X14.840Y225.343I0.000J-0.100
N25330G3X14.940Y225.243I0.100J0.000
N25340G3X15.040Y225.343I0.000J0.100
N25350G01Z-1.150F30.0
N25360G3X14.940Y225.443I-0.100J0.000F600.0
N25370G3X14.840Y225.343I0.000J-0.100
N25380G3X14.940Y225.243I0.100J0.000
N25390G3X15.040Y225.343I0.000J0.100
N25400G01Z-1.200F30.0
N25410G3X14.940Y225.443I-0.100J0.000F600.0
N25420G3X14.840Y225.343I0.000J-0.100
N25430G3X14.940Y225.243I0.100J0.000
N25440G3X15.040Y225.343I0.000J0.100
N25450G01Z-1.250F30.0
N25460G3X14.940Y225.443I-0.100J0.000F600.0
N25470G3X14.840Y225.343I0.000J-0.100
N25480G3X14.940Y225.243I0.100J0.000
N25490G3X15.040Y225.343I0.000J0.100
N25500G01Z-1.300F30.0
N25510G3X14.940Y225.443I-0.100J0.000F600.0
N25520G3X14.840Y225.343I0.000J-0.100
N25530G3X14.940Y225.243I0.100J0.000
N25540G3X15.040Y225.343I0.000J0.100
N25550G01Z-1.350F30.0
N25560G3X14.940Y225.443I-0.100J0.000F600.0
N25570G3X14.840Y225.343I0.000J-0.100
N25580G3X14.940Y225.243I0.100J0.000
N25590G3X15.040Y225.343I0.000J0.100
N25600G01Z-1.400F30.0
N25610G3X14.940Y225.443I-0.100J0.000F600.0
N25620G3X14.840Y225.343I0.000J-0.100
N25630G3X14.940Y225.243I0.100J0.000
N25640G3X15.040Y225.343I0.000J0.100
N25650G01Z-1.450F30.0
N25660G3X14.940Y225.443I-0.100J0.000F600.0
N25670G3X14.840Y225.343I0.000J-0.100
N25680G3X14.940Y225.243I0.100J0.000
N25690G3X15.040Y225.343I0.000J0.100
N25700G01Z-1.500F30.0
N25710G3X14.940Y225.443I-0.100J0.000F600.0
N25720G3X14.840Y225.343I0.000J-0.100
N25730G3X14.940Y225.243I0.100J0.000
N25740G3X15.040Y225.343I0.000J0.100
N25750G01Z-1.550F30.0
N25760G3X14.940Y225.443I-0.100J0.000F600.0
N25770G3X14.840Y225.343I0.000J-0.100
N25780G3X14.940Y225.243I0.100J0.000
N25790G3X15.040Y225.343I0.000J0.100
N25800G01Z-1.600F30.0
N25810G3X14.940Y225.443I-0.100J0.000F600.0
N25820G3X14.840Y225.343I0.000J-0.100
N25830G3X14.940Y225.243I0.100J0.000
N25840G3X15.040Y225.343I0.000J0.100
N25850G01Z-1.650F30.0
N25860G3X14.940Y225.443I-0.100J0.000F600.0
N25870G3X14.840Y225.343I0.000J-0.100
N25880G3X14.940Y225.243I0.100J0.000
N25890G3X15.040Y225.343I0.000J0.100
N25900G01Z-1.700F30.0
N25910G3X14.940Y225.443I-0.100J0.000F600.0
N25920G3X14.840Y225.343I0.000J-0.100
N25930G3X14.940Y225.243I0.100J0.000
N25940G3X15.040Y225.343I0.000J0.100
N25950G01Z-1.750F30.0
N25960G3X14.940Y225.443I-0.100J0.000F600.0
N25970G3X14.840Y225.343I0.000J-0.100
N25980G3X14.940Y225.243I0.100J0.000
N25990G3X15.040Y225.343I0.000J0.100
N26000G01Z-1.800F30.0
N26010G3X14.940Y225.443I-0.100J0.000F600.0
N26020G3X14.840Y225.343I0.000J-0.100
N26030G3X14.940Y225.243I0.100J0.000
N26040G3X15.040Y225.343I0.000J0.100
N26050G01Z-1.850F30.0
N26060G3X14.940Y225.443I-0.100J0.000F600.0
N26070G3X14.840Y225.343I0.000J-0.100
N26080G3X14.940Y225.243I0.100J0.000
N26090G3X15.040Y225.343I0.000J0.100
N26100G01Z-1.900F30.0
N26110G3X14.940Y225.443I-0.100J0.000F600.0
N26120G3X14.840Y225.343I0.000J-0.100
N26130G3X14.940Y225.243I0.100J0.000
N26140G3X15.040Y225.343I0.000J0.100
N26150G01Z-1.950F30.0
N26160G3X14.940Y225.443I-0.100J0.000F600.0
N26170G3X14.840Y225.343I0.000J-0.100
N26180G3X14.940Y225.243I0.100J0.000
N26190G3X15.040Y225.343I0.000J0.100
N26200G01Z-2.000F30.0
N26210G3X14.940Y225.443I-0.100J0.000F600.0
N26220G3X14.840Y225.343I0.000J-0.100
N26230G3X14.940Y225.243I0.100J0.000
N26240G3X15.040Y225.343I0.000J0.100
N26250G01Z-2.050F30.0
N26260G3X14.940Y225.443I-0.100J0.000F600.0
N26270G3X14.840Y225.343I0.000J-0.100
N26280G3X14.940Y225.243I0.100J0.000
N26290G3X15.040Y225.343I0.000J0.100
N26300G01Z-2.100F30.0
N26310G3X14.940Y225.443I-0.100J0.000F600.0
N26320G3X14.840Y225.343I0.000J-0.100
N26330G3X14.940Y225.243I0.100J0.000
N26340G3X15.040Y225.343I0.000J0.100
N26350G01Z-2.150F30.0
N26360G3X14.940Y225.443I-0.100J0.000F600.0
N26370G3X14.840Y225.343I0.000J-0.100
N26380G3X14.940Y225.243I0.100J0.000
N26390G3X15.040Y225.343I0.000J0.100
N26400G01Z-2.200F30.0
N26410G3X14.940Y225.443I-0.100J0.000F600.0
N26420G3X14.840Y225.343I0.000J-0.100
N26430G3X14.940Y225.243I0.100J0.000
N26440G3X15.040Y225.343I0.000J0.100
N26450G01Z-2.250F30.0
N26460G3X14.940Y225.443I-0.100J0.000F600.0
N26470G3X14.840Y225.343I0.000J-0.100
N26480G3X14.940Y225.243I0.100J0.000
N26490G3X15.040Y225.343I0.000J0.100
N26500G01Z-2.300F30.0
N26510G3X14.940Y225.443I-0.100J0.000F600.0
N26520G3X14.840Y225.343I0.000J-0.100
N26530G3X14.940Y225.243I0.100J0.000
N26540G3X15.040Y225.343I0.000J0.100
N26550G01Z-2.350F30.0
N26560G3X14.940Y225.443I-0.100J0.000F600.0
N26570G3X14.840Y225.343I0.000J-0.100
N26580G3X14.940Y225.243I0.100J0.000
N26590G3X15.040Y225.343I0.000J0.100
N26600G01Z-2.400F30.0
N26610G3X14.940Y225.443I-0.100J0.000F600.0
N26620G3X14.840Y225.343I0.000J-0.100
N26630G3X14.940Y225.243I0.100J0.000
N26640G3X15.040Y225.343I0.000J0.100
N26650G01Z-2.450F30.0
N26660G3X14.940Y225.443I-0.100J0.000F600.0
N26670G3X14.840Y225.343I0.000J-0.100
N26680G3X14.940Y225.243I0.100J0.000
N26690G3X15.040Y225.343I0.000J0.100
N26700G01Z-2.500F30.0
N26710G3X14.940Y225.443I-0.100J0.000F600.0
N26720G3X14.840Y225.343I0.000J-0.100
N26730G3X14.940Y225.243I0.100J0.000
N26740G3X15.040Y225.343I0.000J0.100
N26750G01Z-2.550F30.0
N26760G3X14.940Y225.443I-0.100J0.000F600.0
N26770G3X14.840Y225.343I0.000J-0.100
N26780G3X14.940Y225.243I0.100J0.000
N26790G3X15.040Y225.343I0.000J0.100
N26800G01Z-2.600F30.0
N26810G3X14.940Y225.443I-0.100J0.000F600.0
N26820G3X14.840Y225.343I0.000J-0.100
N26830G3X14.940Y225.243I0.100J0.000
N26840G3X15.040Y225.343I0.000J0.100
N26850G01Z-2.650F30.0
N26860G3X14.940Y225.443I-0.100J0.000F600.0
N26870G3X14.840Y225.343I0.000J-0.100
N26880G3X14.940Y225.243I0.100J0.000
N26890G3X15.040Y225.343I0.000J0.100
N26900G01Z-2.700F30.0
N26910G3X14.940Y225.443I-0.100J0.000F600.0
N26920G3X14.840Y225.343I0.000J-0.100
N26930G3X14.940Y225.243I0.100J0.000
N26940G3X15.040Y225.343I0.000J0.100
N26950G01Z-2.750F30.0
N26960G3X14.940Y225.443I-0.100J0.000F600.0
N26970G3X14.840Y225.343I0.000J-0.100
N26980G3X14.940Y225.243I0.100J0.000
N26990G3X15.040Y225.343I0.000J0.100
N27000G01Z-2.800F30.0
N27010G3X14.940Y225.443I-0.100J0.000F600.0
N27020G3X14.840Y225.343I0.000J-0.100
N27030G3X14.940Y225.243I0.100J0.000
N27040G3X15.040Y225.343I0.000J0.100
N27050G01Z-2.850F30.0
N27060G3X14.940Y225.443I-0.100J0.000F600.0
N27070G3X14.840Y225.343I0.000J-0.100
N27080G3X14.940Y225.243I0.100J0.000
N27090G3X15.040Y225.343I0.000J0.100
N27100G01Z-2.900F30.0
N27110G3X14.940Y225.443I-0.100J0.000F600.0
N27120G3X14.840Y225.343I0.000J-0.100
N27130G3X14.940Y225.243I0.100J0.000
N27140G3X15.040Y225.343I0.000J0.100
N27150G01Z-2.950F30.0
N27160G3X14.940Y225.443I-0.100J0.000F600.0
N27170G3X14.840Y225.343I0.000J-0.100
N27180G3X14.940Y225.243I0.100J0.000
N27190G3X15.040Y225.343I0.000J0.100
N27200G01Z-3.000F30.0
N27210G3X14.940Y225.443I-0.100J0.000F600.0
N27220G3X14.840Y225.343I0.000J-0.100
N27230G3X14.940Y225.243I0.100J0.000
N27240G3X15.040Y225.343I0.000J0.100
N27250G00Z6.000
N27260G00Y240.343
N27270G01Z-0.050F30.0
N27280G3X14.940Y240.443I-0.100J0.000F600.0
N27290G3X14.840Y240.343I0.000J-0.100
N27300G3X14.940Y240.243I0.100J0.000
N27310G3X15.040Y240.343I0.000J0.100
N27320G01Z-0.100F30.0
N27330G3X14.940Y240.443I-0.100J0.000F600.0
N27340G3X14.840Y240.343I0.000J-0.100
N27350G3X14.940Y240.243I0.100J0.000
N27360G3X15.040Y240.343I0.000J0.100
N27370G01Z-0.150F30.0
N27380G3X14.940Y240.443I-0.100J0.000F600.0
N27390G3X14.840Y240.343I0.000J-0.100
N27400G3X14.940Y240.243I0.100J0.000
N27410G3X15.040Y240.343I0.000J0.100
N27420G01Z-0.200F30.0
N27430G3X14.940Y240.443I-0.100J0.000F600.0
N27440G3X14.840Y240.343I0.000J-0.100
N27450G3X14.940Y240.243I0.100J0.000
N27460G3X15.040Y240.343I0.000J0.100
N27470G01Z-0.250F30.0
N27480G3X14.940Y240.443I-0.100J0.000F600.0
N27490G3X14.840Y240.343I0.000J-0.100
N27500G3X14.940Y240.243I0.100J0.000
N27510G3X15.040Y240.343I0.000J0.100
N27520G01Z-0.300F30.0
N27530G3X14.940Y240.443I-0.100J0.000F600.0
N27540G3X14.840Y240.343I0.000J-0.100
N27550G3X14.940Y240.243I0.100J0.000
N27560G3X15.040Y240.343I0.000J0.100
N27570G01Z-0.350F30.0
N27580G3X14.940Y240.443I-0.100J0.000F600.0
N27590G3X14.840Y240.343I0.000J-0.100
N27600G3X14.940Y240.243I0.100J0.000
N27610G3X15.040Y240.343I0.000J0.100
N27620G01Z-0.400F30.0
N27630G3X14.940Y240.443I-0.100J0.000F600.0
N27640G3X14.840Y240.343I0.000J-0.100
N27650G3X14.940Y240.243I0.100J0.000
N27660G3X15.040Y240.343I0.000J0.100
N27670G01Z-0.450F30.0
N27680G3X14.940Y240.443I-0.100J0.000F600.0
N27690G3X14.840Y240.343I0.000J-0.100
N27700G3X14.940Y240.243I0.100J0.000
N27710G3X15.040Y240.343I0.000J0.100
N27720G01Z-0.500F30.0
N27730G3X14.940Y240.443I-0.100J0.000F600.0
N27740G3X14.840Y240.343I0.000J-0.100
N27750G3X14.940Y240.243I0.100J0.000
N27760G3X15.040Y240.343I0.000J0.100
N27770G01Z-0.550F30.0
N27780G3X14.940Y240.443I-0.100J0.000F600.0
N27790G3X14.840Y240.343I0.000J-0.100
N27800G3X14.940Y240.243I0.100J0.000
N27810G3X15.040Y240.343I0.000J0.100
N27820G01Z-0.600F30.0
N27830G3X14.940Y240.443I-0.100J0.000F600.0
N27840G3X14.840Y240.343I0.000J-0.100
N27850G3X14.940Y240.243I0.100J0.000
N27860G3X15.040Y240.343I0.000J0.100
N27870G01Z-0.650F30.0
N27880G3X14.940Y240.443I-0.100J0.000F600.0
N27890G3X14.840Y240.343I0.000J-0.100
N27900G3X14.940Y240.243I0.100J0.000
N27910G3X15.040Y240.343I0.000J0.100
N27920G01Z-0.700F30.0
N27930G3X14.940Y240.443I-0.100J0.000F600.0
N27940G3X14.840Y240.343I0.000J-0.100
N27950G3X14.940Y240.243I0.100J0.000
N27960G3X15.040Y240.343I0.000J0.100
N27970G01Z-0.750F30.0
N27980G3X14.940Y240.443I-0.100J0.000F600.0
N27990G3X14.840Y240.343I0.000J-0.100
N28000G3X14.940Y240.243I0.100J0.000
N28010G3X15.040Y240.343I0.000J0.100
N28020G01Z-0.800F30.0
N28030G3X14.940Y240.443I-0.100J0.000F600.0
N28040G3X14.840Y240.343I0.000J-0.100
N28050G3X14.940Y240.243I0.100J0.000
N28060G3X15.040Y240.343I0.000J0.100
N28070G01Z-0.850F30.0
N28080G3X14.940Y240.443I-0.100J0.000F600.0
N28090G3X14.840Y240.343I0.000J-0.100
N28100G3X14.940Y240.243I0.100J0.000
N28110G3X15.040Y240.343I0.000J0.100
N28120G01Z-0.900F30.0
N28130G3X14.940Y240.443I-0.100J0.000F600.0
N28140G3X14.840Y240.343I0.000J-0.100
N28150G3X14.940Y240.243I0.100J0.000
N28160G3X15.040Y240.343I0.000J0.100
N28170G01Z-0.950F30.0
N28180G3X14.940Y240.443I-0.100J0.000F600.0
N28190G3X14.840Y240.343I0.000J-0.100
N28200G3X14.940Y240.243I0.100J0.000
N28210G3X15.040Y240.343I0.000J0.100
N28220G01Z-1.000F30.0
N28230G3X14.940Y240.443I-0.100J0.000F600.0
N28240G3X14.840Y240.343I0.000J-0.100
N28250G3X14.940Y240.243I0.100J0.000
N28260G3X15.040Y240.343I0.000J0.100
N28270G01Z-1.050F30.0
N28280G3X14.940Y240.443I-0.100J0.000F600.0
N28290G3X14.840Y240.343I0.000J-0.100
N28300G3X14.940Y240.243I0.100J0.000
N28310G3X15.040Y240.343I0.000J0.100
N28320G01Z-1.100F30.0
N28330G3X14.940Y240.443I-0.100J0.000F600.0
N28340G3X14.840Y240.343I0.000J-0.100
N28350G3X14.940Y240.243I0.100J0.000
N28360G3X15.040Y240.343I0.000J0.100
N28370G01Z-1.150F30.0
N28380G3X14.940Y240.443I-0.100J0.000F600.0
N28390G3X14.840Y240.343I0.000J-0.100
N28400G3X14.940Y240.243I0.100J0.000
N28410G3X15.040Y240.343I0.000J0.100
N28420G01Z-1.200F30.0
N28430G3X14.940Y240.443I-0.100J0.000F600.0
N28440G3X14.840Y240.343I0.000J-0.100
N28450G3X14.940Y240.243I0.100J0.000
N28460G3X15.040Y240.343I0.000J0.100
N28470G01Z-1.250F30.0
N28480G3X14.940Y240.443I-0.100J0.000F600.0
N28490G3X14.840Y240.343I0.000J-0.100
N28500G3X14.940Y240.243I0.100J0.000
N28510G3X15.040Y240.343I0.000J0.100
N28520G01Z-1.300F30.0
N28530G3X14.940Y240.443I-0.100J0.000F600.0
N28540G3X14.840Y240.343I0.000J-0.100
N28550G3X14.940Y240.243I0.100J0.000
N28560G3X15.040Y240.343I0.000J0.100
N28570G01Z-1.350F30.0
N28580G3X14.940Y240.443I-0.100J0.000F600.0
N28590G3X14.840Y240.343I0.000J-0.100
N28600G3X14.940Y240.243I0.100J0.000
N28610G3X15.040Y240.343I0.000J0.100
N28620G01Z-1.400F30.0
N28630G3X14.940Y240.443I-0.100J0.000F600.0
N28640G3X14.840Y240.343I0.000J-0.100
N28650G3X14.940Y240.243I0.100J0.000
N28660G3X15.040Y240.343I0.000J0.100
N28670G01Z-1.450F30.0
N28680G3X14.940Y240.443I-0.100J0.000F600.0
N28690G3X14.840Y240.343I0.000J-0.100
N28700G3X14.940Y240.243I0.100J0.000
N28710G3X15.040Y240.343I0.000J0.100
N28720G01Z-1.500F30.0
N28730G3X14.940Y240.443I-0.100J0.000F600.0
N28740G3X14.840Y240.343I0.000J-0.100
N28750G3X14.940Y240.243I0.100J0.000
N28760G3X15.040Y240.343I0.000J0.100
N28770G01Z-1.550F30.0
N28780G3X14.940Y240.443I-0.100J0.000F600.0
N28790G3X14.840Y240.343I0.000J-0.100
N28800G3X14.940Y240.243I0.100J0.000
N28810G3X15.040Y240.343I0.000J0.100
N28820G01Z-1.600F30.0
N28830G3X14.940Y240.443I-0.100J0.000F600.0
N28840G3X14.840Y240.343I0.000J-0.100
N28850G3X14.940Y240.243I0.100J0.000
N28860G3X15.040Y240.343I0.000J0.100
N28870G01Z-1.650F30.0
N28880G3X14.940Y240.443I-0.100J0.000F600.0
N28890G3X14.840Y240.343I0.000J-0.100
N28900G3X14.940Y240.243I0.100J0.000
N28910G3X15.040Y240.343I0.000J0.100
N28920G01Z-1.700F30.0
N28930G3X14.940Y240.443I-0.100J0.000F600.0
N28940G3X14.840Y240.343I0.000J-0.100
N28950G3X14.940Y240.243I0.100J0.000
N28960G3X15.040Y240.343I0.000J0.100
N28970G01Z-1.750F30.0
N28980G3X14.940Y240.443I-0.100J0.000F600.0
N28990G3X14.840Y240.343I0.000J-0.100
N29000G3X14.940Y240.243I0.100J0.000
N29010G3X15.040Y240.343I0.000J0.100
N29020G01Z-1.800F30.0
N29030G3X14.940Y240.443I-0.100J0.000F600.0
N29040G3X14.840Y240.343I0.000J-0.100
N29050G3X14.940Y240.243I0.100J0.000
N29060G3X15.040Y240.343I0.000J0.100
N29070G01Z-1.850F30.0
N29080G3X14.940Y240.443I-0.100J0.000F600.0
N29090G3X14.840Y240.343I0.000J-0.100
N29100G3X14.940Y240.243I0.100J0.000
N29110G3X15.040Y240.343I0.000J0.100
N29120G01Z-1.900F30.0
N29130G3X14.940Y240.443I-0.100J0.000F600.0
N29140G3X14.840Y240.343I0.000J-0.100
N29150G3X14.940Y240.243I0.100J0.000
N29160G3X15.040Y240.343I0.000J0.100
N29170G01Z-1.950F30.0
N29180G3X14.940Y240.443I-0.100J0.000F600.0
N29190G3X14.840Y240.343I0.000J-0.100
N29200G3X14.940Y240.243I0.100J0.000
N29210G3X15.040Y240.343I0.000J0.100
N29220G01Z-2.000F30.0
N29230G3X14.940Y240.443I-0.100J0.000F600.0
N29240G3X14.840Y240.343I0.000J-0.100
N29250G3X14.940Y240.243I0.100J0.000
N29260G3X15.040Y240.343I0.000J0.100
N29270G01Z-2.050F30.0
N29280G3X14.940Y240.443I-0.100J0.000F600.0
N29290G3X14.840Y240.343I0.000J-0.100
N29300G3X14.940Y240.243I0.100J0.000
N29310G3X15.040Y240.343I0.000J0.100
N29320G01Z-2.100F30.0
N29330G3X14.940Y240.443I-0.100J0.000F600.0
N29340G3X14.840Y240.343I0.000J-0.100
N29350G3X14.940Y240.243I0.100J0.000
N29360G3X15.040Y240.343I0.000J0.100
N29370G01Z-2.150F30.0
N29380G3X14.940Y240.443I-0.100J0.000F600.0
N29390G3X14.840Y240.343I0.000J-0.100
N29400G3X14.940Y240.243I0.100J0.000
N29410G3X15.040Y240.343I0.000J0.100
N29420G01Z-2.200F30.0
N29430G3X14.940Y240.443I-0.100J0.000F600.0
N29440G3X14.840Y240.343I0.000J-0.100
