( 2?mm_outside )
( USBCNC Postprocessor )
N20G00G21G17G90G40G49
N30G80
N40G00G43Z6.001H5
N50S8000M03
N60G94
N70X0.000Y0.000F400.0
N80G00X34.311Y197.139Z6.000
N90G01Z-0.050F30.0
N100G01X34.206Y197.164F400.0
N110G2X31.466Y193.800I-11.308J6.414
N120G2X30.456Y193.616I-0.659J0.752
N130G01X29.119Y194.166
N140G2X28.531Y195.008I0.409J0.912
N150G2X28.952Y199.326I12.968J0.917
N160G01X28.860Y199.382
N170G2X25.214Y197.030I-8.772J9.594
N180G01X25.159Y197.008
N190X25.022Y196.969
N200X24.878Y196.950
N210X24.731Y196.953
N220X24.584Y196.977
N230X24.443Y197.022
N240X24.313Y197.087
N250X24.196Y197.167
N260X23.095Y198.102
N270X23.002Y198.199
N280X22.922Y198.309
N290X22.857Y198.428
N300X22.810Y198.553
N310G2X22.796Y199.085I0.957J0.290
N320G2X24.530Y203.062I12.616J-3.135
N330G01X24.460Y203.143
N340G2X20.266Y202.033I-5.378J11.835
N350G2X19.341Y202.478I-0.091J0.996
N360G01X18.583Y203.708
N370G2X18.602Y204.735I0.867J0.498
N380G2X21.480Y207.981I11.030J-6.880
N390G01X21.439Y208.080
N400G2X17.107Y208.320I-1.458J12.918
N410G2X16.364Y209.029I0.221J0.975
N420G01X16.023Y210.433
N430G2X16.359Y211.404I0.979J0.205
N440G2X20.099Y213.602I8.364J-9.952
N450G01X20.091Y213.709
N460G2X16.045Y215.276I2.605J12.736
N470G2X15.557Y216.180I0.512J0.859
N480G01X15.667Y217.620
N490G2X16.286Y218.440I0.994J-0.107
N500G2X20.523Y219.374I4.879J-12.050
N510G01X20.548Y219.479
N520G2X17.184Y222.219I6.414J11.308
N530G2X16.965Y222.640I0.752J0.659
N540G01X16.940Y222.787
N550X16.938Y222.937
N560X16.958Y223.087
N570X17.000Y223.230
N580X17.550Y224.566
N590X17.613Y224.684
N600X17.693Y224.796
N610X17.789Y224.896
N620X17.899Y224.983
N630X18.019Y225.053
N640X18.146Y225.105
N650X18.276Y225.139
N660G2X18.391Y225.154I0.186J-0.983
N670G2X22.710Y224.733I0.917J-12.968
N680G01X22.766Y224.825
N690G2X20.413Y228.471I9.594J8.772
N700G2X20.550Y229.489I0.919J0.394
N710G01X21.486Y230.590
N720G2X22.469Y230.889I0.741J-0.671
N730G2X26.445Y229.155I-3.135J-12.616
N740G01X26.527Y229.225
N750G2X25.416Y233.419I11.835J5.378
N760G2X25.861Y234.344I0.996J0.091
N770G01X27.091Y235.102
N780G2X28.118Y235.083I0.498J-0.867
N790G2X31.365Y232.205I-6.880J-11.030
N800G01X31.464Y232.246
N810G2X31.704Y236.578I12.918J1.458
N820G2X32.413Y237.321I0.975J-0.221
N830G01X33.817Y237.662
N840G2X34.787Y237.326I0.205J-0.979
N850G2X36.985Y233.586I-9.952J-8.364
N860G01X37.093Y233.594
N870G2X38.659Y237.640I12.736J-2.605
N880G2X38.858Y237.880I0.859J-0.512
N890G01X38.979Y237.971
N900X39.115Y238.043
N910X39.261Y238.095
N920X39.412Y238.123
N930X39.563Y238.128
N940X41.004Y238.018
N950X41.133Y237.995
N960X41.261Y237.955
N970X41.383Y237.897
N980X41.496Y237.824
N990X41.597Y237.737
N1000X41.685Y237.639
N1010G2X41.823Y237.399I-0.788J-0.616
N1020G2X42.758Y233.162I-12.050J-4.879
N1030G01X42.863Y233.137
N1040G2X45.603Y236.501I11.308J-6.414
N1050G2X46.613Y236.685I0.659J-0.752
N1060G01X47.949Y236.135
N1070G2X48.538Y235.294I-0.409J-0.912
N1080G2X48.117Y230.975I-12.968J-0.917
N1090G01X48.209Y230.919
N1100G2X51.855Y233.272I8.772J-9.594
N1110G2X52.872Y233.135I0.394J-0.919
N1120G01X53.973Y232.199
N1130G2X54.272Y231.217I-0.671J-0.741
N1140G2X52.538Y227.240I-12.616J3.135
N1150G01X52.608Y227.158
N1160G2X56.802Y228.269I5.378J-11.835
N1170G2X57.728Y227.824I0.091J-0.996
N1180G01X58.486Y226.594
N1190G2X58.467Y225.567I-0.867J-0.498
N1200G2X55.589Y222.321I-11.030J6.880
N1210G01X55.630Y222.221
N1220G2X59.962Y221.982I1.458J-12.918
N1230G2X60.312Y221.827I-0.221J-0.975
N1240G01X60.419Y221.741
N1250X60.514Y221.640
N1260X60.595Y221.526
N1270X60.659Y221.402
N1280X60.705Y221.272
N1290X61.045Y219.868
N1300X61.065Y219.727
N1310X61.063Y219.581
N1320X61.040Y219.436
N1330X60.996Y219.295
N1340X60.933Y219.164
N1350X60.853Y219.046
N1360G2X60.710Y218.898I-0.787J0.617
N1370G2X56.969Y216.700I-8.364J9.952
N1380G01X56.978Y216.592
N1390G2X61.024Y215.026I-2.605J-12.736
N1400G2X61.511Y214.122I-0.512J-0.859
N1410G01X61.401Y212.681
N1420G2X60.782Y211.862I-0.994J0.107
N1430G2X56.546Y210.927I-4.879J12.050
N1440G01X56.521Y210.822
N1450G2X59.885Y208.082I-6.414J-11.308
N1460G2X60.069Y207.072I-0.752J-0.659
N1470G01X59.519Y205.736
N1480G2X58.677Y205.148I-0.912J0.409
N1490G2X54.359Y205.568I-0.917J12.968
N1500G01X54.303Y205.476
N1510G2X56.655Y201.831I-9.594J-8.772
N1520G2X56.518Y200.813I-0.919J-0.394
N1530G01X55.583Y199.712
N1540G2X54.600Y199.413I-0.741J0.671
N1550G2X50.623Y201.147I3.135J12.616
N1560G01X50.542Y201.077
N1570G2X51.652Y196.883I-11.835J-5.378
N1580G2X51.617Y196.512I-0.996J-0.091
N1590G01X51.568Y196.382
N1600X51.502Y196.257
N1610X51.417Y196.143
N1620X51.318Y196.042
N1630X51.207Y195.957
N1640X49.977Y195.199
N1650X49.850Y195.138
N1660X49.713Y195.094
N1670X49.570Y195.071
N1680X49.424Y195.068
N1690X49.282Y195.087
N1700X49.146Y195.124
N1710G2X48.951Y195.218I0.334J0.943
N1720G2X45.704Y198.097I6.880J11.030
N1730G01X45.605Y198.055
N1740G2X45.365Y193.723I-12.918J-1.458
N1750G2X44.656Y192.980I-0.975J0.221
N1760G01X43.252Y192.640
N1770G2X42.281Y192.975I-0.205J0.979
N1780G2X40.083Y196.716I9.952J8.364
N1790G01X39.976Y196.707
N1800G2X38.409Y192.661I-12.736J2.605
N1810G2X37.505Y192.174I-0.859J0.512
N1820G01X36.065Y192.284
N1830G2X35.245Y192.903I0.107J0.994
N1840G2X34.311Y197.139I12.050J4.879
N1850G01Z-0.100F30.0
N1860G01X34.206Y197.164F400.0
N1870G2X31.466Y193.800I-11.308J6.414
N1880G2X30.456Y193.616I-0.659J0.752
N1890G01X29.119Y194.166
N1900G2X28.531Y195.008I0.409J0.912
N1910G2X28.952Y199.326I12.968J0.917
N1920G01X28.860Y199.382
N1930G2X25.214Y197.030I-8.772J9.594
N1940G01X25.159Y197.008
N1950X25.022Y196.969
N1960X24.878Y196.950
N1970X24.731Y196.953
N1980X24.584Y196.977
N1990X24.443Y197.022
N2000X24.313Y197.087
N2010X24.196Y197.167
N2020X23.095Y198.102
N2030X23.002Y198.199
N2040X22.922Y198.309
N2050X22.857Y198.428
N2060X22.810Y198.553
N2070G2X22.796Y199.085I0.957J0.290
N2080G2X24.530Y203.062I12.616J-3.135
N2090G01X24.460Y203.143
N2100G2X20.266Y202.033I-5.378J11.835
N2110G2X19.341Y202.478I-0.091J0.996
N2120G01X18.583Y203.708
N2130G2X18.602Y204.735I0.867J0.498
N2140G2X21.480Y207.981I11.030J-6.880
N2150G01X21.439Y208.080
N2160G2X17.107Y208.320I-1.458J12.918
N2170G2X16.364Y209.029I0.221J0.975
N2180G01X16.023Y210.433
N2190G2X16.359Y211.404I0.979J0.205
N2200G2X20.099Y213.602I8.364J-9.952
N2210G01X20.091Y213.709
N2220G2X16.045Y215.276I2.605J12.736
N2230G2X15.557Y216.180I0.512J0.859
N2240G01X15.667Y217.620
N2250G2X16.286Y218.440I0.994J-0.107
N2260G2X20.523Y219.374I4.879J-12.050
N2270G01X20.548Y219.479
N2280G2X17.184Y222.219I6.414J11.308
N2290G2X16.965Y222.640I0.752J0.659
N2300G01X16.940Y222.787
N2310X16.938Y222.937
N2320X16.958Y223.087
N2330X17.000Y223.230
N2340X17.550Y224.566
N2350X17.613Y224.684
N2360X17.693Y224.796
N2370X17.789Y224.896
N2380X17.899Y224.983
N2390X18.019Y225.053
N2400X18.146Y225.105
N2410X18.276Y225.139
N2420G2X18.391Y225.154I0.186J-0.983
N2430G2X22.710Y224.733I0.917J-12.968
N2440G01X22.766Y224.825
N2450G2X20.413Y228.471I9.594J8.772
N2460G2X20.550Y229.489I0.919J0.394
N2470G01X21.486Y230.590
N2480G2X22.469Y230.889I0.741J-0.671
N2490G2X26.445Y229.155I-3.135J-12.616
N2500G01X26.527Y229.225
N2510G2X25.416Y233.419I11.835J5.378
N2520G2X25.861Y234.344I0.996J0.091
N2530G01X27.091Y235.102
N2540G2X28.118Y235.083I0.498J-0.867
N2550G2X31.365Y232.205I-6.880J-11.030
N2560G01X31.464Y232.246
N2570G2X31.704Y236.578I12.918J1.458
N2580G2X32.413Y237.321I0.975J-0.221
N2590G01X33.817Y237.662
N2600G2X34.787Y237.326I0.205J-0.979
N2610G2X36.985Y233.586I-9.952J-8.364
N2620G01X37.093Y233.594
N2630G2X38.659Y237.640I12.736J-2.605
N2640G2X38.858Y237.880I0.859J-0.512
N2650G01X38.979Y237.971
N2660X39.115Y238.043
N2670X39.261Y238.095
N2680X39.412Y238.123
N2690X39.563Y238.128
N2700X41.004Y238.018
N2710X41.133Y237.995
N2720X41.261Y237.955
N2730X41.383Y237.897
N2740X41.496Y237.824
N2750X41.597Y237.737
N2760X41.685Y237.639
N2770G2X41.823Y237.399I-0.788J-0.616
N2780G2X42.758Y233.162I-12.050J-4.879
N2790G01X42.863Y233.137
N2800G2X45.603Y236.501I11.308J-6.414
N2810G2X46.613Y236.685I0.659J-0.752
N2820G01X47.949Y236.135
N2830G2X48.538Y235.294I-0.409J-0.912
N2840G2X48.117Y230.975I-12.968J-0.917
N2850G01X48.209Y230.919
N2860G2X51.855Y233.272I8.772J-9.594
N2870G2X52.872Y233.135I0.394J-0.919
N2880G01X53.973Y232.199
N2890G2X54.272Y231.217I-0.671J-0.741
N2900G2X52.538Y227.240I-12.616J3.135
N2910G01X52.608Y227.158
N2920G2X56.802Y228.269I5.378J-11.835
N2930G2X57.728Y227.824I0.091J-0.996
N2940G01X58.486Y226.594
N2950G2X58.467Y225.567I-0.867J-0.498
N2960G2X55.589Y222.321I-11.030J6.880
N2970G01X55.630Y222.221
N2980G2X59.962Y221.982I1.458J-12.918
N2990G2X60.312Y221.827I-0.221J-0.975
N3000G01X60.419Y221.741
N3010X60.514Y221.640
N3020X60.595Y221.526
N3030X60.659Y221.402
N3040X60.705Y221.272
N3050X61.045Y219.868
N3060X61.065Y219.727
N3070X61.063Y219.581
N3080X61.040Y219.436
N3090X60.996Y219.295
N3100X60.933Y219.164
N3110X60.853Y219.046
N3120G2X60.710Y218.898I-0.787J0.617
N3130G2X56.969Y216.700I-8.364J9.952
N3140G01X56.978Y216.592
N3150G2X61.024Y215.026I-2.605J-12.736
N3160G2X61.511Y214.122I-0.512J-0.859
N3170G01X61.401Y212.681
N3180G2X60.782Y211.862I-0.994J0.107
N3190G2X56.546Y210.927I-4.879J12.050
N3200G01X56.521Y210.822
N3210G2X59.885Y208.082I-6.414J-11.308
N3220G2X60.069Y207.072I-0.752J-0.659
N3230G01X59.519Y205.736
N3240G2X58.677Y205.148I-0.912J0.409
N3250G2X54.359Y205.568I-0.917J12.968
N3260G01X54.303Y205.476
N3270G2X56.655Y201.831I-9.594J-8.772
N3280G2X56.518Y200.813I-0.919J-0.394
N3290G01X55.583Y199.712
N3300G2X54.600Y199.413I-0.741J0.671
N3310G2X50.623Y201.147I3.135J12.616
N3320G01X50.542Y201.077
N3330G2X51.652Y196.883I-11.835J-5.378
N3340G2X51.617Y196.512I-0.996J-0.091
N3350G01X51.568Y196.382
N3360X51.502Y196.257
N3370X51.417Y196.143
N3380X51.318Y196.042
N3390X51.207Y195.957
N3400X49.977Y195.199
N3410X49.850Y195.138
N3420X49.713Y195.094
N3430X49.570Y195.071
N3440X49.424Y195.068
N3450X49.282Y195.087
N3460X49.146Y195.124
N3470G2X48.951Y195.218I0.334J0.943
N3480G2X45.704Y198.097I6.880J11.030
N3490G01X45.605Y198.055
N3500G2X45.365Y193.723I-12.918J-1.458
N3510G2X44.656Y192.980I-0.975J0.221
N3520G01X43.252Y192.640
N3530G2X42.281Y192.975I-0.205J0.979
N3540G2X40.083Y196.716I9.952J8.364
N3550G01X39.976Y196.707
N3560G2X38.409Y192.661I-12.736J2.605
N3570G2X37.505Y192.174I-0.859J0.512
N3580G01X36.065Y192.284
N3590G2X35.245Y192.903I0.107J0.994
N3600G2X34.311Y197.139I12.050J4.879
N3610G01Z-0.150F30.0
N3620G01X34.206Y197.164F400.0
N3630G2X31.466Y193.800I-11.308J6.414
N3640G2X30.456Y193.616I-0.659J0.752
N3650G01X29.119Y194.166
N3660G2X28.531Y195.008I0.409J0.912
N3670G2X28.952Y199.326I12.968J0.917
N3680G01X28.860Y199.382
N3690G2X25.214Y197.030I-8.772J9.594
N3700G01X25.159Y197.008
N3710X25.022Y196.969
N3720X24.878Y196.950
N3730X24.731Y196.953
N3740X24.584Y196.977
N3750X24.443Y197.022
N3760X24.313Y197.087
N3770X24.196Y197.167
N3780X23.095Y198.102
N3790X23.002Y198.199
N3800X22.922Y198.309
N3810X22.857Y198.428
N3820X22.810Y198.553
N3830G2X22.796Y199.085I0.957J0.290
N3840G2X24.530Y203.062I12.616J-3.135
N3850G01X24.460Y203.143
N3860G2X20.266Y202.033I-5.378J11.835
N3870G2X19.341Y202.478I-0.091J0.996
N3880G01X18.583Y203.708
N3890G2X18.602Y204.735I0.867J0.498
N3900G2X21.480Y207.981I11.030J-6.880
N3910G01X21.439Y208.080
N3920G2X17.107Y208.320I-1.458J12.918
N3930G2X16.364Y209.029I0.221J0.975
N3940G01X16.023Y210.433
N3950G2X16.359Y211.404I0.979J0.205
N3960G2X20.099Y213.602I8.364J-9.952
N3970G01X20.091Y213.709
N3980G2X16.045Y215.276I2.605J12.736
N3990G2X15.557Y216.180I0.512J0.859
N4000G01X15.667Y217.620
N4010G2X16.286Y218.440I0.994J-0.107
N4020G2X20.523Y219.374I4.879J-12.050
N4030G01X20.548Y219.479
N4040G2X17.184Y222.219I6.414J11.308
N4050G2X16.965Y222.640I0.752J0.659
N4060G01X16.940Y222.787
N4070X16.938Y222.937
N4080X16.958Y223.087
N4090X17.000Y223.230
N4100X17.550Y224.566
N4110X17.613Y224.684
N4120X17.693Y224.796
N4130X17.789Y224.896
N4140X17.899Y224.983
N4150X18.019Y225.053
N4160X18.146Y225.105
N4170X18.276Y225.139
N4180G2X18.391Y225.154I0.186J-0.983
N4190G2X22.710Y224.733I0.917J-12.968
N4200G01X22.766Y224.825
N4210G2X20.413Y228.471I9.594J8.772
N4220G2X20.550Y229.489I0.919J0.394
N4230G01X21.486Y230.590
N4240G2X22.469Y230.889I0.741J-0.671
N4250G2X26.445Y229.155I-3.135J-12.616
N4260G01X26.527Y229.225
N4270G2X25.416Y233.419I11.835J5.378
N4280G2X25.861Y234.344I0.996J0.091
N4290G01X27.091Y235.102
N4300G2X28.118Y235.083I0.498J-0.867
N4310G2X31.365Y232.205I-6.880J-11.030
N4320G01X31.464Y232.246
N4330G2X31.704Y236.578I12.918J1.458
N4340G2X32.413Y237.321I0.975J-0.221
N4350G01X33.817Y237.662
N4360G2X34.787Y237.326I0.205J-0.979
N4370G2X36.985Y233.586I-9.952J-8.364
N4380G01X37.093Y233.594
N4390G2X38.659Y237.640I12.736J-2.605
N4400G2X38.858Y237.880I0.859J-0.512
N4410G01X38.979Y237.971
N4420X39.115Y238.043
N4430X39.261Y238.095
N4440X39.412Y238.123
N4450X39.563Y238.128
N4460X41.004Y238.018
N4470X41.133Y237.995
N4480X41.261Y237.955
N4490X41.383Y237.897
N4500X41.496Y237.824
N4510X41.597Y237.737
N4520X41.685Y237.639
N4530G2X41.823Y237.399I-0.788J-0.616
N4540G2X42.758Y233.162I-12.050J-4.879
N4550G01X42.863Y233.137
N4560G2X45.603Y236.501I11.308J-6.414
N4570G2X46.613Y236.685I0.659J-0.752
N4580G01X47.949Y236.135
N4590G2X48.538Y235.294I-0.409J-0.912
N4600G2X48.117Y230.975I-12.968J-0.917
N4610G01X48.209Y230.919
N4620G2X51.855Y233.272I8.772J-9.594
N4630G2X52.872Y233.135I0.394J-0.919
N4640G01X53.973Y232.199
N4650G2X54.272Y231.217I-0.671J-0.741
N4660G2X52.538Y227.240I-12.616J3.135
N4670G01X52.608Y227.158
N4680G2X56.802Y228.269I5.378J-11.835
N4690G2X57.728Y227.824I0.091J-0.996
N4700G01X58.486Y226.594
N4710G2X58.467Y225.567I-0.867J-0.498
N4720G2X55.589Y222.321I-11.030J6.880
N4730G01X55.630Y222.221
N4740G2X59.962Y221.982I1.458J-12.918
N4750G2X60.312Y221.827I-0.221J-0.975
N4760G01X60.419Y221.741
N4770X60.514Y221.640
N4780X60.595Y221.526
N4790X60.659Y221.402
N4800X60.705Y221.272
N4810X61.045Y219.868
N4820X61.065Y219.727
N4830X61.063Y219.581
N4840X61.040Y219.436
N4850X60.996Y219.295
N4860X60.933Y219.164
N4870X60.853Y219.046
N4880G2X60.710Y218.898I-0.787J0.617
N4890G2X56.969Y216.700I-8.364J9.952
N4900G01X56.978Y216.592
N4910G2X61.024Y215.026I-2.605J-12.736
N4920G2X61.511Y214.122I-0.512J-0.859
N4930G01X61.401Y212.681
N4940G2X60.782Y211.862I-0.994J0.107
N4950G2X56.546Y210.927I-4.879J12.050
N4960G01X56.521Y210.822
N4970G2X59.885Y208.082I-6.414J-11.308
N4980G2X60.069Y207.072I-0.752J-0.659
N4990G01X59.519Y205.736
N5000G2X58.677Y205.148I-0.912J0.409
N5010G2X54.359Y205.568I-0.917J12.968
N5020G01X54.303Y205.476
N5030G2X56.655Y201.831I-9.594J-8.772
N5040G2X56.518Y200.813I-0.919J-0.394
N5050G01X55.583Y199.712
N5060G2X54.600Y199.413I-0.741J0.671
N5070G2X50.623Y201.147I3.135J12.616
N5080G01X50.542Y201.077
N5090G2X51.652Y196.883I-11.835J-5.378
N5100G2X51.617Y196.512I-0.996J-0.091
N5110G01X51.568Y196.382
N5120X51.502Y196.257
N5130X51.417Y196.143
N5140X51.318Y196.042
N5150X51.207Y195.957
N5160X49.977Y195.199
N5170X49.850Y195.138
N5180X49.713Y195.094
N5190X49.570Y195.071
N5200X49.424Y195.068
N5210X49.282Y195.087
N5220X49.146Y195.124
N5230G2X48.951Y195.218I0.334J0.943
N5240G2X45.704Y198.097I6.880J11.030
N5250G01X45.605Y198.055
N5260G2X45.365Y193.723I-12.918J-1.458
N5270G2X44.656Y192.980I-0.975J0.221
N5280G01X43.252Y192.640
N5290G2X42.281Y192.975I-0.205J0.979
N5300G2X40.083Y196.716I9.952J8.364
N5310G01X39.976Y196.707
N5320G2X38.409Y192.661I-12.736J2.605
N5330G2X37.505Y192.174I-0.859J0.512
N5340G01X36.065Y192.284
N5350G2X35.245Y192.903I0.107J0.994
N5360G2X34.311Y197.139I12.050J4.879
N5370G01Z-0.200F30.0
N5380G01X34.206Y197.164F400.0
N5390G2X31.466Y193.800I-11.308J6.414
N5400G2X30.456Y193.616I-0.659J0.752
N5410G01X29.119Y194.166
N5420G2X28.531Y195.008I0.409J0.912
N5430G2X28.952Y199.326I12.968J0.917
N5440G01X28.860Y199.382
N5450G2X25.214Y197.030I-8.772J9.594
N5460G01X25.159Y197.008
N5470X25.022Y196.969
N5480X24.878Y196.950
N5490X24.731Y196.953
N5500X24.584Y196.977
N5510X24.443Y197.022
N5520X24.313Y197.087
N5530X24.196Y197.167
N5540X23.095Y198.102
N5550X23.002Y198.199
N5560X22.922Y198.309
N5570X22.857Y198.428
N5580X22.810Y198.553
N5590G2X22.796Y199.085I0.957J0.290
N5600G2X24.530Y203.062I12.616J-3.135
N5610G01X24.460Y203.143
N5620G2X20.266Y202.033I-5.378J11.835
N5630G2X19.341Y202.478I-0.091J0.996
N5640G01X18.583Y203.708
N5650G2X18.602Y204.735I0.867J0.498
N5660G2X21.480Y207.981I11.030J-6.880
N5670G01X21.439Y208.080
N5680G2X17.107Y208.320I-1.458J12.918
N5690G2X16.364Y209.029I0.221J0.975
N5700G01X16.023Y210.433
N5710G2X16.359Y211.404I0.979J0.205
N5720G2X20.099Y213.602I8.364J-9.952
N5730G01X20.091Y213.709
N5740G2X16.045Y215.276I2.605J12.736
N5750G2X15.557Y216.180I0.512J0.859
N5760G01X15.667Y217.620
N5770G2X16.286Y218.440I0.994J-0.107
N5780G2X20.523Y219.374I4.879J-12.050
N5790G01X20.548Y219.479
N5800G2X17.184Y222.219I6.414J11.308
N5810G2X16.965Y222.640I0.752J0.659
N5820G01X16.940Y222.787
N5830X16.938Y222.937
N5840X16.958Y223.087
N5850X17.000Y223.230
N5860X17.550Y224.566
N5870X17.613Y224.684
N5880X17.693Y224.796
N5890X17.789Y224.896
N5900X17.899Y224.983
N5910X18.019Y225.053
N5920X18.146Y225.105
N5930X18.276Y225.139
N5940G2X18.391Y225.154I0.186J-0.983
N5950G2X22.710Y224.733I0.917J-12.968
N5960G01X22.766Y224.825
N5970G2X20.413Y228.471I9.594J8.772
N5980G2X20.550Y229.489I0.919J0.394
N5990G01X21.486Y230.590
N6000G2X22.469Y230.889I0.741J-0.671
N6010G2X26.445Y229.155I-3.135J-12.616
N6020G01X26.527Y229.225
N6030G2X25.416Y233.419I11.835J5.378
N6040G2X25.861Y234.344I0.996J0.091
N6050G01X27.091Y235.102
N6060G2X28.118Y235.083I0.498J-0.867
N6070G2X31.365Y232.205I-6.880J-11.030
N6080G01X31.464Y232.246
N6090G2X31.704Y236.578I12.918J1.458
N6100G2X32.413Y237.321I0.975J-0.221
N6110G01X33.817Y237.662
N6120G2X34.787Y237.326I0.205J-0.979
N6130G2X36.985Y233.586I-9.952J-8.364
N6140G01X37.093Y233.594
N6150G2X38.659Y237.640I12.736J-2.605
N6160G2X38.858Y237.880I0.859J-0.512
N6170G01X38.979Y237.971
N6180X39.115Y238.043
N6190X39.261Y238.095
N6200X39.412Y238.123
N6210X39.563Y238.128
N6220X41.004Y238.018
N6230X41.133Y237.995
N6240X41.261Y237.955
N6250X41.383Y237.897
N6260X41.496Y237.824
N6270X41.597Y237.737
N6280X41.685Y237.639
N6290G2X41.823Y237.399I-0.788J-0.616
N6300G2X42.758Y233.162I-12.050J-4.879
N6310G01X42.863Y233.137
N6320G2X45.603Y236.501I11.308J-6.414
N6330G2X46.613Y236.685I0.659J-0.752
N6340G01X47.949Y236.135
N6350G2X48.538Y235.294I-0.409J-0.912
N6360G2X48.117Y230.975I-12.968J-0.917
N6370G01X48.209Y230.919
N6380G2X51.855Y233.272I8.772J-9.594
N6390G2X52.872Y233.135I0.394J-0.919
N6400G01X53.973Y232.199
N6410G2X54.272Y231.217I-0.671J-0.741
N6420G2X52.538Y227.240I-12.616J3.135
N6430G01X52.608Y227.158
N6440G2X56.802Y228.269I5.378J-11.835
N6450G2X57.728Y227.824I0.091J-0.996
N6460G01X58.486Y226.594
N6470G2X58.467Y225.567I-0.867J-0.498
N6480G2X55.589Y222.321I-11.030J6.880
N6490G01X55.630Y222.221
N6500G2X59.962Y221.982I1.458J-12.918
N6510G2X60.312Y221.827I-0.221J-0.975
N6520G01X60.419Y221.741
N6530X60.514Y221.640
N6540X60.595Y221.526
N6550X60.659Y221.402
N6560X60.705Y221.272
N6570X61.045Y219.868
N6580X61.065Y219.727
N6590X61.063Y219.581
N6600X61.040Y219.436
N6610X60.996Y219.295
N6620X60.933Y219.164
N6630X60.853Y219.046
N6640G2X60.710Y218.898I-0.787J0.617
N6650G2X56.969Y216.700I-8.364J9.952
N6660G01X56.978Y216.592
N6670G2X61.024Y215.026I-2.605J-12.736
N6680G2X61.511Y214.122I-0.512J-0.859
N6690G01X61.401Y212.681
N6700G2X60.782Y211.862I-0.994J0.107
N6710G2X56.546Y210.927I-4.879J12.050
N6720G01X56.521Y210.822
N6730G2X59.885Y208.082I-6.414J-11.308
N6740G2X60.069Y207.072I-0.752J-0.659
N6750G01X59.519Y205.736
N6760G2X58.677Y205.148I-0.912J0.409
N6770G2X54.359Y205.568I-0.917J12.968
N6780G01X54.303Y205.476
N6790G2X56.655Y201.831I-9.594J-8.772
N6800G2X56.518Y200.813I-0.919J-0.394
N6810G01X55.583Y199.712
N6820G2X54.600Y199.413I-0.741J0.671
N6830G2X50.623Y201.147I3.135J12.616
N6840G01X50.542Y201.077
N6850G2X51.652Y196.883I-11.835J-5.378
N6860G2X51.617Y196.512I-0.996J-0.091
N6870G01X51.568Y196.382
N6880X51.502Y196.257
N6890X51.417Y196.143
N6900X51.318Y196.042
N6910X51.207Y195.957
N6920X49.977Y195.199
N6930X49.850Y195.138
N6940X49.713Y195.094
N6950X49.570Y195.071
N6960X49.424Y195.068
N6970X49.282Y195.087
N6980X49.146Y195.124
N6990G2X48.951Y195.218I0.334J0.943
N7000G2X45.704Y198.097I6.880J11.030
N7010G01X45.605Y198.055
N7020G2X45.365Y193.723I-12.918J-1.458
N7030G2X44.656Y192.980I-0.975J0.221
N7040G01X43.252Y192.640
N7050G2X42.281Y192.975I-0.205J0.979
N7060G2X40.083Y196.716I9.952J8.364
N7070G01X39.976Y196.707
N7080G2X38.409Y192.661I-12.736J2.605
N7090G2X37.505Y192.174I-0.859J0.512
N7100G01X36.065Y192.284
N7110G2X35.245Y192.903I0.107J0.994
N7120G2X34.311Y197.139I12.050J4.879
N7130G01Z-0.250F30.0
N7140G01X34.206Y197.164F400.0
N7150G2X31.466Y193.800I-11.308J6.414
N7160G2X30.456Y193.616I-0.659J0.752
N7170G01X29.119Y194.166
N7180G2X28.531Y195.008I0.409J0.912
N7190G2X28.952Y199.326I12.968J0.917
N7200G01X28.860Y199.382
N7210G2X25.214Y197.030I-8.772J9.594
N7220G01X25.159Y197.008
N7230X25.022Y196.969
N7240X24.878Y196.950
N7250X24.731Y196.953
N7260X24.584Y196.977
N7270X24.443Y197.022
N7280X24.313Y197.087
N7290X24.196Y197.167
N7300X23.095Y198.102
N7310X23.002Y198.199
N7320X22.922Y198.309
N7330X22.857Y198.428
N7340X22.810Y198.553
N7350G2X22.796Y199.085I0.957J0.290
N7360G2X24.530Y203.062I12.616J-3.135
N7370G01X24.460Y203.143
N7380G2X20.266Y202.033I-5.378J11.835
N7390G2X19.341Y202.478I-0.091J0.996
N7400G01X18.583Y203.708
N7410G2X18.602Y204.735I0.867J0.498
N7420G2X21.480Y207.981I11.030J-6.880
N7430G01X21.439Y208.080
N7440G2X17.107Y208.320I-1.458J12.918
N7450G2X16.364Y209.029I0.221J0.975
N7460G01X16.023Y210.433
N7470G2X16.359Y211.404I0.979J0.205
N7480G2X20.099Y213.602I8.364J-9.952
N7490G01X20.091Y213.709
N7500G2X16.045Y215.276I2.605J12.736
N7510G2X15.557Y216.180I0.512J0.859
N7520G01X15.667Y217.620
N7530G2X16.286Y218.440I0.994J-0.107
N7540G2X20.523Y219.374I4.879J-12.050
N7550G01X20.548Y219.479
N7560G2X17.184Y222.219I6.414J11.308
N7570G2X16.965Y222.640I0.752J0.659
N7580G01X16.940Y222.787
N7590X16.938Y222.937
N7600X16.958Y223.087
N7610X17.000Y223.230
N7620X17.550Y224.566
N7630X17.613Y224.684
N7640X17.693Y224.796
N7650X17.789Y224.896
N7660X17.899Y224.983
N7670X18.019Y225.053
N7680X18.146Y225.105
N7690X18.276Y225.139
N7700G2X18.391Y225.154I0.186J-0.983
N7710G2X22.710Y224.733I0.917J-12.968
N7720G01X22.766Y224.825
N7730G2X20.413Y228.471I9.594J8.772
N7740G2X20.550Y229.489I0.919J0.394
N7750G01X21.486Y230.590
N7760G2X22.469Y230.889I0.741J-0.671
N7770G2X26.445Y229.155I-3.135J-12.616
N7780G01X26.527Y229.225
N7790G2X25.416Y233.419I11.835J5.378
N7800G2X25.861Y234.344I0.996J0.091
N7810G01X27.091Y235.102
N7820G2X28.118Y235.083I0.498J-0.867
N7830G2X31.365Y232.205I-6.880J-11.030
N7840G01X31.464Y232.246
N7850G2X31.704Y236.578I12.918J1.458
N7860G2X32.413Y237.321I0.975J-0.221
N7870G01X33.817Y237.662
N7880G2X34.787Y237.326I0.205J-0.979
N7890G2X36.985Y233.586I-9.952J-8.364
N7900G01X37.093Y233.594
N7910G2X38.659Y237.640I12.736J-2.605
N7920G2X38.858Y237.880I0.859J-0.512
N7930G01X38.979Y237.971
N7940X39.115Y238.043
N7950X39.261Y238.095
N7960X39.412Y238.123
N7970X39.563Y238.128
N7980X41.004Y238.018
N7990X41.133Y237.995
N8000X41.261Y237.955
N8010X41.383Y237.897
N8020X41.496Y237.824
N8030X41.597Y237.737
N8040X41.685Y237.639
N8050G2X41.823Y237.399I-0.788J-0.616
N8060G2X42.758Y233.162I-12.050J-4.879
N8070G01X42.863Y233.137
N8080G2X45.603Y236.501I11.308J-6.414
N8090G2X46.613Y236.685I0.659J-0.752
N8100G01X47.949Y236.135
N8110G2X48.538Y235.294I-0.409J-0.912
N8120G2X48.117Y230.975I-12.968J-0.917
N8130G01X48.209Y230.919
N8140G2X51.855Y233.272I8.772J-9.594
N8150G2X52.872Y233.135I0.394J-0.919
N8160G01X53.973Y232.199
N8170G2X54.272Y231.217I-0.671J-0.741
N8180G2X52.538Y227.240I-12.616J3.135
N8190G01X52.608Y227.158
N8200G2X56.802Y228.269I5.378J-11.835
N8210G2X57.728Y227.824I0.091J-0.996
N8220G01X58.486Y226.594
N8230G2X58.467Y225.567I-0.867J-0.498
N8240G2X55.589Y222.321I-11.030J6.880
N8250G01X55.630Y222.221
N8260G2X59.962Y221.982I1.458J-12.918
N8270G2X60.312Y221.827I-0.221J-0.975
N8280G01X60.419Y221.741
N8290X60.514Y221.640
N8300X60.595Y221.526
N8310X60.659Y221.402
N8320X60.705Y221.272
N8330X61.045Y219.868
N8340X61.065Y219.727
N8350X61.063Y219.581
N8360X61.040Y219.436
N8370X60.996Y219.295
N8380X60.933Y219.164
N8390X60.853Y219.046
N8400G2X60.710Y218.898I-0.787J0.617
N8410G2X56.969Y216.700I-8.364J9.952
N8420G01X56.978Y216.592
N8430G2X61.024Y215.026I-2.605J-12.736
N8440G2X61.511Y214.122I-0.512J-0.859
N8450G01X61.401Y212.681
N8460G2X60.782Y211.862I-0.994J0.107
N8470G2X56.546Y210.927I-4.879J12.050
N8480G01X56.521Y210.822
N8490G2X59.885Y208.082I-6.414J-11.308
N8500G2X60.069Y207.072I-0.752J-0.659
N8510G01X59.519Y205.736
N8520G2X58.677Y205.148I-0.912J0.409
N8530G2X54.359Y205.568I-0.917J12.968
N8540G01X54.303Y205.476
N8550G2X56.655Y201.831I-9.594J-8.772
N8560G2X56.518Y200.813I-0.919J-0.394
N8570G01X55.583Y199.712
N8580G2X54.600Y199.413I-0.741J0.671
N8590G2X50.623Y201.147I3.135J12.616
N8600G01X50.542Y201.077
N8610G2X51.652Y196.883I-11.835J-5.378
N8620G2X51.617Y196.512I-0.996J-0.091
N8630G01X51.568Y196.382
N8640X51.502Y196.257
N8650X51.417Y196.143
N8660X51.318Y196.042
N8670X51.207Y195.957
N8680X49.977Y195.199
N8690X49.850Y195.138
N8700X49.713Y195.094
N8710X49.570Y195.071
N8720X49.424Y195.068
N8730X49.282Y195.087
N8740X49.146Y195.124
N8750G2X48.951Y195.218I0.334J0.943
N8760G2X45.704Y198.097I6.880J11.030
N8770G01X45.605Y198.055
N8780G2X45.365Y193.723I-12.918J-1.458
N8790G2X44.656Y192.980I-0.975J0.221
N8800G01X43.252Y192.640
N8810G2X42.281Y192.975I-0.205J0.979
N8820G2X40.083Y196.716I9.952J8.364
N8830G01X39.976Y196.707
N8840G2X38.409Y192.661I-12.736J2.605
N8850G2X37.505Y192.174I-0.859J0.512
N8860G01X36.065Y192.284
N8870G2X35.245Y192.903I0.107J0.994
N8880G2X34.311Y197.139I12.050J4.879
N8890G01Z-0.300F30.0
N8900G01X34.206Y197.164F400.0
N8910G2X31.466Y193.800I-11.308J6.414
N8920G2X30.456Y193.616I-0.659J0.752
N8930G01X29.119Y194.166
N8940G2X28.531Y195.008I0.409J0.912
N8950G2X28.952Y199.326I12.968J0.917
N8960G01X28.860Y199.382
N8970G2X25.214Y197.030I-8.772J9.594
N8980G01X25.159Y197.008
N8990X25.022Y196.969
N9000X24.878Y196.950
N9010X24.731Y196.953
N9020X24.584Y196.977
N9030X24.443Y197.022
N9040X24.313Y197.087
N9050X24.196Y197.167
N9060X23.095Y198.102
N9070X23.002Y198.199
N9080X22.922Y198.309
N9090X22.857Y198.428
N9100X22.810Y198.553
N9110G2X22.796Y199.085I0.957J0.290
N9120G2X24.530Y203.062I12.616J-3.135
N9130G01X24.460Y203.143
N9140G2X20.266Y202.033I-5.378J11.835
N9150G2X19.341Y202.478I-0.091J0.996
N9160G01X18.583Y203.708
N9170G2X18.602Y204.735I0.867J0.498
N9180G2X21.480Y207.981I11.030J-6.880
N9190G01X21.439Y208.080
N9200G2X17.107Y208.320I-1.458J12.918
N9210G2X16.364Y209.029I0.221J0.975
N9220G01X16.023Y210.433
N9230G2X16.359Y211.404I0.979J0.205
N9240G2X20.099Y213.602I8.364J-9.952
N9250G01X20.091Y213.709
N9260G2X16.045Y215.276I2.605J12.736
N9270G2X15.557Y216.180I0.512J0.859
N9280G01X15.667Y217.620
N9290G2X16.286Y218.440I0.994J-0.107
N9300G2X20.523Y219.374I4.879J-12.050
N9310G01X20.548Y219.479
N9320G2X17.184Y222.219I6.414J11.308
N9330G2X16.965Y222.640I0.752J0.659
N9340G01X16.940Y222.787
N9350X16.938Y222.937
N9360X16.958Y223.087
N9370X17.000Y223.230
N9380X17.550Y224.566
N9390X17.613Y224.684
N9400X17.693Y224.796
N9410X17.789Y224.896
N9420X17.899Y224.983
N9430X18.019Y225.053
N9440X18.146Y225.105
N9450X18.276Y225.139
N9460G2X18.391Y225.154I0.186J-0.983
N9470G2X22.710Y224.733I0.917J-12.968
N9480G01X22.766Y224.825
N9490G2X20.413Y228.471I9.594J8.772
N9500G2X20.550Y229.489I0.919J0.394
N9510G01X21.486Y230.590
N9520G2X22.469Y230.889I0.741J-0.671
N9530G2X26.445Y229.155I-3.135J-12.616
N9540G01X26.527Y229.225
N9550G2X25.416Y233.419I11.835J5.378
N9560G2X25.861Y234.344I0.996J0.091
N9570G01X27.091Y235.102
N9580G2X28.118Y235.083I0.498J-0.867
N9590G2X31.365Y232.205I-6.880J-11.030
N9600G01X31.464Y232.246
N9610G2X31.704Y236.578I12.918J1.458
N9620G2X32.413Y237.321I0.975J-0.221
N9630G01X33.817Y237.662
N9640G2X34.787Y237.326I0.205J-0.979
N9650G2X36.985Y233.586I-9.952J-8.364
N9660G01X37.093Y233.594
N9670G2X38.659Y237.640I12.736J-2.605
N9680G2X38.858Y237.880I0.859J-0.512
N9690G01X38.979Y237.971
N9700X39.115Y238.043
N9710X39.261Y238.095
N9720X39.412Y238.123
N9730X39.563Y238.128
N9740X41.004Y238.018
N9750X41.133Y237.995
N9760X41.261Y237.955
N9770X41.383Y237.897
N9780X41.496Y237.824
N9790X41.597Y237.737
N9800X41.685Y237.639
N9810G2X41.823Y237.399I-0.788J-0.616
N9820G2X42.758Y233.162I-12.050J-4.879
N9830G01X42.863Y233.137
N9840G2X45.603Y236.501I11.308J-6.414
N9850G2X46.613Y236.685I0.659J-0.752
N9860G01X47.949Y236.135
N9870G2X48.538Y235.294I-0.409J-0.912
N9880G2X48.117Y230.975I-12.968J-0.917
N9890G01X48.209Y230.919
N9900G2X51.855Y233.272I8.772J-9.594
N9910G2X52.872Y233.135I0.394J-0.919
N9920G01X53.973Y232.199
N9930G2X54.272Y231.217I-0.671J-0.741
N9940G2X52.538Y227.240I-12.616J3.135
N9950G01X52.608Y227.158
N9960G2X56.802Y228.269I5.378J-11.835
N9970G2X57.728Y227.824I0.091J-0.996
N9980G01X58.486Y226.594
N9990G2X58.467Y225.567I-0.867J-0.498
N10000G2X55.589Y222.321I-11.030J6.880
N10010G01X55.630Y222.221
N10020G2X59.962Y221.982I1.458J-12.918
N10030G2X60.312Y221.827I-0.221J-0.975
N10040G01X60.419Y221.741
N10050X60.514Y221.640
N10060X60.595Y221.526
N10070X60.659Y221.402
N10080X60.705Y221.272
N10090X61.045Y219.868
N10100X61.065Y219.727
N10110X61.063Y219.581
N10120X61.040Y219.436
N10130X60.996Y219.295
N10140X60.933Y219.164
N10150X60.853Y219.046
N10160G2X60.710Y218.898I-0.787J0.617
N10170G2X56.969Y216.700I-8.364J9.952
N10180G01X56.978Y216.592
N10190G2X61.024Y215.026I-2.605J-12.736
N10200G2X61.511Y214.122I-0.512J-0.859
N10210G01X61.401Y212.681
N10220G2X60.782Y211.862I-0.994J0.107
N10230G2X56.546Y210.927I-4.879J12.050
N10240G01X56.521Y210.822
N10250G2X59.885Y208.082I-6.414J-11.308
N10260G2X60.069Y207.072I-0.752J-0.659
N10270G01X59.519Y205.736
N10280G2X58.677Y205.148I-0.912J0.409
N10290G2X54.359Y205.568I-0.917J12.968
N10300G01X54.303Y205.476
N10310G2X56.655Y201.831I-9.594J-8.772
N10320G2X56.518Y200.813I-0.919J-0.394
N10330G01X55.583Y199.712
N10340G2X54.600Y199.413I-0.741J0.671
N10350G2X50.623Y201.147I3.135J12.616
N10360G01X50.542Y201.077
N10370G2X51.652Y196.883I-11.835J-5.378
N10380G2X51.617Y196.512I-0.996J-0.091
N10390G01X51.568Y196.382
N10400X51.502Y196.257
N10410X51.417Y196.143
N10420X51.318Y196.042
N10430X51.207Y195.957
N10440X49.977Y195.199
N10450X49.850Y195.138
N10460X49.713Y195.094
N10470X49.570Y195.071
N10480X49.424Y195.068
N10490X49.282Y195.087
N10500X49.146Y195.124
N10510G2X48.951Y195.218I0.334J0.943
N10520G2X45.704Y198.097I6.880J11.030
N10530G01X45.605Y198.055
N10540G2X45.365Y193.723I-12.918J-1.458
N10550G2X44.656Y192.980I-0.975J0.221
N10560G01X43.252Y192.640
N10570G2X42.281Y192.975I-0.205J0.979
N10580G2X40.083Y196.716I9.952J8.364
N10590G01X39.976Y196.707
N10600G2X38.409Y192.661I-12.736J2.605
N10610G2X37.505Y192.174I-0.859J0.512
N10620G01X36.065Y192.284
N10630G2X35.245Y192.903I0.107J0.994
N10640G2X34.311Y197.139I12.050J4.879
N10650G01Z-0.350F30.0
N10660G01X34.206Y197.164F400.0
N10670G2X31.466Y193.800I-11.308J6.414
N10680G2X30.456Y193.616I-0.659J0.752
N10690G01X29.119Y194.166
N10700G2X28.531Y195.008I0.409J0.912
N10710G2X28.952Y199.326I12.968J0.917
N10720G01X28.860Y199.382
N10730G2X25.214Y197.030I-8.772J9.594
N10740G01X25.159Y197.008
N10750X25.022Y196.969
N10760X24.878Y196.950
N10770X24.731Y196.953
N10780X24.584Y196.977
N10790X24.443Y197.022
N10800X24.313Y197.087
N10810X24.196Y197.167
N10820X23.095Y198.102
N10830X23.002Y198.199
N10840X22.922Y198.309
N10850X22.857Y198.428
N10860X22.810Y198.553
N10870G2X22.796Y199.085I0.957J0.290
N10880G2X24.530Y203.062I12.616J-3.135
N10890G01X24.460Y203.143
N10900G2X20.266Y202.033I-5.378J11.835
N10910G2X19.341Y202.478I-0.091J0.996
N10920G01X18.583Y203.708
N10930G2X18.602Y204.735I0.867J0.498
N10940G2X21.480Y207.981I11.030J-6.880
N10950G01X21.439Y208.080
N10960G2X17.107Y208.320I-1.458J12.918
N10970G2X16.364Y209.029I0.221J0.975
N10980G01X16.023Y210.433
N10990G2X16.359Y211.404I0.979J0.205
N11000G2X20.099Y213.602I8.364J-9.952
N11010G01X20.091Y213.709
N11020G2X16.045Y215.276I2.605J12.736
N11030G2X15.557Y216.180I0.512J0.859
N11040G01X15.667Y217.620
N11050G2X16.286Y218.440I0.994J-0.107
N11060G2X20.523Y219.374I4.879J-12.050
N11070G01X20.548Y219.479
N11080G2X17.184Y222.219I6.414J11.308
N11090G2X16.965Y222.640I0.752J0.659
N11100G01X16.940Y222.787
N11110X16.938Y222.937
N11120X16.958Y223.087
N11130X17.000Y223.230
N11140X17.550Y224.566
N11150X17.613Y224.684
N11160X17.693Y224.796
N11170X17.789Y224.896
N11180X17.899Y224.983
N11190X18.019Y225.053
N11200X18.146Y225.105
N11210X18.276Y225.139
N11220G2X18.391Y225.154I0.186J-0.983
N11230G2X22.710Y224.733I0.917J-12.968
N11240G01X22.766Y224.825
N11250G2X20.413Y228.471I9.594J8.772
N11260G2X20.550Y229.489I0.919J0.394
N11270G01X21.486Y230.590
N11280G2X22.469Y230.889I0.741J-0.671
N11290G2X26.445Y229.155I-3.135J-12.616
N11300G01X26.527Y229.225
N11310G2X25.416Y233.419I11.835J5.378
N11320G2X25.861Y234.344I0.996J0.091
N11330G01X27.091Y235.102
N11340G2X28.118Y235.083I0.498J-0.867
N11350G2X31.365Y232.205I-6.880J-11.030
N11360G01X31.464Y232.246
N11370G2X31.704Y236.578I12.918J1.458
N11380G2X32.413Y237.321I0.975J-0.221
N11390G01X33.817Y237.662
N11400G2X34.787Y237.326I0.205J-0.979
N11410G2X36.985Y233.586I-9.952J-8.364
N11420G01X37.093Y233.594
N11430G2X38.659Y237.640I12.736J-2.605
N11440G2X38.858Y237.880I0.859J-0.512
N11450G01X38.979Y237.971
N11460X39.115Y238.043
N11470X39.261Y238.095
N11480X39.412Y238.123
N11490X39.563Y238.128
N11500X41.004Y238.018
N11510X41.133Y237.995
N11520X41.261Y237.955
N11530X41.383Y237.897
N11540X41.496Y237.824
N11550X41.597Y237.737
N11560X41.685Y237.639
N11570G2X41.823Y237.399I-0.788J-0.616
N11580G2X42.758Y233.162I-12.050J-4.879
N11590G01X42.863Y233.137
N11600G2X45.603Y236.501I11.308J-6.414
N11610G2X46.613Y236.685I0.659J-0.752
N11620G01X47.949Y236.135
N11630G2X48.538Y235.294I-0.409J-0.912
N11640G2X48.117Y230.975I-12.968J-0.917
N11650G01X48.209Y230.919
N11660G2X51.855Y233.272I8.772J-9.594
N11670G2X52.872Y233.135I0.394J-0.919
N11680G01X53.973Y232.199
N11690G2X54.272Y231.217I-0.671J-0.741
N11700G2X52.538Y227.240I-12.616J3.135
N11710G01X52.608Y227.158
N11720G2X56.802Y228.269I5.378J-11.835
N11730G2X57.728Y227.824I0.091J-0.996
N11740G01X58.486Y226.594
N11750G2X58.467Y225.567I-0.867J-0.498
N11760G2X55.589Y222.321I-11.030J6.880
N11770G01X55.630Y222.221
N11780G2X59.962Y221.982I1.458J-12.918
N11790G2X60.312Y221.827I-0.221J-0.975
N11800G01X60.419Y221.741
N11810X60.514Y221.640
N11820X60.595Y221.526
N11830X60.659Y221.402
N11840X60.705Y221.272
N11850X61.045Y219.868
N11860X61.065Y219.727
N11870X61.063Y219.581
N11880X61.040Y219.436
N11890X60.996Y219.295
N11900X60.933Y219.164
N11910X60.853Y219.046
N11920G2X60.710Y218.898I-0.787J0.617
N11930G2X56.969Y216.700I-8.364J9.952
N11940G01X56.978Y216.592
N11950G2X61.024Y215.026I-2.605J-12.736
N11960G2X61.511Y214.122I-0.512J-0.859
N11970G01X61.401Y212.681
N11980G2X60.782Y211.862I-0.994J0.107
N11990G2X56.546Y210.927I-4.879J12.050
N12000G01X56.521Y210.822
N12010G2X59.885Y208.082I-6.414J-11.308
N12020G2X60.069Y207.072I-0.752J-0.659
N12030G01X59.519Y205.736
N12040G2X58.677Y205.148I-0.912J0.409
N12050G2X54.359Y205.568I-0.917J12.968
N12060G01X54.303Y205.476
N12070G2X56.655Y201.831I-9.594J-8.772
N12080G2X56.518Y200.813I-0.919J-0.394
N12090G01X55.583Y199.712
N12100G2X54.600Y199.413I-0.741J0.671
N12110G2X50.623Y201.147I3.135J12.616
N12120G01X50.542Y201.077
N12130G2X51.652Y196.883I-11.835J-5.378
N12140G2X51.617Y196.512I-0.996J-0.091
N12150G01X51.568Y196.382
N12160X51.502Y196.257
N12170X51.417Y196.143
N12180X51.318Y196.042
N12190X51.207Y195.957
N12200X49.977Y195.199
N12210X49.850Y195.138
N12220X49.713Y195.094
N12230X49.570Y195.071
N12240X49.424Y195.068
N12250X49.282Y195.087
N12260X49.146Y195.124
N12270G2X48.951Y195.218I0.334J0.943
N12280G2X45.704Y198.097I6.880J11.030
N12290G01X45.605Y198.055
N12300G2X45.365Y193.723I-12.918J-1.458
N12310G2X44.656Y192.980I-0.975J0.221
N12320G01X43.252Y192.640
N12330G2X42.281Y192.975I-0.205J0.979
N12340G2X40.083Y196.716I9.952J8.364
N12350G01X39.976Y196.707
N12360G2X38.409Y192.661I-12.736J2.605
N12370G2X37.505Y192.174I-0.859J0.512
N12380G01X36.065Y192.284
N12390G2X35.245Y192.903I0.107J0.994
N12400G2X34.311Y197.139I12.050J4.879
N12410G01Z-0.400F30.0
N12420G01X34.206Y197.164F400.0
N12430G2X31.466Y193.800I-11.308J6.414
N12440G2X30.456Y193.616I-0.659J0.752
N12450G01X29.119Y194.166
N12460G2X28.531Y195.008I0.409J0.912
N12470G2X28.952Y199.326I12.968J0.917
N12480G01X28.860Y199.382
N12490G2X25.214Y197.030I-8.772J9.594
N12500G01X25.159Y197.008
N12510X25.022Y196.969
N12520X24.878Y196.950
N12530X24.731Y196.953
N12540X24.584Y196.977
N12550X24.443Y197.022
N12560X24.313Y197.087
N12570X24.196Y197.167
N12580X23.095Y198.102
N12590X23.002Y198.199
N12600X22.922Y198.309
N12610X22.857Y198.428
N12620X22.810Y198.553
N12630G2X22.796Y199.085I0.957J0.290
N12640G2X24.530Y203.062I12.616J-3.135
N12650G01X24.460Y203.143
N12660G2X20.266Y202.033I-5.378J11.835
N12670G2X19.341Y202.478I-0.091J0.996
N12680G01X18.583Y203.708
N12690G2X18.602Y204.735I0.867J0.498
N12700G2X21.480Y207.981I11.030J-6.880
N12710G01X21.439Y208.080
N12720G2X17.107Y208.320I-1.458J12.918
N12730G2X16.364Y209.029I0.221J0.975
N12740G01X16.023Y210.433
N12750G2X16.359Y211.404I0.979J0.205
N12760G2X20.099Y213.602I8.364J-9.952
N12770G01X20.091Y213.709
N12780G2X16.045Y215.276I2.605J12.736
N12790G2X15.557Y216.180I0.512J0.859
N12800G01X15.667Y217.620
N12810G2X16.286Y218.440I0.994J-0.107
N12820G2X20.523Y219.374I4.879J-12.050
N12830G01X20.548Y219.479
N12840G2X17.184Y222.219I6.414J11.308
N12850G2X16.965Y222.640I0.752J0.659
N12860G01X16.940Y222.787
N12870X16.938Y222.937
N12880X16.958Y223.087
N12890X17.000Y223.230
N12900X17.550Y224.566
N12910X17.613Y224.684
N12920X17.693Y224.796
N12930X17.789Y224.896
N12940X17.899Y224.983
N12950X18.019Y225.053
N12960X18.146Y225.105
N12970X18.276Y225.139
N12980G2X18.391Y225.154I0.186J-0.983
N12990G2X22.710Y224.733I0.917J-12.968
N13000G01X22.766Y224.825
N13010G2X20.413Y228.471I9.594J8.772
N13020G2X20.550Y229.489I0.919J0.394
N13030G01X21.486Y230.590
N13040G2X22.469Y230.889I0.741J-0.671
N13050G2X26.445Y229.155I-3.135J-12.616
N13060G01X26.527Y229.225
N13070G2X25.416Y233.419I11.835J5.378
N13080G2X25.861Y234.344I0.996J0.091
N13090G01X27.091Y235.102
N13100G2X28.118Y235.083I0.498J-0.867
N13110G2X31.365Y232.205I-6.880J-11.030
N13120G01X31.464Y232.246
N13130G2X31.704Y236.578I12.918J1.458
N13140G2X32.413Y237.321I0.975J-0.221
N13150G01X33.817Y237.662
N13160G2X34.787Y237.326I0.205J-0.979
N13170G2X36.985Y233.586I-9.952J-8.364
N13180G01X37.093Y233.594
N13190G2X38.659Y237.640I12.736J-2.605
N13200G2X38.858Y237.880I0.859J-0.512
N13210G01X38.979Y237.971
N13220X39.115Y238.043
N13230X39.261Y238.095
N13240X39.412Y238.123
N13250X39.563Y238.128
N13260X41.004Y238.018
N13270X41.133Y237.995
N13280X41.261Y237.955
N13290X41.383Y237.897
N13300X41.496Y237.824
N13310X41.597Y237.737
N13320X41.685Y237.639
N13330G2X41.823Y237.399I-0.788J-0.616
N13340G2X42.758Y233.162I-12.050J-4.879
N13350G01X42.863Y233.137
N13360G2X45.603Y236.501I11.308J-6.414
N13370G2X46.613Y236.685I0.659J-0.752
N13380G01X47.949Y236.135
N13390G2X48.538Y235.294I-0.409J-0.912
N13400G2X48.117Y230.975I-12.968J-0.917
N13410G01X48.209Y230.919
N13420G2X51.855Y233.272I8.772J-9.594
N13430G2X52.872Y233.135I0.394J-0.919
N13440G01X53.973Y232.199
N13450G2X54.272Y231.217I-0.671J-0.741
N13460G2X52.538Y227.240I-12.616J3.135
N13470G01X52.608Y227.158
N13480G2X56.802Y228.269I5.378J-11.835
N13490G2X57.728Y227.824I0.091J-0.996
N13500G01X58.486Y226.594
N13510G2X58.467Y225.567I-0.867J-0.498
N13520G2X55.589Y222.321I-11.030J6.880
N13530G01X55.630Y222.221
N13540G2X59.962Y221.982I1.458J-12.918
N13550G2X60.312Y221.827I-0.221J-0.975
N13560G01X60.419Y221.741
N13570X60.514Y221.640
N13580X60.595Y221.526
N13590X60.659Y221.402
N13600X60.705Y221.272
N13610X61.045Y219.868
N13620X61.065Y219.727
N13630X61.063Y219.581
N13640X61.040Y219.436
N13650X60.996Y219.295
N13660X60.933Y219.164
N13670X60.853Y219.046
N13680G2X60.710Y218.898I-0.787J0.617
N13690G2X56.969Y216.700I-8.364J9.952
N13700G01X56.978Y216.592
N13710G2X61.024Y215.026I-2.605J-12.736
N13720G2X61.511Y214.122I-0.512J-0.859
N13730G01X61.401Y212.681
N13740G2X60.782Y211.862I-0.994J0.107
N13750G2X56.546Y210.927I-4.879J12.050
N13760G01X56.521Y210.822
N13770G2X59.885Y208.082I-6.414J-11.308
N13780G2X60.069Y207.072I-0.752J-0.659
N13790G01X59.519Y205.736
N13800G2X58.677Y205.148I-0.912J0.409
N13810G2X54.359Y205.568I-0.917J12.968
N13820G01X54.303Y205.476
N13830G2X56.655Y201.831I-9.594J-8.772
N13840G2X56.518Y200.813I-0.919J-0.394
N13850G01X55.583Y199.712
N13860G2X54.600Y199.413I-0.741J0.671
N13870G2X50.623Y201.147I3.135J12.616
N13880G01X50.542Y201.077
N13890G2X51.652Y196.883I-11.835J-5.378
N13900G2X51.617Y196.512I-0.996J-0.091
N13910G01X51.568Y196.382
N13920X51.502Y196.257
N13930X51.417Y196.143
N13940X51.318Y196.042
N13950X51.207Y195.957
N13960X49.977Y195.199
N13970X49.850Y195.138
N13980X49.713Y195.094
N13990X49.570Y195.071
N14000X49.424Y195.068
N14010X49.282Y195.087
N14020X49.146Y195.124
N14030G2X48.951Y195.218I0.334J0.943
N14040G2X45.704Y198.097I6.880J11.030
N14050G01X45.605Y198.055
N14060G2X45.365Y193.723I-12.918J-1.458
N14070G2X44.656Y192.980I-0.975J0.221
N14080G01X43.252Y192.640
N14090G2X42.281Y192.975I-0.205J0.979
N14100G2X40.083Y196.716I9.952J8.364
N14110G01X39.976Y196.707
N14120G2X38.409Y192.661I-12.736J2.605
N14130G2X37.505Y192.174I-0.859J0.512
N14140G01X36.065Y192.284
N14150G2X35.245Y192.903I0.107J0.994
N14160G2X34.311Y197.139I12.050J4.879
N14170G01Z-0.450F30.0
N14180G01X34.206Y197.164F400.0
N14190G2X31.466Y193.800I-11.308J6.414
N14200G2X30.456Y193.616I-0.659J0.752
N14210G01X29.119Y194.166
N14220G2X28.531Y195.008I0.409J0.912
N14230G2X28.952Y199.326I12.968J0.917
N14240G01X28.860Y199.382
N14250G2X25.214Y197.030I-8.772J9.594
N14260G01X25.159Y197.008
N14270X25.022Y196.969
N14280X24.878Y196.950
N14290X24.731Y196.953
N14300X24.584Y196.977
N14310X24.443Y197.022
N14320X24.313Y197.087
N14330X24.196Y197.167
N14340X23.095Y198.102
N14350X23.002Y198.199
N14360X22.922Y198.309
N14370X22.857Y198.428
N14380X22.810Y198.553
N14390G2X22.796Y199.085I0.957J0.290
N14400G2X24.530Y203.062I12.616J-3.135
N14410G01X24.460Y203.143
N14420G2X20.266Y202.033I-5.378J11.835
N14430G2X19.341Y202.478I-0.091J0.996
N14440G01X18.583Y203.708
N14450G2X18.602Y204.735I0.867J0.498
N14460G2X21.480Y207.981I11.030J-6.880
N14470G01X21.439Y208.080
N14480G2X17.107Y208.320I-1.458J12.918
N14490G2X16.364Y209.029I0.221J0.975
N14500G01X16.023Y210.433
N14510G2X16.359Y211.404I0.979J0.205
N14520G2X20.099Y213.602I8.364J-9.952
N14530G01X20.091Y213.709
N14540G2X16.045Y215.276I2.605J12.736
N14550G2X15.557Y216.180I0.512J0.859
N14560G01X15.667Y217.620
N14570G2X16.286Y218.440I0.994J-0.107
N14580G2X20.523Y219.374I4.879J-12.050
N14590G01X20.548Y219.479
N14600G2X17.184Y222.219I6.414J11.308
N14610G2X16.965Y222.640I0.752J0.659
N14620G01X16.940Y222.787
N14630X16.938Y222.937
N14640X16.958Y223.087
N14650X17.000Y223.230
N14660X17.550Y224.566
N14670X17.613Y224.684
N14680X17.693Y224.796
N14690X17.789Y224.896
N14700X17.899Y224.983
N14710X18.019Y225.053
N14720X18.146Y225.105
N14730X18.276Y225.139
N14740G2X18.391Y225.154I0.186J-0.983
N14750G2X22.710Y224.733I0.917J-12.968
N14760G01X22.766Y224.825
N14770G2X20.413Y228.471I9.594J8.772
N14780G2X20.550Y229.489I0.919J0.394
N14790G01X21.486Y230.590
N14800G2X22.469Y230.889I0.741J-0.671
N14810G2X26.445Y229.155I-3.135J-12.616
N14820G01X26.527Y229.225
N14830G2X25.416Y233.419I11.835J5.378
N14840G2X25.861Y234.344I0.996J0.091
N14850G01X27.091Y235.102
N14860G2X28.118Y235.083I0.498J-0.867
N14870G2X31.365Y232.205I-6.880J-11.030
N14880G01X31.464Y232.246
N14890G2X31.704Y236.578I12.918J1.458
N14900G2X32.413Y237.321I0.975J-0.221
N14910G01X33.817Y237.662
N14920G2X34.787Y237.326I0.205J-0.979
N14930G2X36.985Y233.586I-9.952J-8.364
N14940G01X37.093Y233.594
N14950G2X38.659Y237.640I12.736J-2.605
N14960G2X38.858Y237.880I0.859J-0.512
N14970G01X38.979Y237.971
N14980X39.115Y238.043
N14990X39.261Y238.095
N15000X39.412Y238.123
N15010X39.563Y238.128
N15020X41.004Y238.018
N15030X41.133Y237.995
N15040X41.261Y237.955
N15050X41.383Y237.897
N15060X41.496Y237.824
N15070X41.597Y237.737
N15080X41.685Y237.639
N15090G2X41.823Y237.399I-0.788J-0.616
N15100G2X42.758Y233.162I-12.050J-4.879
N15110G01X42.863Y233.137
N15120G2X45.603Y236.501I11.308J-6.414
N15130G2X46.613Y236.685I0.659J-0.752
N15140G01X47.949Y236.135
N15150G2X48.538Y235.294I-0.409J-0.912
N15160G2X48.117Y230.975I-12.968J-0.917
N15170G01X48.209Y230.919
N15180G2X51.855Y233.272I8.772J-9.594
N15190G2X52.872Y233.135I0.394J-0.919
N15200G01X53.973Y232.199
N15210G2X54.272Y231.217I-0.671J-0.741
N15220G2X52.538Y227.240I-12.616J3.135
N15230G01X52.608Y227.158
N15240G2X56.802Y228.269I5.378J-11.835
N15250G2X57.728Y227.824I0.091J-0.996
N15260G01X58.486Y226.594
N15270G2X58.467Y225.567I-0.867J-0.498
N15280G2X55.589Y222.321I-11.030J6.880
N15290G01X55.630Y222.221
N15300G2X59.962Y221.982I1.458J-12.918
N15310G2X60.312Y221.827I-0.221J-0.975
N15320G01X60.419Y221.741
N15330X60.514Y221.640
N15340X60.595Y221.526
N15350X60.659Y221.402
N15360X60.705Y221.272
N15370X61.045Y219.868
N15380X61.065Y219.727
N15390X61.063Y219.581
N15400X61.040Y219.436
N15410X60.996Y219.295
N15420X60.933Y219.164
N15430X60.853Y219.046
N15440G2X60.710Y218.898I-0.787J0.617
N15450G2X56.969Y216.700I-8.364J9.952
N15460G01X56.978Y216.592
N15470G2X61.024Y215.026I-2.605J-12.736
N15480G2X61.511Y214.122I-0.512J-0.859
N15490G01X61.401Y212.681
N15500G2X60.782Y211.862I-0.994J0.107
N15510G2X56.546Y210.927I-4.879J12.050
N15520G01X56.521Y210.822
N15530G2X59.885Y208.082I-6.414J-11.308
N15540G2X60.069Y207.072I-0.752J-0.659
N15550G01X59.519Y205.736
N15560G2X58.677Y205.148I-0.912J0.409
N15570G2X54.359Y205.568I-0.917J12.968
N15580G01X54.303Y205.476
N15590G2X56.655Y201.831I-9.594J-8.772
N15600G2X56.518Y200.813I-0.919J-0.394
N15610G01X55.583Y199.712
N15620G2X54.600Y199.413I-0.741J0.671
N15630G2X50.623Y201.147I3.135J12.616
N15640G01X50.542Y201.077
N15650G2X51.652Y196.883I-11.835J-5.378
N15660G2X51.617Y196.512I-0.996J-0.091
N15670G01X51.568Y196.382
N15680X51.502Y196.257
N15690X51.417Y196.143
N15700X51.318Y196.042
N15710X51.207Y195.957
N15720X49.977Y195.199
N15730X49.850Y195.138
N15740X49.713Y195.094
N15750X49.570Y195.071
N15760X49.424Y195.068
N15770X49.282Y195.087
N15780X49.146Y195.124
N15790G2X48.951Y195.218I0.334J0.943
N15800G2X45.704Y198.097I6.880J11.030
N15810G01X45.605Y198.055
N15820G2X45.365Y193.723I-12.918J-1.458
N15830G2X44.656Y192.980I-0.975J0.221
N15840G01X43.252Y192.640
N15850G2X42.281Y192.975I-0.205J0.979
N15860G2X40.083Y196.716I9.952J8.364
N15870G01X39.976Y196.707
N15880G2X38.409Y192.661I-12.736J2.605
N15890G2X37.505Y192.174I-0.859J0.512
N15900G01X36.065Y192.284
N15910G2X35.245Y192.903I0.107J0.994
N15920G2X34.311Y197.139I12.050J4.879
N15930G01Z-0.500F30.0
N15940G01X34.206Y197.164F400.0
N15950G2X31.466Y193.800I-11.308J6.414
N15960G2X30.456Y193.616I-0.659J0.752
N15970G01X29.119Y194.166
N15980G2X28.531Y195.008I0.409J0.912
N15990G2X28.952Y199.326I12.968J0.917
N16000G01X28.860Y199.382
N16010G2X25.214Y197.030I-8.772J9.594
N16020G01X25.159Y197.008
N16030X25.022Y196.969
N16040X24.878Y196.950
N16050X24.731Y196.953
N16060X24.584Y196.977
N16070X24.443Y197.022
N16080X24.313Y197.087
N16090X24.196Y197.167
N16100X23.095Y198.102
N16110X23.002Y198.199
N16120X22.922Y198.309
N16130X22.857Y198.428
N16140X22.810Y198.553
N16150G2X22.796Y199.085I0.957J0.290
N16160G2X24.530Y203.062I12.616J-3.135
N16170G01X24.460Y203.143
N16180G2X20.266Y202.033I-5.378J11.835
N16190G2X19.341Y202.478I-0.091J0.996
N16200G01X18.583Y203.708
N16210G2X18.602Y204.735I0.867J0.498
N16220G2X21.480Y207.981I11.030J-6.880
N16230G01X21.439Y208.080
N16240G2X17.107Y208.320I-1.458J12.918
N16250G2X16.364Y209.029I0.221J0.975
N16260G01X16.023Y210.433
N16270G2X16.359Y211.404I0.979J0.205
N16280G2X20.099Y213.602I8.364J-9.952
N16290G01X20.091Y213.709
N16300G2X16.045Y215.276I2.605J12.736
N16310G2X15.557Y216.180I0.512J0.859
N16320G01X15.667Y217.620
N16330G2X16.286Y218.440I0.994J-0.107
N16340G2X20.523Y219.374I4.879J-12.050
N16350G01X20.548Y219.479
N16360G2X17.184Y222.219I6.414J11.308
N16370G2X16.965Y222.640I0.752J0.659
N16380G01X16.940Y222.787
N16390X16.938Y222.937
N16400X16.958Y223.087
N16410X17.000Y223.230
N16420X17.550Y224.566
N16430X17.613Y224.684
N16440X17.693Y224.796
N16450X17.789Y224.896
N16460X17.899Y224.983
N16470X18.019Y225.053
N16480X18.146Y225.105
N16490X18.276Y225.139
N16500G2X18.391Y225.154I0.186J-0.983
N16510G2X22.710Y224.733I0.917J-12.968
N16520G01X22.766Y224.825
N16530G2X20.413Y228.471I9.594J8.772
N16540G2X20.550Y229.489I0.919J0.394
N16550G01X21.486Y230.590
N16560G2X22.469Y230.889I0.741J-0.671
N16570G2X26.445Y229.155I-3.135J-12.616
N16580G01X26.527Y229.225
N16590G2X25.416Y233.419I11.835J5.378
N16600G2X25.861Y234.344I0.996J0.091
N16610G01X27.091Y235.102
N16620G2X28.118Y235.083I0.498J-0.867
N16630G2X31.365Y232.205I-6.880J-11.030
N16640G01X31.464Y232.246
N16650G2X31.704Y236.578I12.918J1.458
N16660G2X32.413Y237.321I0.975J-0.221
N16670G01X33.817Y237.662
N16680G2X34.787Y237.326I0.205J-0.979
N16690G2X36.985Y233.586I-9.952J-8.364
N16700G01X37.093Y233.594
N16710G2X38.659Y237.640I12.736J-2.605
N16720G2X38.858Y237.880I0.859J-0.512
N16730G01X38.979Y237.971
N16740X39.115Y238.043
N16750X39.261Y238.095
N16760X39.412Y238.123
N16770X39.563Y238.128
N16780X41.004Y238.018
N16790X41.133Y237.995
N16800X41.261Y237.955
N16810X41.383Y237.897
N16820X41.496Y237.824
N16830X41.597Y237.737
N16840X41.685Y237.639
N16850G2X41.823Y237.399I-0.788J-0.616
N16860G2X42.758Y233.162I-12.050J-4.879
N16870G01X42.863Y233.137
N16880G2X45.603Y236.501I11.308J-6.414
N16890G2X46.613Y236.685I0.659J-0.752
N16900G01X47.949Y236.135
N16910G2X48.538Y235.294I-0.409J-0.912
N16920G2X48.117Y230.975I-12.968J-0.917
N16930G01X48.209Y230.919
N16940G2X51.855Y233.272I8.772J-9.594
N16950G2X52.872Y233.135I0.394J-0.919
N16960G01X53.973Y232.199
N16970G2X54.272Y231.217I-0.671J-0.741
N16980G2X52.538Y227.240I-12.616J3.135
N16990G01X52.608Y227.158
N17000G2X56.802Y228.269I5.378J-11.835
N17010G2X57.728Y227.824I0.091J-0.996
N17020G01X58.486Y226.594
N17030G2X58.467Y225.567I-0.867J-0.498
N17040G2X55.589Y222.321I-11.030J6.880
N17050G01X55.630Y222.221
N17060G2X59.962Y221.982I1.458J-12.918
N17070G2X60.312Y221.827I-0.221J-0.975
N17080G01X60.419Y221.741
N17090X60.514Y221.640
N17100X60.595Y221.526
N17110X60.659Y221.402
N17120X60.705Y221.272
N17130X61.045Y219.868
N17140X61.065Y219.727
N17150X61.063Y219.581
N17160X61.040Y219.436
N17170X60.996Y219.295
N17180X60.933Y219.164
N17190X60.853Y219.046
N17200G2X60.710Y218.898I-0.787J0.617
N17210G2X56.969Y216.700I-8.364J9.952
N17220G01X56.978Y216.592
N17230G2X61.024Y215.026I-2.605J-12.736
N17240G2X61.511Y214.122I-0.512J-0.859
N17250G01X61.401Y212.681
N17260G2X60.782Y211.862I-0.994J0.107
N17270G2X56.546Y210.927I-4.879J12.050
N17280G01X56.521Y210.822
N17290G2X59.885Y208.082I-6.414J-11.308
N17300G2X60.069Y207.072I-0.752J-0.659
N17310G01X59.519Y205.736
N17320G2X58.677Y205.148I-0.912J0.409
N17330G2X54.359Y205.568I-0.917J12.968
N17340G01X54.303Y205.476
N17350G2X56.655Y201.831I-9.594J-8.772
N17360G2X56.518Y200.813I-0.919J-0.394
N17370G01X55.583Y199.712
N17380G2X54.600Y199.413I-0.741J0.671
N17390G2X50.623Y201.147I3.135J12.616
N17400G01X50.542Y201.077
N17410G2X51.652Y196.883I-11.835J-5.378
N17420G2X51.617Y196.512I-0.996J-0.091
N17430G01X51.568Y196.382
N17440X51.502Y196.257
N17450X51.417Y196.143
N17460X51.318Y196.042
N17470X51.207Y195.957
N17480X49.977Y195.199
N17490X49.850Y195.138
N17500X49.713Y195.094
N17510X49.570Y195.071
N17520X49.424Y195.068
N17530X49.282Y195.087
N17540X49.146Y195.124
N17550G2X48.951Y195.218I0.334J0.943
N17560G2X45.704Y198.097I6.880J11.030
N17570G01X45.605Y198.055
N17580G2X45.365Y193.723I-12.918J-1.458
N17590G2X44.656Y192.980I-0.975J0.221
N17600G01X43.252Y192.640
N17610G2X42.281Y192.975I-0.205J0.979
N17620G2X40.083Y196.716I9.952J8.364
N17630G01X39.976Y196.707
N17640G2X38.409Y192.661I-12.736J2.605
N17650G2X37.505Y192.174I-0.859J0.512
N17660G01X36.065Y192.284
N17670G2X35.245Y192.903I0.107J0.994
N17680G2X34.311Y197.139I12.050J4.879
N17690G01Z-0.550F30.0
N17700G01X34.206Y197.164F400.0
N17710G2X31.466Y193.800I-11.308J6.414
N17720G2X30.456Y193.616I-0.659J0.752
N17730G01X29.119Y194.166
N17740G2X28.531Y195.008I0.409J0.912
N17750G2X28.952Y199.326I12.968J0.917
N17760G01X28.860Y199.382
N17770G2X25.214Y197.030I-8.772J9.594
N17780G01X25.159Y197.008
N17790X25.022Y196.969
N17800X24.878Y196.950
N17810X24.731Y196.953
N17820X24.584Y196.977
N17830X24.443Y197.022
N17840X24.313Y197.087
N17850X24.196Y197.167
N17860X23.095Y198.102
N17870X23.002Y198.199
N17880X22.922Y198.309
N17890X22.857Y198.428
N17900X22.810Y198.553
N17910G2X22.796Y199.085I0.957J0.290
N17920G2X24.530Y203.062I12.616J-3.135
N17930G01X24.460Y203.143
N17940G2X20.266Y202.033I-5.378J11.835
N17950G2X19.341Y202.478I-0.091J0.996
N17960G01X18.583Y203.708
N17970G2X18.602Y204.735I0.867J0.498
N17980G2X21.480Y207.981I11.030J-6.880
N17990G01X21.439Y208.080
N18000G2X17.107Y208.320I-1.458J12.918
N18010G2X16.364Y209.029I0.221J0.975
N18020G01X16.023Y210.433
N18030G2X16.359Y211.404I0.979J0.205
N18040G2X20.099Y213.602I8.364J-9.952
N18050G01X20.091Y213.709
N18060G2X16.045Y215.276I2.605J12.736
N18070G2X15.557Y216.180I0.512J0.859
N18080G01X15.667Y217.620
N18090G2X16.286Y218.440I0.994J-0.107
N18100G2X20.523Y219.374I4.879J-12.050
N18110G01X20.548Y219.479
N18120G2X17.184Y222.219I6.414J11.308
N18130G2X16.965Y222.640I0.752J0.659
N18140G01X16.940Y222.787
N18150X16.938Y222.937
N18160X16.958Y223.087
N18170X17.000Y223.230
N18180X17.550Y224.566
N18190X17.613Y224.684
N18200X17.693Y224.796
N18210X17.789Y224.896
N18220X17.899Y224.983
N18230X18.019Y225.053
N18240X18.146Y225.105
N18250X18.276Y225.139
N18260G2X18.391Y225.154I0.186J-0.983
N18270G2X22.710Y224.733I0.917J-12.968
N18280G01X22.766Y224.825
N18290G2X20.413Y228.471I9.594J8.772
N18300G2X20.550Y229.489I0.919J0.394
N18310G01X21.486Y230.590
N18320G2X22.469Y230.889I0.741J-0.671
N18330G2X26.445Y229.155I-3.135J-12.616
N18340G01X26.527Y229.225
N18350G2X25.416Y233.419I11.835J5.378
N18360G2X25.861Y234.344I0.996J0.091
N18370G01X27.091Y235.102
N18380G2X28.118Y235.083I0.498J-0.867
N18390G2X31.365Y232.205I-6.880J-11.030
N18400G01X31.464Y232.246
N18410G2X31.704Y236.578I12.918J1.458
N18420G2X32.413Y237.321I0.975J-0.221
N18430G01X33.817Y237.662
N18440G2X34.787Y237.326I0.205J-0.979
N18450G2X36.985Y233.586I-9.952J-8.364
N18460G01X37.093Y233.594
N18470G2X38.659Y237.640I12.736J-2.605
N18480G2X38.858Y237.880I0.859J-0.512
N18490G01X38.979Y237.971
N18500X39.115Y238.043
N18510X39.261Y238.095
N18520X39.412Y238.123
N18530X39.563Y238.128
N18540X41.004Y238.018
N18550X41.133Y237.995
N18560X41.261Y237.955
N18570X41.383Y237.897
N18580X41.496Y237.824
N18590X41.597Y237.737
N18600X41.685Y237.639
N18610G2X41.823Y237.399I-0.788J-0.616
N18620G2X42.758Y233.162I-12.050J-4.879
N18630G01X42.863Y233.137
N18640G2X45.603Y236.501I11.308J-6.414
N18650G2X46.613Y236.685I0.659J-0.752
N18660G01X47.949Y236.135
N18670G2X48.538Y235.294I-0.409J-0.912
N18680G2X48.117Y230.975I-12.968J-0.917
N18690G01X48.209Y230.919
N18700G2X51.855Y233.272I8.772J-9.594
N18710G2X52.872Y233.135I0.394J-0.919
N18720G01X53.973Y232.199
N18730G2X54.272Y231.217I-0.671J-0.741
N18740G2X52.538Y227.240I-12.616J3.135
N18750G01X52.608Y227.158
N18760G2X56.802Y228.269I5.378J-11.835
N18770G2X57.728Y227.824I0.091J-0.996
N18780G01X58.486Y226.594
N18790G2X58.467Y225.567I-0.867J-0.498
N18800G2X55.589Y222.321I-11.030J6.880
N18810G01X55.630Y222.221
N18820G2X59.962Y221.982I1.458J-12.918
N18830G2X60.312Y221.827I-0.221J-0.975
N18840G01X60.419Y221.741
N18850X60.514Y221.640
N18860X60.595Y221.526
N18870X60.659Y221.402
N18880X60.705Y221.272
N18890X61.045Y219.868
N18900X61.065Y219.727
N18910X61.063Y219.581
N18920X61.040Y219.436
N18930X60.996Y219.295
N18940X60.933Y219.164
N18950X60.853Y219.046
N18960G2X60.710Y218.898I-0.787J0.617
N18970G2X56.969Y216.700I-8.364J9.952
N18980G01X56.978Y216.592
N18990G2X61.024Y215.026I-2.605J-12.736
N19000G2X61.511Y214.122I-0.512J-0.859
N19010G01X61.401Y212.681
N19020G2X60.782Y211.862I-0.994J0.107
N19030G2X56.546Y210.927I-4.879J12.050
N19040G01X56.521Y210.822
N19050G2X59.885Y208.082I-6.414J-11.308
N19060G2X60.069Y207.072I-0.752J-0.659
N19070G01X59.519Y205.736
N19080G2X58.677Y205.148I-0.912J0.409
N19090G2X54.359Y205.568I-0.917J12.968
N19100G01X54.303Y205.476
N19110G2X56.655Y201.831I-9.594J-8.772
N19120G2X56.518Y200.813I-0.919J-0.394
N19130G01X55.583Y199.712
N19140G2X54.600Y199.413I-0.741J0.671
N19150G2X50.623Y201.147I3.135J12.616
N19160G01X50.542Y201.077
N19170G2X51.652Y196.883I-11.835J-5.378
N19180G2X51.617Y196.512I-0.996J-0.091
N19190G01X51.568Y196.382
N19200X51.502Y196.257
N19210X51.417Y196.143
N19220X51.318Y196.042
N19230X51.207Y195.957
N19240X49.977Y195.199
N19250X49.850Y195.138
N19260X49.713Y195.094
N19270X49.570Y195.071
N19280X49.424Y195.068
N19290X49.282Y195.087
N19300X49.146Y195.124
N19310G2X48.951Y195.218I0.334J0.943
N19320G2X45.704Y198.097I6.880J11.030
N19330G01X45.605Y198.055
N19340G2X45.365Y193.723I-12.918J-1.458
N19350G2X44.656Y192.980I-0.975J0.221
N19360G01X43.252Y192.640
N19370G2X42.281Y192.975I-0.205J0.979
N19380G2X40.083Y196.716I9.952J8.364
N19390G01X39.976Y196.707
N19400G2X38.409Y192.661I-12.736J2.605
N19410G2X37.505Y192.174I-0.859J0.512
N19420G01X36.065Y192.284
N19430G2X35.245Y192.903I0.107J0.994
N19440G2X34.311Y197.139I12.050J4.879
N19450G01Z-0.600F30.0
N19460G01X34.206Y197.164F400.0
N19470G2X31.466Y193.800I-11.308J6.414
N19480G2X30.456Y193.616I-0.659J0.752
N19490G01X29.119Y194.166
N19500G2X28.531Y195.008I0.409J0.912
N19510G2X28.952Y199.326I12.968J0.917
N19520G01X28.860Y199.382
N19530G2X25.214Y197.030I-8.772J9.594
N19540G01X25.159Y197.008
N19550X25.022Y196.969
N19560X24.878Y196.950
N19570X24.731Y196.953
N19580X24.584Y196.977
N19590X24.443Y197.022
N19600X24.313Y197.087
N19610X24.196Y197.167
N19620X23.095Y198.102
N19630X23.002Y198.199
N19640X22.922Y198.309
N19650X22.857Y198.428
N19660X22.810Y198.553
N19670G2X22.796Y199.085I0.957J0.290
N19680G2X24.530Y203.062I12.616J-3.135
N19690G01X24.460Y203.143
N19700G2X20.266Y202.033I-5.378J11.835
N19710G2X19.341Y202.478I-0.091J0.996
N19720G01X18.583Y203.708
N19730G2X18.602Y204.735I0.867J0.498
N19740G2X21.480Y207.981I11.030J-6.880
N19750G01X21.439Y208.080
N19760G2X17.107Y208.320I-1.458J12.918
N19770G2X16.364Y209.029I0.221J0.975
N19780G01X16.023Y210.433
N19790G2X16.359Y211.404I0.979J0.205
N19800G2X20.099Y213.602I8.364J-9.952
N19810G01X20.091Y213.709
N19820G2X16.045Y215.276I2.605J12.736
N19830G2X15.557Y216.180I0.512J0.859
N19840G01X15.667Y217.620
N19850G2X16.286Y218.440I0.994J-0.107
N19860G2X20.523Y219.374I4.879J-12.050
N19870G01X20.548Y219.479
N19880G2X17.184Y222.219I6.414J11.308
N19890G2X16.965Y222.640I0.752J0.659
N19900G01X16.940Y222.787
N19910X16.938Y222.937
N19920X16.958Y223.087
N19930X17.000Y223.230
N19940X17.550Y224.566
N19950X17.613Y224.684
N19960X17.693Y224.796
N19970X17.789Y224.896
N19980X17.899Y224.983
N19990X18.019Y225.053
N20000X18.146Y225.105
N20010X18.276Y225.139
N20020G2X18.391Y225.154I0.186J-0.983
N20030G2X22.710Y224.733I0.917J-12.968
N20040G01X22.766Y224.825
N20050G2X20.413Y228.471I9.594J8.772
N20060G2X20.550Y229.489I0.919J0.394
N20070G01X21.486Y230.590
N20080G2X22.469Y230.889I0.741J-0.671
N20090G2X26.445Y229.155I-3.135J-12.616
N20100G01X26.527Y229.225
N20110G2X25.416Y233.419I11.835J5.378
N20120G2X25.861Y234.344I0.996J0.091
N20130G01X27.091Y235.102
N20140G2X28.118Y235.083I0.498J-0.867
N20150G2X31.365Y232.205I-6.880J-11.030
N20160G01X31.464Y232.246
N20170G2X31.704Y236.578I12.918J1.458
N20180G2X32.413Y237.321I0.975J-0.221
N20190G01X33.817Y237.662
N20200G2X34.787Y237.326I0.205J-0.979
N20210G2X36.985Y233.586I-9.952J-8.364
N20220G01X37.093Y233.594
N20230G2X38.659Y237.640I12.736J-2.605
N20240G2X38.858Y237.880I0.859J-0.512
N20250G01X38.979Y237.971
N20260X39.115Y238.043
N20270X39.261Y238.095
N20280X39.412Y238.123
N20290X39.563Y238.128
N20300X41.004Y238.018
N20310X41.133Y237.995
N20320X41.261Y237.955
N20330X41.383Y237.897
N20340X41.496Y237.824
N20350X41.597Y237.737
N20360X41.685Y237.639
N20370G2X41.823Y237.399I-0.788J-0.616
N20380G2X42.758Y233.162I-12.050J-4.879
N20390G01X42.863Y233.137
N20400G2X45.603Y236.501I11.308J-6.414
N20410G2X46.613Y236.685I0.659J-0.752
N20420G01X47.949Y236.135
N20430G2X48.538Y235.294I-0.409J-0.912
N20440G2X48.117Y230.975I-12.968J-0.917
N20450G01X48.209Y230.919
N20460G2X51.855Y233.272I8.772J-9.594
N20470G2X52.872Y233.135I0.394J-0.919
N20480G01X53.973Y232.199
N20490G2X54.272Y231.217I-0.671J-0.741
N20500G2X52.538Y227.240I-12.616J3.135
N20510G01X52.608Y227.158
N20520G2X56.802Y228.269I5.378J-11.835
N20530G2X57.728Y227.824I0.091J-0.996
N20540G01X58.486Y226.594
N20550G2X58.467Y225.567I-0.867J-0.498
N20560G2X55.589Y222.321I-11.030J6.880
N20570G01X55.630Y222.221
N20580G2X59.962Y221.982I1.458J-12.918
N20590G2X60.312Y221.827I-0.221J-0.975
N20600G01X60.419Y221.741
N20610X60.514Y221.640
N20620X60.595Y221.526
N20630X60.659Y221.402
N20640X60.705Y221.272
N20650X61.045Y219.868
N20660X61.065Y219.727
N20670X61.063Y219.581
N20680X61.040Y219.436
N20690X60.996Y219.295
N20700X60.933Y219.164
N20710X60.853Y219.046
N20720G2X60.710Y218.898I-0.787J0.617
N20730G2X56.969Y216.700I-8.364J9.952
N20740G01X56.978Y216.592
N20750G2X61.024Y215.026I-2.605J-12.736
N20760G2X61.511Y214.122I-0.512J-0.859
N20770G01X61.401Y212.681
N20780G2X60.782Y211.862I-0.994J0.107
N20790G2X56.546Y210.927I-4.879J12.050
N20800G01X56.521Y210.822
N20810G2X59.885Y208.082I-6.414J-11.308
N20820G2X60.069Y207.072I-0.752J-0.659
N20830G01X59.519Y205.736
N20840G2X58.677Y205.148I-0.912J0.409
N20850G2X54.359Y205.568I-0.917J12.968
N20860G01X54.303Y205.476
N20870G2X56.655Y201.831I-9.594J-8.772
N20880G2X56.518Y200.813I-0.919J-0.394
N20890G01X55.583Y199.712
N20900G2X54.600Y199.413I-0.741J0.671
N20910G2X50.623Y201.147I3.135J12.616
N20920G01X50.542Y201.077
N20930G2X51.652Y196.883I-11.835J-5.378
N20940G2X51.617Y196.512I-0.996J-0.091
N20950G01X51.568Y196.382
N20960X51.502Y196.257
N20970X51.417Y196.143
N20980X51.318Y196.042
N20990X51.207Y195.957
N21000X49.977Y195.199
N21010X49.850Y195.138
N21020X49.713Y195.094
N21030X49.570Y195.071
N21040X49.424Y195.068
N21050X49.282Y195.087
N21060X49.146Y195.124
N21070G2X48.951Y195.218I0.334J0.943
N21080G2X45.704Y198.097I6.880J11.030
N21090G01X45.605Y198.055
N21100G2X45.365Y193.723I-12.918J-1.458
N21110G2X44.656Y192.980I-0.975J0.221
N21120G01X43.252Y192.640
N21130G2X42.281Y192.975I-0.205J0.979
N21140G2X40.083Y196.716I9.952J8.364
N21150G01X39.976Y196.707
N21160G2X38.409Y192.661I-12.736J2.605
N21170G2X37.505Y192.174I-0.859J0.512
N21180G01X36.065Y192.284
N21190G2X35.245Y192.903I0.107J0.994
N21200G2X34.311Y197.139I12.050J4.879
N21210G01Z-0.650F30.0
N21220G01X34.206Y197.164F400.0
N21230G2X31.466Y193.800I-11.308J6.414
N21240G2X30.456Y193.616I-0.659J0.752
N21250G01X29.119Y194.166
N21260G2X28.531Y195.008I0.409J0.912
N21270G2X28.952Y199.326I12.968J0.917
N21280G01X28.860Y199.382
N21290G2X25.214Y197.030I-8.772J9.594
N21300G01X25.159Y197.008
N21310X25.022Y196.969
N21320X24.878Y196.950
N21330X24.731Y196.953
N21340X24.584Y196.977
N21350X24.443Y197.022
N21360X24.313Y197.087
N21370X24.196Y197.167
N21380X23.095Y198.102
N21390X23.002Y198.199
N21400X22.922Y198.309
N21410X22.857Y198.428
N21420X22.810Y198.553
N21430G2X22.796Y199.085I0.957J0.290
N21440G2X24.530Y203.062I12.616J-3.135
N21450G01X24.460Y203.143
N21460G2X20.266Y202.033I-5.378J11.835
N21470G2X19.341Y202.478I-0.091J0.996
N21480G01X18.583Y203.708
N21490G2X18.602Y204.735I0.867J0.498
N21500G2X21.480Y207.981I11.030J-6.880
N21510G01X21.439Y208.080
N21520G2X17.107Y208.320I-1.458J12.918
N21530G2X16.364Y209.029I0.221J0.975
N21540G01X16.023Y210.433
N21550G2X16.359Y211.404I0.979J0.205
N21560G2X20.099Y213.602I8.364J-9.952
N21570G01X20.091Y213.709
N21580G2X16.045Y215.276I2.605J12.736
N21590G2X15.557Y216.180I0.512J0.859
N21600G01X15.667Y217.620
N21610G2X16.286Y218.440I0.994J-0.107
N21620G2X20.523Y219.374I4.879J-12.050
N21630G01X20.548Y219.479
N21640G2X17.184Y222.219I6.414J11.308
N21650G2X16.965Y222.640I0.752J0.659
N21660G01X16.940Y222.787
N21670X16.938Y222.937
N21680X16.958Y223.087
N21690X17.000Y223.230
N21700X17.550Y224.566
N21710X17.613Y224.684
N21720X17.693Y224.796
N21730X17.789Y224.896
N21740X17.899Y224.983
N21750X18.019Y225.053
N21760X18.146Y225.105
N21770X18.276Y225.139
N21780G2X18.391Y225.154I0.186J-0.983
N21790G2X22.710Y224.733I0.917J-12.968
N21800G01X22.766Y224.825
N21810G2X20.413Y228.471I9.594J8.772
N21820G2X20.550Y229.489I0.919J0.394
N21830G01X21.486Y230.590
N21840G2X22.469Y230.889I0.741J-0.671
N21850G2X26.445Y229.155I-3.135J-12.616
N21860G01X26.527Y229.225
N21870G2X25.416Y233.419I11.835J5.378
N21880G2X25.861Y234.344I0.996J0.091
N21890G01X27.091Y235.102
N21900G2X28.118Y235.083I0.498J-0.867
N21910G2X31.365Y232.205I-6.880J-11.030
N21920G01X31.464Y232.246
N21930G2X31.704Y236.578I12.918J1.458
N21940G2X32.413Y237.321I0.975J-0.221
N21950G01X33.817Y237.662
N21960G2X34.787Y237.326I0.205J-0.979
N21970G2X36.985Y233.586I-9.952J-8.364
N21980G01X37.093Y233.594
N21990G2X38.659Y237.640I12.736J-2.605
N22000G2X38.858Y237.880I0.859J-0.512
N22010G01X38.979Y237.971
N22020X39.115Y238.043
N22030X39.261Y238.095
N22040X39.412Y238.123
N22050X39.563Y238.128
N22060X41.004Y238.018
N22070X41.133Y237.995
N22080X41.261Y237.955
N22090X41.383Y237.897
N22100X41.496Y237.824
N22110X41.597Y237.737
N22120X41.685Y237.639
N22130G2X41.823Y237.399I-0.788J-0.616
N22140G2X42.758Y233.162I-12.050J-4.879
N22150G01X42.863Y233.137
N22160G2X45.603Y236.501I11.308J-6.414
N22170G2X46.613Y236.685I0.659J-0.752
N22180G01X47.949Y236.135
N22190G2X48.538Y235.294I-0.409J-0.912
N22200G2X48.117Y230.975I-12.968J-0.917
N22210G01X48.209Y230.919
N22220G2X51.855Y233.272I8.772J-9.594
N22230G2X52.872Y233.135I0.394J-0.919
N22240G01X53.973Y232.199
N22250G2X54.272Y231.217I-0.671J-0.741
N22260G2X52.538Y227.240I-12.616J3.135
N22270G01X52.608Y227.158
N22280G2X56.802Y228.269I5.378J-11.835
N22290G2X57.728Y227.824I0.091J-0.996
N22300G01X58.486Y226.594
N22310G2X58.467Y225.567I-0.867J-0.498
N22320G2X55.589Y222.321I-11.030J6.880
N22330G01X55.630Y222.221
N22340G2X59.962Y221.982I1.458J-12.918
N22350G2X60.312Y221.827I-0.221J-0.975
N22360G01X60.419Y221.741
N22370X60.514Y221.640
N22380X60.595Y221.526
N22390X60.659Y221.402
N22400X60.705Y221.272
N22410X61.045Y219.868
N22420X61.065Y219.727
N22430X61.063Y219.581
N22440X61.040Y219.436
N22450X60.996Y219.295
N22460X60.933Y219.164
N22470X60.853Y219.046
N22480G2X60.710Y218.898I-0.787J0.617
N22490G2X56.969Y216.700I-8.364J9.952
N22500G01X56.978Y216.592
N22510G2X61.024Y215.026I-2.605J-12.736
N22520G2X61.511Y214.122I-0.512J-0.859
N22530G01X61.401Y212.681
N22540G2X60.782Y211.862I-0.994J0.107
N22550G2X56.546Y210.927I-4.879J12.050
N22560G01X56.521Y210.822
N22570G2X59.885Y208.082I-6.414J-11.308
N22580G2X60.069Y207.072I-0.752J-0.659
N22590G01X59.519Y205.736
N22600G2X58.677Y205.148I-0.912J0.409
N22610G2X54.359Y205.568I-0.917J12.968
N22620G01X54.303Y205.476
N22630G2X56.655Y201.831I-9.594J-8.772
N22640G2X56.518Y200.813I-0.919J-0.394
N22650G01X55.583Y199.712
N22660G2X54.600Y199.413I-0.741J0.671
N22670G2X50.623Y201.147I3.135J12.616
N22680G01X50.542Y201.077
N22690G2X51.652Y196.883I-11.835J-5.378
N22700G2X51.617Y196.512I-0.996J-0.091
N22710G01X51.568Y196.382
N22720X51.502Y196.257
N22730X51.417Y196.143
N22740X51.318Y196.042
N22750X51.207Y195.957
N22760X49.977Y195.199
N22770X49.850Y195.138
N22780X49.713Y195.094
N22790X49.570Y195.071
N22800X49.424Y195.068
N22810X49.282Y195.087
N22820X49.146Y195.124
N22830G2X48.951Y195.218I0.334J0.943
N22840G2X45.704Y198.097I6.880J11.030
N22850G01X45.605Y198.055
N22860G2X45.365Y193.723I-12.918J-1.458
N22870G2X44.656Y192.980I-0.975J0.221
N22880G01X43.252Y192.640
N22890G2X42.281Y192.975I-0.205J0.979
N22900G2X40.083Y196.716I9.952J8.364
N22910G01X39.976Y196.707
N22920G2X38.409Y192.661I-12.736J2.605
N22930G2X37.505Y192.174I-0.859J0.512
N22940G01X36.065Y192.284
N22950G2X35.245Y192.903I0.107J0.994
N22960G2X34.311Y197.139I12.050J4.879
N22970G01Z-0.700F30.0
N22980G01X34.206Y197.164F400.0
N22990G2X31.466Y193.800I-11.308J6.414
N23000G2X30.456Y193.616I-0.659J0.752
N23010G01X29.119Y194.166
N23020G2X28.531Y195.008I0.409J0.912
N23030G2X28.952Y199.326I12.968J0.917
N23040G01X28.860Y199.382
N23050G2X25.214Y197.030I-8.772J9.594
N23060G01X25.159Y197.008
N23070X25.022Y196.969
N23080X24.878Y196.950
N23090X24.731Y196.953
N23100X24.584Y196.977
N23110X24.443Y197.022
N23120X24.313Y197.087
N23130X24.196Y197.167
N23140X23.095Y198.102
N23150X23.002Y198.199
N23160X22.922Y198.309
N23170X22.857Y198.428
N23180X22.810Y198.553
N23190G2X22.796Y199.085I0.957J0.290
N23200G2X24.530Y203.062I12.616J-3.135
N23210G01X24.460Y203.143
N23220G2X20.266Y202.033I-5.378J11.835
N23230G2X19.341Y202.478I-0.091J0.996
N23240G01X18.583Y203.708
N23250G2X18.602Y204.735I0.867J0.498
N23260G2X21.480Y207.981I11.030J-6.880
N23270G01X21.439Y208.080
N23280G2X17.107Y208.320I-1.458J12.918
N23290G2X16.364Y209.029I0.221J0.975
N23300G01X16.023Y210.433
N23310G2X16.359Y211.404I0.979J0.205
N23320G2X20.099Y213.602I8.364J-9.952
N23330G01X20.091Y213.709
N23340G2X16.045Y215.276I2.605J12.736
N23350G2X15.557Y216.180I0.512J0.859
N23360G01X15.667Y217.620
N23370G2X16.286Y218.440I0.994J-0.107
N23380G2X20.523Y219.374I4.879J-12.050
N23390G01X20.548Y219.479
N23400G2X17.184Y222.219I6.414J11.308
N23410G2X16.965Y222.640I0.752J0.659
N23420G01X16.940Y222.787
N23430X16.938Y222.937
N23440X16.958Y223.087
N23450X17.000Y223.230
N23460X17.550Y224.566
N23470X17.613Y224.684
N23480X17.693Y224.796
N23490X17.789Y224.896
N23500X17.899Y224.983
N23510X18.019Y225.053
N23520X18.146Y225.105
N23530X18.276Y225.139
N23540G2X18.391Y225.154I0.186J-0.983
N23550G2X22.710Y224.733I0.917J-12.968
N23560G01X22.766Y224.825
N23570G2X20.413Y228.471I9.594J8.772
N23580G2X20.550Y229.489I0.919J0.394
N23590G01X21.486Y230.590
N23600G2X22.469Y230.889I0.741J-0.671
N23610G2X26.445Y229.155I-3.135J-12.616
N23620G01X26.527Y229.225
N23630G2X25.416Y233.419I11.835J5.378
N23640G2X25.861Y234.344I0.996J0.091
N23650G01X27.091Y235.102
N23660G2X28.118Y235.083I0.498J-0.867
N23670G2X31.365Y232.205I-6.880J-11.030
N23680G01X31.464Y232.246
N23690G2X31.704Y236.578I12.918J1.458
N23700G2X32.413Y237.321I0.975J-0.221
N23710G01X33.817Y237.662
N23720G2X34.787Y237.326I0.205J-0.979
N23730G2X36.985Y233.586I-9.952J-8.364
N23740G01X37.093Y233.594
N23750G2X38.659Y237.640I12.736J-2.605
N23760G2X38.858Y237.880I0.859J-0.512
N23770G01X38.979Y237.971
N23780X39.115Y238.043
N23790X39.261Y238.095
N23800X39.412Y238.123
N23810X39.563Y238.128
N23820X41.004Y238.018
N23830X41.133Y237.995
N23840X41.261Y237.955
N23850X41.383Y237.897
N23860X41.496Y237.824
N23870X41.597Y237.737
N23880X41.685Y237.639
N23890G2X41.823Y237.399I-0.788J-0.616
N23900G2X42.758Y233.162I-12.050J-4.879
N23910G01X42.863Y233.137
N23920G2X45.603Y236.501I11.308J-6.414
N23930G2X46.613Y236.685I0.659J-0.752
N23940G01X47.949Y236.135
N23950G2X48.538Y235.294I-0.409J-0.912
N23960G2X48.117Y230.975I-12.968J-0.917
N23970G01X48.209Y230.919
N23980G2X51.855Y233.272I8.772J-9.594
N23990G2X52.872Y233.135I0.394J-0.919
N24000G01X53.973Y232.199
N24010G2X54.272Y231.217I-0.671J-0.741
N24020G2X52.538Y227.240I-12.616J3.135
N24030G01X52.608Y227.158
N24040G2X56.802Y228.269I5.378J-11.835
N24050G2X57.728Y227.824I0.091J-0.996
N24060G01X58.486Y226.594
N24070G2X58.467Y225.567I-0.867J-0.498
N24080G2X55.589Y222.321I-11.030J6.880
N24090G01X55.630Y222.221
N24100G2X59.962Y221.982I1.458J-12.918
N24110G2X60.312Y221.827I-0.221J-0.975
N24120G01X60.419Y221.741
N24130X60.514Y221.640
N24140X60.595Y221.526
N24150X60.659Y221.402
N24160X60.705Y221.272
N24170X61.045Y219.868
N24180X61.065Y219.727
N24190X61.063Y219.581
N24200X61.040Y219.436
N24210X60.996Y219.295
N24220X60.933Y219.164
N24230X60.853Y219.046
N24240G2X60.710Y218.898I-0.787J0.617
N24250G2X56.969Y216.700I-8.364J9.952
N24260G01X56.978Y216.592
N24270G2X61.024Y215.026I-2.605J-12.736
N24280G2X61.511Y214.122I-0.512J-0.859
N24290G01X61.401Y212.681
N24300G2X60.782Y211.862I-0.994J0.107
N24310G2X56.546Y210.927I-4.879J12.050
N24320G01X56.521Y210.822
N24330G2X59.885Y208.082I-6.414J-11.308
N24340G2X60.069Y207.072I-0.752J-0.659
N24350G01X59.519Y205.736
N24360G2X58.677Y205.148I-0.912J0.409
N24370G2X54.359Y205.568I-0.917J12.968
N24380G01X54.303Y205.476
N24390G2X56.655Y201.831I-9.594J-8.772
N24400G2X56.518Y200.813I-0.919J-0.394
N24410G01X55.583Y199.712
N24420G2X54.600Y199.413I-0.741J0.671
N24430G2X50.623Y201.147I3.135J12.616
N24440G01X50.542Y201.077
N24450G2X51.652Y196.883I-11.835J-5.378
N24460G2X51.617Y196.512I-0.996J-0.091
N24470G01X51.568Y196.382
N24480X51.502Y196.257
N24490X51.417Y196.143
N24500X51.318Y196.042
N24510X51.207Y195.957
N24520X49.977Y195.199
N24530X49.850Y195.138
N24540X49.713Y195.094
N24550X49.570Y195.071
N24560X49.424Y195.068
N24570X49.282Y195.087
N24580X49.146Y195.124
N24590G2X48.951Y195.218I0.334J0.943
N24600G2X45.704Y198.097I6.880J11.030
N24610G01X45.605Y198.055
N24620G2X45.365Y193.723I-12.918J-1.458
N24630G2X44.656Y192.980I-0.975J0.221
N24640G01X43.252Y192.640
N24650G2X42.281Y192.975I-0.205J0.979
N24660G2X40.083Y196.716I9.952J8.364
N24670G01X39.976Y196.707
N24680G2X38.409Y192.661I-12.736J2.605
N24690G2X37.505Y192.174I-0.859J0.512
N24700G01X36.065Y192.284
N24710G2X35.245Y192.903I0.107J0.994
N24720G2X34.311Y197.139I12.050J4.879
N24730G01Z-0.750F30.0
N24740G01X34.206Y197.164F400.0
N24750G2X31.466Y193.800I-11.308J6.414
N24760G2X30.456Y193.616I-0.659J0.752
N24770G01X29.119Y194.166
N24780G2X28.531Y195.008I0.409J0.912
N24790G2X28.952Y199.326I12.968J0.917
N24800G01X28.860Y199.382
N24810G2X25.214Y197.030I-8.772J9.594
N24820G01X25.159Y197.008
N24830X25.022Y196.969
N24840X24.878Y196.950
N24850X24.731Y196.953
N24860X24.584Y196.977
N24870X24.443Y197.022
N24880X24.313Y197.087
N24890X24.196Y197.167
N24900X23.095Y198.102
N24910X23.002Y198.199
N24920X22.922Y198.309
N24930X22.857Y198.428
N24940X22.810Y198.553
N24950G2X22.796Y199.085I0.957J0.290
N24960G2X24.530Y203.062I12.616J-3.135
N24970G01X24.460Y203.143
N24980G2X20.266Y202.033I-5.378J11.835
N24990G2X19.341Y202.478I-0.091J0.996
N25000G01X18.583Y203.708
N25010G2X18.602Y204.735I0.867J0.498
N25020G2X21.480Y207.981I11.030J-6.880
N25030G01X21.439Y208.080
N25040G2X17.107Y208.320I-1.458J12.918
N25050G2X16.364Y209.029I0.221J0.975
N25060G01X16.023Y210.433
N25070G2X16.359Y211.404I0.979J0.205
N25080G2X20.099Y213.602I8.364J-9.952
N25090G01X20.091Y213.709
N25100G2X16.045Y215.276I2.605J12.736
N25110G2X15.557Y216.180I0.512J0.859
N25120G01X15.667Y217.620
N25130G2X16.286Y218.440I0.994J-0.107
N25140G2X20.523Y219.374I4.879J-12.050
N25150G01X20.548Y219.479
N25160G2X17.184Y222.219I6.414J11.308
N25170G2X16.965Y222.640I0.752J0.659
N25180G01X16.940Y222.787
N25190X16.938Y222.937
N25200X16.958Y223.087
N25210X17.000Y223.230
N25220X17.550Y224.566
N25230X17.613Y224.684
N25240X17.693Y224.796
N25250X17.789Y224.896
N25260X17.899Y224.983
N25270X18.019Y225.053
N25280X18.146Y225.105
N25290X18.276Y225.139
N25300G2X18.391Y225.154I0.186J-0.983
N25310G2X22.710Y224.733I0.917J-12.968
N25320G01X22.766Y224.825
N25330G2X20.413Y228.471I9.594J8.772
N25340G2X20.550Y229.489I0.919J0.394
N25350G01X21.486Y230.590
N25360G2X22.469Y230.889I0.741J-0.671
N25370G2X26.445Y229.155I-3.135J-12.616
N25380G01X26.527Y229.225
N25390G2X25.416Y233.419I11.835J5.378
N25400G2X25.861Y234.344I0.996J0.091
N25410G01X27.091Y235.102
N25420G2X28.118Y235.083I0.498J-0.867
N25430G2X31.365Y232.205I-6.880J-11.030
N25440G01X31.464Y232.246
N25450G2X31.704Y236.578I12.918J1.458
N25460G2X32.413Y237.321I0.975J-0.221
N25470G01X33.817Y237.662
N25480G2X34.787Y237.326I0.205J-0.979
N25490G2X36.985Y233.586I-9.952J-8.364
N25500G01X37.093Y233.594
N25510G2X38.659Y237.640I12.736J-2.605
N25520G2X38.858Y237.880I0.859J-0.512
N25530G01X38.979Y237.971
N25540X39.115Y238.043
N25550X39.261Y238.095
N25560X39.412Y238.123
N25570X39.563Y238.128
N25580X41.004Y238.018
N25590X41.133Y237.995
N25600X41.261Y237.955
N25610X41.383Y237.897
N25620X41.496Y237.824
N25630X41.597Y237.737
N25640X41.685Y237.639
N25650G2X41.823Y237.399I-0.788J-0.616
N25660G2X42.758Y233.162I-12.050J-4.879
N25670G01X42.863Y233.137
N25680G2X45.603Y236.501I11.308J-6.414
N25690G2X46.613Y236.685I0.659J-0.752
N25700G01X47.949Y236.135
N25710G2X48.538Y235.294I-0.409J-0.912
N25720G2X48.117Y230.975I-12.968J-0.917
N25730G01X48.209Y230.919
N25740G2X51.855Y233.272I8.772J-9.594
N25750G2X52.872Y233.135I0.394J-0.919
N25760G01X53.973Y232.199
N25770G2X54.272Y231.217I-0.671J-0.741
N25780G2X52.538Y227.240I-12.616J3.135
N25790G01X52.608Y227.158
N25800G2X56.802Y228.269I5.378J-11.835
N25810G2X57.728Y227.824I0.091J-0.996
N25820G01X58.486Y226.594
N25830G2X58.467Y225.567I-0.867J-0.498
N25840G2X55.589Y222.321I-11.030J6.880
N25850G01X55.630Y222.221
N25860G2X59.962Y221.982I1.458J-12.918
N25870G2X60.312Y221.827I-0.221J-0.975
N25880G01X60.419Y221.741
N25890X60.514Y221.640
N25900X60.595Y221.526
N25910X60.659Y221.402
N25920X60.705Y221.272
N25930X61.045Y219.868
N25940X61.065Y219.727
N25950X61.063Y219.581
N25960X61.040Y219.436
N25970X60.996Y219.295
N25980X60.933Y219.164
N25990X60.853Y219.046
N26000G2X60.710Y218.898I-0.787J0.617
N26010G2X56.969Y216.700I-8.364J9.952
N26020G01X56.978Y216.592
N26030G2X61.024Y215.026I-2.605J-12.736
N26040G2X61.511Y214.122I-0.512J-0.859
N26050G01X61.401Y212.681
N26060G2X60.782Y211.862I-0.994J0.107
N26070G2X56.546Y210.927I-4.879J12.050
N26080G01X56.521Y210.822
N26090G2X59.885Y208.082I-6.414J-11.308
N26100G2X60.069Y207.072I-0.752J-0.659
N26110G01X59.519Y205.736
N26120G2X58.677Y205.148I-0.912J0.409
N26130G2X54.359Y205.568I-0.917J12.968
N26140G01X54.303Y205.476
N26150G2X56.655Y201.831I-9.594J-8.772
N26160G2X56.518Y200.813I-0.919J-0.394
N26170G01X55.583Y199.712
N26180G2X54.600Y199.413I-0.741J0.671
N26190G2X50.623Y201.147I3.135J12.616
N26200G01X50.542Y201.077
N26210G2X51.652Y196.883I-11.835J-5.378
N26220G2X51.617Y196.512I-0.996J-0.091
N26230G01X51.568Y196.382
N26240X51.502Y196.257
N26250X51.417Y196.143
N26260X51.318Y196.042
N26270X51.207Y195.957
N26280X49.977Y195.199
N26290X49.850Y195.138
N26300X49.713Y195.094
N26310X49.570Y195.071
N26320X49.424Y195.068
N26330X49.282Y195.087
N26340X49.146Y195.124
N26350G2X48.951Y195.218I0.334J0.943
N26360G2X45.704Y198.097I6.880J11.030
N26370G01X45.605Y198.055
N26380G2X45.365Y193.723I-12.918J-1.458
N26390G2X44.656Y192.980I-0.975J0.221
N26400G01X43.252Y192.640
N26410G2X42.281Y192.975I-0.205J0.979
N26420G2X40.083Y196.716I9.952J8.364
N26430G01X39.976Y196.707
N26440G2X38.409Y192.661I-12.736J2.605
N26450G2X37.505Y192.174I-0.859J0.512
N26460G01X36.065Y192.284
N26470G2X35.245Y192.903I0.107J0.994
N26480G2X34.311Y197.139I12.050J4.879
N26490G01Z-0.800F30.0
N26500G01X34.206Y197.164F400.0
N26510G2X31.466Y193.800I-11.308J6.414
N26520G2X30.456Y193.616I-0.659J0.752
N26530G01X29.119Y194.166
N26540G2X28.531Y195.008I0.409J0.912
N26550G2X28.952Y199.326I12.968J0.917
N26560G01X28.860Y199.382
N26570G2X25.214Y197.030I-8.772J9.594
N26580G01X25.159Y197.008
N26590X25.022Y196.969
N26600X24.878Y196.950
N26610X24.731Y196.953
N26620X24.584Y196.977
N26630X24.443Y197.022
N26640X24.313Y197.087
N26650X24.196Y197.167
N26660X23.095Y198.102
N26670X23.002Y198.199
N26680X22.922Y198.309
N26690X22.857Y198.428
N26700X22.810Y198.553
N26710G2X22.796Y199.085I0.957J0.290
N26720G2X24.530Y203.062I12.616J-3.135
N26730G01X24.460Y203.143
N26740G2X20.266Y202.033I-5.378J11.835
N26750G2X19.341Y202.478I-0.091J0.996
N26760G01X18.583Y203.708
N26770G2X18.602Y204.735I0.867J0.498
N26780G2X21.480Y207.981I11.030J-6.880
N26790G01X21.439Y208.080
N26800G2X17.107Y208.320I-1.458J12.918
N26810G2X16.364Y209.029I0.221J0.975
N26820G01X16.023Y210.433
N26830G2X16.359Y211.404I0.979J0.205
N26840G2X20.099Y213.602I8.364J-9.952
N26850G01X20.091Y213.709
N26860G2X16.045Y215.276I2.605J12.736
N26870G2X15.557Y216.180I0.512J0.859
N26880G01X15.667Y217.620
N26890G2X16.286Y218.440I0.994J-0.107
N26900G2X20.523Y219.374I4.879J-12.050
N26910G01X20.548Y219.479
N26920G2X17.184Y222.219I6.414J11.308
N26930G2X16.965Y222.640I0.752J0.659
N26940G01X16.940Y222.787
N26950X16.938Y222.937
N26960X16.958Y223.087
N26970X17.000Y223.230
N26980X17.550Y224.566
N26990X17.613Y224.684
N27000X17.693Y224.796
N27010X17.789Y224.896
N27020X17.899Y224.983
N27030X18.019Y225.053
N27040X18.146Y225.105
N27050X18.276Y225.139
N27060G2X18.391Y225.154I0.186J-0.983
N27070G2X22.710Y224.733I0.917J-12.968
N27080G01X22.766Y224.825
N27090G2X20.413Y228.471I9.594J8.772
N27100G2X20.550Y229.489I0.919J0.394
N27110G01X21.486Y230.590
N27120G2X22.469Y230.889I0.741J-0.671
N27130G2X26.445Y229.155I-3.135J-12.616
N27140G01X26.527Y229.225
N27150G2X25.416Y233.419I11.835J5.378
N27160G2X25.861Y234.344I0.996J0.091
N27170G01X27.091Y235.102
N27180G2X28.118Y235.083I0.498J-0.867
N27190G2X31.365Y232.205I-6.880J-11.030
N27200G01X31.464Y232.246
N27210G2X31.704Y236.578I12.918J1.458
N27220G2X32.413Y237.321I0.975J-0.221
N27230G01X33.817Y237.662
N27240G2X34.787Y237.326I0.205J-0.979
N27250G2X36.985Y233.586I-9.952J-8.364
N27260G01X37.093Y233.594
N27270G2X38.659Y237.640I12.736J-2.605
N27280G2X38.858Y237.880I0.859J-0.512
N27290G01X38.979Y237.971
N27300X39.115Y238.043
N27310X39.261Y238.095
N27320X39.412Y238.123
N27330X39.563Y238.128
N27340X41.004Y238.018
N27350X41.133Y237.995
N27360X41.261Y237.955
N27370X41.383Y237.897
N27380X41.496Y237.824
N27390X41.597Y237.737
N27400X41.685Y237.639
N27410G2X41.823Y237.399I-0.788J-0.616
N27420G2X42.758Y233.162I-12.050J-4.879
N27430G01X42.863Y233.137
N27440G2X45.603Y236.501I11.308J-6.414
N27450G2X46.613Y236.685I0.659J-0.752
N27460G01X47.949Y236.135
N27470G2X48.538Y235.294I-0.409J-0.912
N27480G2X48.117Y230.975I-12.968J-0.917
N27490G01X48.209Y230.919
N27500G2X51.855Y233.272I8.772J-9.594
N27510G2X52.872Y233.135I0.394J-0.919
N27520G01X53.973Y232.199
N27530G2X54.272Y231.217I-0.671J-0.741
N27540G2X52.538Y227.240I-12.616J3.135
N27550G01X52.608Y227.158
N27560G2X56.802Y228.269I5.378J-11.835
N27570G2X57.728Y227.824I0.091J-0.996
N27580G01X58.486Y226.594
N27590G2X58.467Y225.567I-0.867J-0.498
N27600G2X55.589Y222.321I-11.030J6.880
N27610G01X55.630Y222.221
N27620G2X59.962Y221.982I1.458J-12.918
N27630G2X60.312Y221.827I-0.221J-0.975
N27640G01X60.419Y221.741
N27650X60.514Y221.640
N27660X60.595Y221.526
N27670X60.659Y221.402
N27680X60.705Y221.272
N27690X61.045Y219.868
N27700X61.065Y219.727
N27710X61.063Y219.581
N27720X61.040Y219.436
N27730X60.996Y219.295
N27740X60.933Y219.164
N27750X60.853Y219.046
N27760G2X60.710Y218.898I-0.787J0.617
N27770G2X56.969Y216.700I-8.364J9.952
N27780G01X56.978Y216.592
N27790G2X61.024Y215.026I-2.605J-12.736
N27800G2X61.511Y214.122I-0.512J-0.859
N27810G01X61.401Y212.681
N27820G2X60.782Y211.862I-0.994J0.107
N27830G2X56.546Y210.927I-4.879J12.050
N27840G01X56.521Y210.822
N27850G2X59.885Y208.082I-6.414J-11.308
N27860G2X60.069Y207.072I-0.752J-0.659
N27870G01X59.519Y205.736
N27880G2X58.677Y205.148I-0.912J0.409
N27890G2X54.359Y205.568I-0.917J12.968
N27900G01X54.303Y205.476
N27910G2X56.655Y201.831I-9.594J-8.772
N27920G2X56.518Y200.813I-0.919J-0.394
N27930G01X55.583Y199.712
N27940G2X54.600Y199.413I-0.741J0.671
N27950G2X50.623Y201.147I3.135J12.616
N27960G01X50.542Y201.077
N27970G2X51.652Y196.883I-11.835J-5.378
N27980G2X51.617Y196.512I-0.996J-0.091
N27990G01X51.568Y196.382
N28000X51.502Y196.257
N28010X51.417Y196.143
N28020X51.318Y196.042
N28030X51.207Y195.957
N28040X49.977Y195.199
N28050X49.850Y195.138
N28060X49.713Y195.094
N28070X49.570Y195.071
N28080X49.424Y195.068
N28090X49.282Y195.087
N28100X49.146Y195.124
N28110G2X48.951Y195.218I0.334J0.943
N28120G2X45.704Y198.097I6.880J11.030
N28130G01X45.605Y198.055
N28140G2X45.365Y193.723I-12.918J-1.458
N28150G2X44.656Y192.980I-0.975J0.221
N28160G01X43.252Y192.640
N28170G2X42.281Y192.975I-0.205J0.979
N28180G2X40.083Y196.716I9.952J8.364
N28190G01X39.976Y196.707
N28200G2X38.409Y192.661I-12.736J2.605
N28210G2X37.505Y192.174I-0.859J0.512
N28220G01X36.065Y192.284
N28230G2X35.245Y192.903I0.107J0.994
N28240G2X34.311Y197.139I12.050J4.879
N28250G01Z-0.850F30.0
N28260G01X34.206Y197.164F400.0
N28270G2X31.466Y193.800I-11.308J6.414
N28280G2X30.456Y193.616I-0.659J0.752
N28290G01X29.119Y194.166
N28300G2X28.531Y195.008I0.409J0.912
N28310G2X28.952Y199.326I12.968J0.917
N28320G01X28.860Y199.382
N28330G2X25.214Y197.030I-8.772J9.594
N28340G01X25.159Y197.008
N28350X25.022Y196.969
N28360X24.878Y196.950
N28370X24.731Y196.953
N28380X24.584Y196.977
N28390X24.443Y197.022
N28400X24.313Y197.087
N28410X24.196Y197.167
N28420X23.095Y198.102
N28430X23.002Y198.199
N28440X22.922Y198.309
N28450X22.857Y198.428
N28460X22.810Y198.553
N28470G2X22.796Y199.085I0.957J0.290
N28480G2X24.530Y203.062I12.616J-3.135
N28490G01X24.460Y203.143
N28500G2X20.266Y202.033I-5.378J11.835
N28510G2X19.341Y202.478I-0.091J0.996
N28520G01X18.583Y203.708
N28530G2X18.602Y204.735I0.867J0.498
N28540G2X21.480Y207.981I11.030J-6.880
N28550G01X21.439Y208.080
N28560G2X17.107Y208.320I-1.458J12.918
N28570G2X16.364Y209.029I0.221J0.975
N28580G01X16.023Y210.433
N28590G2X16.359Y211.404I0.979J0.205
N28600G2X20.099Y213.602I8.364J-9.952
N28610G01X20.091Y213.709
N28620G2X16.045Y215.276I2.605J12.736
N28630G2X15.557Y216.180I0.512J0.859
N28640G01X15.667Y217.620
N28650G2X16.286Y218.440I0.994J-0.107
N28660G2X20.523Y219.374I4.879J-12.050
N28670G01X20.548Y219.479
N28680G2X17.184Y222.219I6.414J11.308
N28690G2X16.965Y222.640I0.752J0.659
N28700G01X16.940Y222.787
N28710X16.938Y222.937
N28720X16.958Y223.087
N28730X17.000Y223.230
N28740X17.550Y224.566
N28750X17.613Y224.684
N28760X17.693Y224.796
N28770X17.789Y224.896
N28780X17.899Y224.983
N28790X18.019Y225.053
N28800X18.146Y225.105
N28810X18.276Y225.139
N28820G2X18.391Y225.154I0.186J-0.983
N28830G2X22.710Y224.733I0.917J-12.968
N28840G01X22.766Y224.825
N28850G2X20.413Y228.471I9.594J8.772
N28860G2X20.550Y229.489I0.919J0.394
N28870G01X21.486Y230.590
N28880G2X22.469Y230.889I0.741J-0.671
N28890G2X26.445Y229.155I-3.135J-12.616
N28900G01X26.527Y229.225
N28910G2X25.416Y233.419I11.835J5.378
N28920G2X25.861Y234.344I0.996J0.091
N28930G01X27.091Y235.102
N28940G2X28.118Y235.083I0.498J-0.867
N28950G2X31.365Y232.205I-6.880J-11.030
N28960G01X31.464Y232.246
N28970G2X31.704Y236.578I12.918J1.458
N28980G2X32.413Y237.321I0.975J-0.221
N28990G01X33.817Y237.662
N29000G2X34.787Y237.326I0.205J-0.979
N29010G2X36.985Y233.586I-9.952J-8.364
N29020G01X37.093Y233.594
N29030G2X38.659Y237.640I12.736J-2.605
N29040G2X38.858Y237.880I0.859J-0.512
N29050G01X38.979Y237.971
N29060X39.115Y238.043
N29070X39.261Y238.095
N29080X39.412Y238.123
N29090X39.563Y238.128
N29100X41.004Y238.018
N29110X41.133Y237.995
N29120X41.261Y237.955
N29130X41.383Y237.897
N29140X41.496Y237.824
N29150X41.597Y237.737
N29160X41.685Y237.639
N29170G2X41.823Y237.399I-0.788J-0.616
N29180G2X42.758Y233.162I-12.050J-4.879
N29190G01X42.863Y233.137
N29200G2X45.603Y236.501I11.308J-6.414
N29210G2X46.613Y236.685I0.659J-0.752
N29220G01X47.949Y236.135
N29230G2X48.538Y235.294I-0.409J-0.912
N29240G2X48.117Y230.975I-12.968J-0.917
N29250G01X48.209Y230.919
N29260G2X51.855Y233.272I8.772J-9.594
N29270G2X52.872Y233.135I0.394J-0.919
N29280G01X53.973Y232.199
N29290G2X54.272Y231.217I-0.671J-0.741
N29300G2X52.538Y227.240I-12.616J3.135
N29310G01X52.608Y227.158
N29320G2X56.802Y228.269I5.378J-11.835
N29330G2X57.728Y227.824I0.091J-0.996
N29340G01X58.486Y226.594
N29350G2X58.467Y225.567I-0.867J-0.498
N29360G2X55.589Y222.321I-11.030J6.880
N29370G01X55.630Y222.221
N29380G2X59.962Y221.982I1.458J-12.918
N29390G2X60.312Y221.827I-0.221J-0.975
N29400G01X60.419Y221.741
N29410X60.514Y221.640
N29420X60.595Y221.526
N29430X60.659Y221.402
N29440X60.705Y221.272
N29450X61.045Y219.868
N29460X61.065Y219.727
N29470X61.063Y219.581
N29480X61.040Y219.436
N29490X60.996Y219.295
N29500X60.933Y219.164
N29510X60.853Y219.046
N29520G2X60.710Y218.898I-0.787J0.617
N29530G2X56.969Y216.700I-8.364J9.952
N29540G01X56.978Y216.592
N29550G2X61.024Y215.026I-2.605J-12.736
N29560G2X61.511Y214.122I-0.512J-0.859
N29570G01X61.401Y212.681
N29580G2X60.782Y211.862I-0.994J0.107
N29590G2X56.546Y210.927I-4.879J12.050
N29600G01X56.521Y210.822
N29610G2X59.885Y208.082I-6.414J-11.308
N29620G2X60.069Y207.072I-0.752J-0.659
N29630G01X59.519Y205.736
N29640G2X58.677Y205.148I-0.912J0.409
N29650G2X54.359Y205.568I-0.917J12.968
N29660G01X54.303Y205.476
N29670G2X56.655Y201.831I-9.594J-8.772
N29680G2X56.518Y200.813I-0.919J-0.394
N29690G01X55.583Y199.712
N29700G2X54.600Y199.413I-0.741J0.671
N29710G2X50.623Y201.147I3.135J12.616
N29720G01X50.542Y201.077
N29730G2X51.652Y196.883I-11.835J-5.378
N29740G2X51.617Y196.512I-0.996J-0.091
N29750G01X51.568Y196.382
N29760X51.502Y196.257
N29770X51.417Y196.143
N29780X51.318Y196.042
N29790X51.207Y195.957
N29800X49.977Y195.199
N29810X49.850Y195.138
N29820X49.713Y195.094
N29830X49.570Y195.071
N29840X49.424Y195.068
N29850X49.282Y195.087
N29860X49.146Y195.124
N29870G2X48.951Y195.218I0.334J0.943
N29880G2X45.704Y198.097I6.880J11.030
N29890G01X45.605Y198.055
N29900G2X45.365Y193.723I-12.918J-1.458
N29910G2X44.656Y192.980I-0.975J0.221
N29920G01X43.252Y192.640
N29930G2X42.281Y192.975I-0.205J0.979
N29940G2X40.083Y196.716I9.952J8.364
N29950G01X39.976Y196.707
N29960G2X38.409Y192.661I-12.736J2.605
N29970G2X37.505Y192.174I-0.859J0.512
N29980G01X36.065Y192.284
N29990G2X35.245Y192.903I0.107J0.994
N30000G2X34.311Y197.139I12.050J4.879
N30010G01Z-0.900F30.0
N30020G01X34.206Y197.164F400.0
N30030G2X31.466Y193.800I-11.308J6.414
N30040G2X30.456Y193.616I-0.659J0.752
N30050G01X29.119Y194.166
N30060G2X28.531Y195.008I0.409J0.912
N30070G2X28.952Y199.326I12.968J0.917
N30080G01X28.860Y199.382
N30090G2X25.214Y197.030I-8.772J9.594
N30100G01X25.159Y197.008
N30110X25.022Y196.969
N30120X24.878Y196.950
N30130X24.731Y196.953
N30140X24.584Y196.977
N30150X24.443Y197.022
N30160X24.313Y197.087
N30170X24.196Y197.167
N30180X23.095Y198.102
N30190X23.002Y198.199
N30200X22.922Y198.309
N30210X22.857Y198.428
N30220X22.810Y198.553
N30230G2X22.796Y199.085I0.957J0.290
N30240G2X24.530Y203.062I12.616J-3.135
N30250G01X24.460Y203.143
N30260G2X20.266Y202.033I-5.378J11.835
N30270G2X19.341Y202.478I-0.091J0.996
N30280G01X18.583Y203.708
N30290G2X18.602Y204.735I0.867J0.498
N30300G2X21.480Y207.981I11.030J-6.880
N30310G01X21.439Y208.080
N30320G2X17.107Y208.320I-1.458J12.918
N30330G2X16.364Y209.029I0.221J0.975
N30340G01X16.023Y210.433
N30350G2X16.359Y211.404I0.979J0.205
N30360G2X20.099Y213.602I8.364J-9.952
N30370G01X20.091Y213.709
N30380G2X16.045Y215.276I2.605J12.736
N30390G2X15.557Y216.180I0.512J0.859
N30400G01X15.667Y217.620
N30410G2X16.286Y218.440I0.994J-0.107
N30420G2X20.523Y219.374I4.879J-12.050
N30430G01X20.548Y219.479
N30440G2X17.184Y222.219I6.414J11.308
N30450G2X16.965Y222.640I0.752J0.659
N30460G01X16.940Y222.787
N30470X16.938Y222.937
N30480X16.958Y223.087
N30490X17.000Y223.230
N30500X17.550Y224.566
N30510X17.613Y224.684
N30520X17.693Y224.796
N30530X17.789Y224.896
N30540X17.899Y224.983
N30550X18.019Y225.053
N30560X18.146Y225.105
N30570X18.276Y225.139
N30580G2X18.391Y225.154I0.186J-0.983
N30590G2X22.710Y224.733I0.917J-12.968
N30600G01X22.766Y224.825
N30610G2X20.413Y228.471I9.594J8.772
N30620G2X20.550Y229.489I0.919J0.394
N30630G01X21.486Y230.590
N30640G2X22.469Y230.889I0.741J-0.671
N30650G2X26.445Y229.155I-3.135J-12.616
N30660G01X26.527Y229.225
N30670G2X25.416Y233.419I11.835J5.378
N30680G2X25.861Y234.344I0.996J0.091
N30690G01X27.091Y235.102
N30700G2X28.118Y235.083I0.498J-0.867
N30710G2X31.365Y232.205I-6.880J-11.030
N30720G01X31.464Y232.246
N30730G2X31.704Y236.578I12.918J1.458
N30740G2X32.413Y237.321I0.975J-0.221
N30750G01X33.817Y237.662
N30760G2X34.787Y237.326I0.205J-0.979
N30770G2X36.985Y233.586I-9.952J-8.364
N30780G01X37.093Y233.594
N30790G2X38.659Y237.640I12.736J-2.605
N30800G2X38.858Y237.880I0.859J-0.512
N30810G01X38.979Y237.971
N30820X39.115Y238.043
N30830X39.261Y238.095
N30840X39.412Y238.123
N30850X39.563Y238.128
N30860X41.004Y238.018
N30870X41.133Y237.995
N30880X41.261Y237.955
N30890X41.383Y237.897
N30900X41.496Y237.824
N30910X41.597Y237.737
N30920X41.685Y237.639
N30930G2X41.823Y237.399I-0.788J-0.616
N30940G2X42.758Y233.162I-12.050J-4.879
N30950G01X42.863Y233.137
N30960G2X45.603Y236.501I11.308J-6.414
N30970G2X46.613Y236.685I0.659J-0.752
N30980G01X47.949Y236.135
N30990G2X48.538Y235.294I-0.409J-0.912
N31000G2X48.117Y230.975I-12.968J-0.917
N31010G01X48.209Y230.919
N31020G2X51.855Y233.272I8.772J-9.594
N31030G2X52.872Y233.135I0.394J-0.919
N31040G01X53.973Y232.199
N31050G2X54.272Y231.217I-0.671J-0.741
N31060G2X52.538Y227.240I-12.616J3.135
N31070G01X52.608Y227.158
N31080G2X56.802Y228.269I5.378J-11.835
N31090G2X57.728Y227.824I0.091J-0.996
N31100G01X58.486Y226.594
N31110G2X58.467Y225.567I-0.867J-0.498
N31120G2X55.589Y222.321I-11.030J6.880
N31130G01X55.630Y222.221
N31140G2X59.962Y221.982I1.458J-12.918
N31150G2X60.312Y221.827I-0.221J-0.975
N31160G01X60.419Y221.741
N31170X60.514Y221.640
N31180X60.595Y221.526
N31190X60.659Y221.402
N31200X60.705Y221.272
N31210X61.045Y219.868
N31220X61.065Y219.727
N31230X61.063Y219.581
N31240X61.040Y219.436
N31250X60.996Y219.295
N31260X60.933Y219.164
N31270X60.853Y219.046
N31280G2X60.710Y218.898I-0.787J0.617
N31290G2X56.969Y216.700I-8.364J9.952
N31300G01X56.978Y216.592
N31310G2X61.024Y215.026I-2.605J-12.736
N31320G2X61.511Y214.122I-0.512J-0.859
N31330G01X61.401Y212.681
N31340G2X60.782Y211.862I-0.994J0.107
N31350G2X56.546Y210.927I-4.879J12.050
N31360G01X56.521Y210.822
N31370G2X59.885Y208.082I-6.414J-11.308
N31380G2X60.069Y207.072I-0.752J-0.659
N31390G01X59.519Y205.736
N31400G2X58.677Y205.148I-0.912J0.409
N31410G2X54.359Y205.568I-0.917J12.968
N31420G01X54.303Y205.476
N31430G2X56.655Y201.831I-9.594J-8.772
N31440G2X56.518Y200.813I-0.919J-0.394
N31450G01X55.583Y199.712
N31460G2X54.600Y199.413I-0.741J0.671
N31470G2X50.623Y201.147I3.135J12.616
N31480G01X50.542Y201.077
N31490G2X51.652Y196.883I-11.835J-5.378
N31500G2X51.617Y196.512I-0.996J-0.091
N31510G01X51.568Y196.382
N31520X51.502Y196.257
N31530X51.417Y196.143
N31540X51.318Y196.042
N31550X51.207Y195.957
N31560X49.977Y195.199
N31570X49.850Y195.138
N31580X49.713Y195.094
N31590X49.570Y195.071
N31600X49.424Y195.068
N31610X49.282Y195.087
N31620X49.146Y195.124
N31630G2X48.951Y195.218I0.334J0.943
N31640G2X45.704Y198.097I6.880J11.030
N31650G01X45.605Y198.055
N31660G2X45.365Y193.723I-12.918J-1.458
N31670G2X44.656Y192.980I-0.975J0.221
N31680G01X43.252Y192.640
N31690G2X42.281Y192.975I-0.205J0.979
N31700G2X40.083Y196.716I9.952J8.364
N31710G01X39.976Y196.707
N31720G2X38.409Y192.661I-12.736J2.605
N31730G2X37.505Y192.174I-0.859J0.512
N31740G01X36.065Y192.284
N31750G2X35.245Y192.903I0.107J0.994
N31760G2X34.311Y197.139I12.050J4.879
N31770G01Z-0.950F30.0
N31780G01X34.206Y197.164F400.0
N31790G2X31.466Y193.800I-11.308J6.414
N31800G2X30.456Y193.616I-0.659J0.752
N31810G01X29.119Y194.166
N31820G2X28.531Y195.008I0.409J0.912
N31830G2X28.952Y199.326I12.968J0.917
N31840G01X28.860Y199.382
N31850G2X25.214Y197.030I-8.772J9.594
N31860G01X25.159Y197.008
N31870X25.022Y196.969
N31880X24.878Y196.950
N31890X24.731Y196.953
N31900X24.584Y196.977
N31910X24.443Y197.022
N31920X24.313Y197.087
N31930X24.196Y197.167
N31940X23.095Y198.102
N31950X23.002Y198.199
N31960X22.922Y198.309
N31970X22.857Y198.428
N31980X22.810Y198.553
N31990G2X22.796Y199.085I0.957J0.290
N32000G2X24.530Y203.062I12.616J-3.135
N32010G01X24.460Y203.143
N32020G2X20.266Y202.033I-5.378J11.835
N32030G2X19.341Y202.478I-0.091J0.996
N32040G01X18.583Y203.708
N32050G2X18.602Y204.735I0.867J0.498
N32060G2X21.480Y207.981I11.030J-6.880
N32070G01X21.439Y208.080
N32080G2X17.107Y208.320I-1.458J12.918
N32090G2X16.364Y209.029I0.221J0.975
N32100G01X16.023Y210.433
N32110G2X16.359Y211.404I0.979J0.205
N32120G2X20.099Y213.602I8.364J-9.952
N32130G01X20.091Y213.709
N32140G2X16.045Y215.276I2.605J12.736
N32150G2X15.557Y216.180I0.512J0.859
N32160G01X15.667Y217.620
N32170G2X16.286Y218.440I0.994J-0.107
N32180G2X20.523Y219.374I4.879J-12.050
N32190G01X20.548Y219.479
N32200G2X17.184Y222.219I6.414J11.308
N32210G2X16.965Y222.640I0.752J0.659
N32220G01X16.940Y222.787
N32230X16.938Y222.937
N32240X16.958Y223.087
N32250X17.000Y223.230
N32260X17.550Y224.566
N32270X17.613Y224.684
N32280X17.693Y224.796
N32290X17.789Y224.896
N32300X17.899Y224.983
N32310X18.019Y225.053
N32320X18.146Y225.105
N32330X18.276Y225.139
N32340G2X18.391Y225.154I0.186J-0.983
N32350G2X22.710Y224.733I0.917J-12.968
N32360G01X22.766Y224.825
N32370G2X20.413Y228.471I9.594J8.772
N32380G2X20.550Y229.489I0.919J0.394
N32390G01X21.486Y230.590
N32400G2X22.469Y230.889I0.741J-0.671
N32410G2X26.445Y229.155I-3.135J-12.616
N32420G01X26.527Y229.225
N32430G2X25.416Y233.419I11.835J5.378
N32440G2X25.861Y234.344I0.996J0.091
N32450G01X27.091Y235.102
N32460G2X28.118Y235.083I0.498J-0.867
N32470G2X31.365Y232.205I-6.880J-11.030
N32480G01X31.464Y232.246
N32490G2X31.704Y236.578I12.918J1.458
N32500G2X32.413Y237.321I0.975J-0.221
N32510G01X33.817Y237.662
N32520G2X34.787Y237.326I0.205J-0.979
N32530G2X36.985Y233.586I-9.952J-8.364
N32540G01X37.093Y233.594
N32550G2X38.659Y237.640I12.736J-2.605
N32560G2X38.858Y237.880I0.859J-0.512
N32570G01X38.979Y237.971
N32580X39.115Y238.043
N32590X39.261Y238.095
N32600X39.412Y238.123
N32610X39.563Y238.128
N32620X41.004Y238.018
N32630X41.133Y237.995
N32640X41.261Y237.955
N32650X41.383Y237.897
N32660X41.496Y237.824
N32670X41.597Y237.737
N32680X41.685Y237.639
N32690G2X41.823Y237.399I-0.788J-0.616
N32700G2X42.758Y233.162I-12.050J-4.879
N32710G01X42.863Y233.137
N32720G2X45.603Y236.501I11.308J-6.414
N32730G2X46.613Y236.685I0.659J-0.752
N32740G01X47.949Y236.135
N32750G2X48.538Y235.294I-0.409J-0.912
N32760G2X48.117Y230.975I-12.968J-0.917
N32770G01X48.209Y230.919
N32780G2X51.855Y233.272I8.772J-9.594
N32790G2X52.872Y233.135I0.394J-0.919
N32800G01X53.973Y232.199
N32810G2X54.272Y231.217I-0.671J-0.741
N32820G2X52.538Y227.240I-12.616J3.135
N32830G01X52.608Y227.158
N32840G2X56.802Y228.269I5.378J-11.835
N32850G2X57.728Y227.824I0.091J-0.996
N32860G01X58.486Y226.594
N32870G2X58.467Y225.567I-0.867J-0.498
N32880G2X55.589Y222.321I-11.030J6.880
N32890G01X55.630Y222.221
N32900G2X59.962Y221.982I1.458J-12.918
N32910G2X60.312Y221.827I-0.221J-0.975
N32920G01X60.419Y221.741
N32930X60.514Y221.640
N32940X60.595Y221.526
N32950X60.659Y221.402
N32960X60.705Y221.272
N32970X61.045Y219.868
N32980X61.065Y219.727
N32990X61.063Y219.581
N33000X61.040Y219.436
N33010X60.996Y219.295
N33020X60.933Y219.164
N33030X60.853Y219.046
N33040G2X60.710Y218.898I-0.787J0.617
N33050G2X56.969Y216.700I-8.364J9.952
N33060G01X56.978Y216.592
N33070G2X61.024Y215.026I-2.605J-12.736
N33080G2X61.511Y214.122I-0.512J-0.859
N33090G01X61.401Y212.681
N33100G2X60.782Y211.862I-0.994J0.107
N33110G2X56.546Y210.927I-4.879J12.050
N33120G01X56.521Y210.822
N33130G2X59.885Y208.082I-6.414J-11.308
N33140G2X60.069Y207.072I-0.752J-0.659
N33150G01X59.519Y205.736
N33160G2X58.677Y205.148I-0.912J0.409
N33170G2X54.359Y205.568I-0.917J12.968
N33180G01X54.303Y205.476
N33190G2X56.655Y201.831I-9.594J-8.772
N33200G2X56.518Y200.813I-0.919J-0.394
N33210G01X55.583Y199.712
N33220G2X54.600Y199.413I-0.741J0.671
N33230G2X50.623Y201.147I3.135J12.616
N33240G01X50.542Y201.077
N33250G2X51.652Y196.883I-11.835J-5.378
N33260G2X51.617Y196.512I-0.996J-0.091
N33270G01X51.568Y196.382
N33280X51.502Y196.257
N33290X51.417Y196.143
N33300X51.318Y196.042
N33310X51.207Y195.957
N33320X49.977Y195.199
N33330X49.850Y195.138
N33340X49.713Y195.094
N33350X49.570Y195.071
N33360X49.424Y195.068
N33370X49.282Y195.087
N33380X49.146Y195.124
N33390G2X48.951Y195.218I0.334J0.943
N33400G2X45.704Y198.097I6.880J11.030
N33410G01X45.605Y198.055
N33420G2X45.365Y193.723I-12.918J-1.458
N33430G2X44.656Y192.980I-0.975J0.221
N33440G01X43.252Y192.640
N33450G2X42.281Y192.975I-0.205J0.979
N33460G2X40.083Y196.716I9.952J8.364
N33470G01X39.976Y196.707
N33480G2X38.409Y192.661I-12.736J2.605
N33490G2X37.505Y192.174I-0.859J0.512
N33500G01X36.065Y192.284
N33510G2X35.245Y192.903I0.107J0.994
N33520G2X34.311Y197.139I12.050J4.879
N33530G01Z-1.000F30.0
N33540G01X34.206Y197.164F400.0
N33550G2X31.466Y193.800I-11.308J6.414
N33560G2X30.456Y193.616I-0.659J0.752
N33570G01X29.119Y194.166
N33580G2X28.531Y195.008I0.409J0.912
N33590G2X28.952Y199.326I12.968J0.917
N33600G01X28.860Y199.382
N33610G2X25.214Y197.030I-8.772J9.594
N33620G01X25.159Y197.008
N33630X25.022Y196.969
N33640X24.878Y196.950
N33650X24.731Y196.953
N33660X24.584Y196.977
N33670X24.443Y197.022
N33680X24.313Y197.087
N33690X24.196Y197.167
N33700X23.095Y198.102
N33710X23.002Y198.199
N33720X22.922Y198.309
N33730X22.857Y198.428
N33740X22.810Y198.553
N33750G2X22.796Y199.085I0.957J0.290
N33760G2X24.530Y203.062I12.616J-3.135
N33770G01X24.460Y203.143
N33780G2X20.266Y202.033I-5.378J11.835
N33790G2X19.341Y202.478I-0.091J0.996
N33800G01X18.583Y203.708
N33810G2X18.602Y204.735I0.867J0.498
N33820G2X21.480Y207.981I11.030J-6.880
N33830G01X21.439Y208.080
N33840G2X17.107Y208.320I-1.458J12.918
N33850G2X16.364Y209.029I0.221J0.975
N33860G01X16.023Y210.433
N33870G2X16.359Y211.404I0.979J0.205
N33880G2X20.099Y213.602I8.364J-9.952
N33890G01X20.091Y213.709
N33900G2X16.045Y215.276I2.605J12.736
N33910G2X15.557Y216.180I0.512J0.859
N33920G01X15.667Y217.620
N33930G2X16.286Y218.440I0.994J-0.107
N33940G2X20.523Y219.374I4.879J-12.050
N33950G01X20.548Y219.479
N33960G2X17.184Y222.219I6.414J11.308
N33970G2X16.965Y222.640I0.752J0.659
N33980G01X16.940Y222.787
N33990X16.938Y222.937
N34000X16.958Y223.087
N34010X17.000Y223.230
N34020X17.550Y224.566
N34030X17.613Y224.684
N34040X17.693Y224.796
N34050X17.789Y224.896
N34060X17.899Y224.983
N34070X18.019Y225.053
N34080X18.146Y225.105
N34090X18.276Y225.139
N34100G2X18.391Y225.154I0.186J-0.983
N34110G2X22.710Y224.733I0.917J-12.968
N34120G01X22.766Y224.825
N34130G2X20.413Y228.471I9.594J8.772
N34140G2X20.550Y229.489I0.919J0.394
N34150G01X21.486Y230.590
N34160G2X22.469Y230.889I0.741J-0.671
