( 3mm_inside )
( USBCNC Postprocessor )
N20G00G21G17G90G40G49
N30G80
N40G00G43Z6.001H5
N50S8000M03
N60G94
N70X0.000Y0.000F600.0
N80G00X47.339Y39.323Z6.000
N90G01Z-0.050F30.0
N100G01X47.189Y39.473F600.0
N110X47.039Y39.323
N120X47.189Y39.173
N130X47.339Y39.323
N140G01Z-0.100F30.0
N150G01X47.189Y39.473F600.0
N160X47.039Y39.323
N170X47.189Y39.173
N180X47.339Y39.323
N190G01Z-0.150F30.0
N200G01X47.189Y39.473F600.0
N210X47.039Y39.323
N220X47.189Y39.173
N230X47.339Y39.323
N240G01Z-0.200F30.0
N250G01X47.189Y39.473F600.0
N260X47.039Y39.323
N270X47.189Y39.173
N280X47.339Y39.323
N290G01Z-0.250F30.0
N300G01X47.189Y39.473F600.0
N310X47.039Y39.323
N320X47.189Y39.173
N330X47.339Y39.323
N340G01Z-0.300F30.0
N350G01X47.189Y39.473F600.0
N360X47.039Y39.323
N370X47.189Y39.173
N380X47.339Y39.323
N390G01Z-0.350F30.0
N400G01X47.189Y39.473F600.0
N410X47.039Y39.323
N420X47.189Y39.173
N430X47.339Y39.323
N440G01Z-0.400F30.0
N450G01X47.189Y39.473F600.0
N460X47.039Y39.323
N470X47.189Y39.173
N480X47.339Y39.323
N490G01Z-0.450F30.0
N500G01X47.189Y39.473F600.0
N510X47.039Y39.323
N520X47.189Y39.173
N530X47.339Y39.323
N540G01Z-0.500F30.0
N550G01X47.189Y39.473F600.0
N560X47.039Y39.323
N570X47.189Y39.173
N580X47.339Y39.323
N590G01Z-0.550F30.0
N600G01X47.189Y39.473F600.0
N610X47.039Y39.323
N620X47.189Y39.173
N630X47.339Y39.323
N640G01Z-0.600F30.0
N650G01X47.189Y39.473F600.0
N660X47.039Y39.323
N670X47.189Y39.173
N680X47.339Y39.323
N690G01Z-0.650F30.0
N700G01X47.189Y39.473F600.0
N710X47.039Y39.323
N720X47.189Y39.173
N730X47.339Y39.323
N740G01Z-0.700F30.0
N750G01X47.189Y39.473F600.0
N760X47.039Y39.323
N770X47.189Y39.173
N780X47.339Y39.323
N790G01Z-0.750F30.0
N800G01X47.189Y39.473F600.0
N810X47.039Y39.323
N820X47.189Y39.173
N830X47.339Y39.323
N840G01Z-0.800F30.0
N850G01X47.189Y39.473F600.0
N860X47.039Y39.323
N870X47.189Y39.173
N880X47.339Y39.323
N890G01Z-0.850F30.0
N900G01X47.189Y39.473F600.0
N910X47.039Y39.323
N920X47.189Y39.173
N930X47.339Y39.323
N940G01Z-0.900F30.0
N950G01X47.189Y39.473F600.0
N960X47.039Y39.323
N970X47.189Y39.173
N980X47.339Y39.323
N990G01Z-0.950F30.0
N1000G01X47.189Y39.473F600.0
N1010X47.039Y39.323
N1020X47.189Y39.173
N1030X47.339Y39.323
N1040G01Z-1.000F30.0
N1050G01X47.189Y39.473F600.0
N1060X47.039Y39.323
N1070X47.189Y39.173
N1080X47.339Y39.323
N1090G01Z-1.050F30.0
N1100G01X47.189Y39.473F600.0
N1110X47.039Y39.323
N1120X47.189Y39.173
N1130X47.339Y39.323
N1140G01Z-1.100F30.0
N1150G01X47.189Y39.473F600.0
N1160X47.039Y39.323
N1170X47.189Y39.173
N1180X47.339Y39.323
N1190G01Z-1.150F30.0
N1200G01X47.189Y39.473F600.0
N1210X47.039Y39.323
N1220X47.189Y39.173
N1230X47.339Y39.323
N1240G01Z-1.200F30.0
N1250G01X47.189Y39.473F600.0
N1260X47.039Y39.323
N1270X47.189Y39.173
N1280X47.339Y39.323
N1290G01Z-1.250F30.0
N1300G01X47.189Y39.473F600.0
N1310X47.039Y39.323
N1320X47.189Y39.173
N1330X47.339Y39.323
N1340G01Z-1.300F30.0
N1350G01X47.189Y39.473F600.0
N1360X47.039Y39.323
N1370X47.189Y39.173
N1380X47.339Y39.323
N1390G01Z-1.350F30.0
N1400G01X47.189Y39.473F600.0
N1410X47.039Y39.323
N1420X47.189Y39.173
N1430X47.339Y39.323
N1440G01Z-1.400F30.0
N1450G01X47.189Y39.473F600.0
N1460X47.039Y39.323
N1470X47.189Y39.173
N1480X47.339Y39.323
N1490G01Z-1.450F30.0
N1500G01X47.189Y39.473F600.0
N1510X47.039Y39.323
N1520X47.189Y39.173
N1530X47.339Y39.323
N1540G01Z-1.500F30.0
N1550G01X47.189Y39.473F600.0
N1560X47.039Y39.323
N1570X47.189Y39.173
N1580X47.339Y39.323
N1590G01Z-1.550F30.0
N1600G01X47.189Y39.473F600.0
N1610X47.039Y39.323
N1620X47.189Y39.173
N1630X47.339Y39.323
N1640G01Z-1.600F30.0
N1650G01X47.189Y39.473F600.0
N1660X47.039Y39.323
N1670X47.189Y39.173
N1680X47.339Y39.323
N1690G01Z-1.650F30.0
N1700G01X47.189Y39.473F600.0
N1710X47.039Y39.323
N1720X47.189Y39.173
N1730X47.339Y39.323
N1740G01Z-1.700F30.0
N1750G01X47.189Y39.473F600.0
N1760X47.039Y39.323
N1770X47.189Y39.173
N1780X47.339Y39.323
N1790G01Z-1.750F30.0
N1800G01X47.189Y39.473F600.0
N1810X47.039Y39.323
N1820X47.189Y39.173
N1830X47.339Y39.323
N1840G01Z-1.800F30.0
N1850G01X47.189Y39.473F600.0
N1860X47.039Y39.323
N1870X47.189Y39.173
N1880X47.339Y39.323
N1890G01Z-1.850F30.0
N1900G01X47.189Y39.473F600.0
N1910X47.039Y39.323
N1920X47.189Y39.173
N1930X47.339Y39.323
N1940G01Z-1.900F30.0
N1950G01X47.189Y39.473F600.0
N1960X47.039Y39.323
N1970X47.189Y39.173
N1980X47.339Y39.323
N1990G01Z-1.950F30.0
N2000G01X47.189Y39.473F600.0
N2010X47.039Y39.323
N2020X47.189Y39.173
N2030X47.339Y39.323
N2040G01Z-2.000F30.0
N2050G01X47.189Y39.473F600.0
N2060X47.039Y39.323
N2070X47.189Y39.173
N2080X47.339Y39.323
N2090G01Z-2.050F30.0
N2100G01X47.189Y39.473F600.0
N2110X47.039Y39.323
N2120X47.189Y39.173
N2130X47.339Y39.323
N2140G01Z-2.100F30.0
N2150G01X47.189Y39.473F600.0
N2160X47.039Y39.323
N2170X47.189Y39.173
N2180X47.339Y39.323
N2190G01Z-2.150F30.0
N2200G01X47.189Y39.473F600.0
N2210X47.039Y39.323
N2220X47.189Y39.173
N2230X47.339Y39.323
N2240G01Z-2.200F30.0
N2250G01X47.189Y39.473F600.0
N2260X47.039Y39.323
N2270X47.189Y39.173
N2280X47.339Y39.323
N2290G01Z-2.250F30.0
N2300G01X47.189Y39.473F600.0
N2310X47.039Y39.323
N2320X47.189Y39.173
N2330X47.339Y39.323
N2340G01Z-2.300F30.0
N2350G01X47.189Y39.473F600.0
N2360X47.039Y39.323
N2370X47.189Y39.173
N2380X47.339Y39.323
N2390G01Z-2.350F30.0
N2400G01X47.189Y39.473F600.0
N2410X47.039Y39.323
N2420X47.189Y39.173
N2430X47.339Y39.323
N2440G01Z-2.400F30.0
N2450G01X47.189Y39.473F600.0
N2460X47.039Y39.323
N2470X47.189Y39.173
N2480X47.339Y39.323
N2490G01Z-2.450F30.0
N2500G01X47.189Y39.473F600.0
N2510X47.039Y39.323
N2520X47.189Y39.173
N2530X47.339Y39.323
N2540G01Z-2.500F30.0
N2550G01X47.189Y39.473F600.0
N2560X47.039Y39.323
N2570X47.189Y39.173
N2580X47.339Y39.323
N2590G01Z-2.550F30.0
N2600G01X47.189Y39.473F600.0
N2610X47.039Y39.323
N2620X47.189Y39.173
N2630X47.339Y39.323
N2640G01Z-2.600F30.0
N2650G01X47.189Y39.473F600.0
N2660X47.039Y39.323
N2670X47.189Y39.173
N2680X47.339Y39.323
N2690G01Z-2.650F30.0
N2700G01X47.189Y39.473F600.0
N2710X47.039Y39.323
N2720X47.189Y39.173
N2730X47.339Y39.323
N2740G01Z-2.700F30.0
N2750G01X47.189Y39.473F600.0
N2760X47.039Y39.323
N2770X47.189Y39.173
N2780X47.339Y39.323
N2790G01Z-2.750F30.0
N2800G01X47.189Y39.473F600.0
N2810X47.039Y39.323
N2820X47.189Y39.173
N2830X47.339Y39.323
N2840G01Z-2.800F30.0
N2850G01X47.189Y39.473F600.0
N2860X47.039Y39.323
N2870X47.189Y39.173
N2880X47.339Y39.323
N2890G01Z-2.850F30.0
N2900G01X47.189Y39.473F600.0
N2910X47.039Y39.323
N2920X47.189Y39.173
N2930X47.339Y39.323
N2940G01Z-2.900F30.0
N2950G01X47.189Y39.473F600.0
N2960X47.039Y39.323
N2970X47.189Y39.173
N2980X47.339Y39.323
N2990G01Z-2.950F30.0
N3000G01X47.189Y39.473F600.0
N3010X47.039Y39.323
N3020X47.189Y39.173
N3030X47.339Y39.323
N3040G01Z-3.000F30.0
N3050G01X47.189Y39.473F600.0
N3060X47.039Y39.323
N3070X47.189Y39.173
N3080X47.339Y39.323
N3090G00Z6.000
N3100G00Y47.323
N3110G01Z-0.050F30.0
N3120G01X47.189Y47.473F600.0
N3130X47.039Y47.323
N3140X47.189Y47.173
N3150X47.339Y47.323
N3160G01Z-0.100F30.0
N3170G01X47.189Y47.473F600.0
N3180X47.039Y47.323
N3190X47.189Y47.173
N3200X47.339Y47.323
N3210G01Z-0.150F30.0
N3220G01X47.189Y47.473F600.0
N3230X47.039Y47.323
N3240X47.189Y47.173
N3250X47.339Y47.323
N3260G01Z-0.200F30.0
N3270G01X47.189Y47.473F600.0
N3280X47.039Y47.323
N3290X47.189Y47.173
N3300X47.339Y47.323
N3310G01Z-0.250F30.0
N3320G01X47.189Y47.473F600.0
N3330X47.039Y47.323
N3340X47.189Y47.173
N3350X47.339Y47.323
N3360G01Z-0.300F30.0
N3370G01X47.189Y47.473F600.0
N3380X47.039Y47.323
N3390X47.189Y47.173
N3400X47.339Y47.323
N3410G01Z-0.350F30.0
N3420G01X47.189Y47.473F600.0
N3430X47.039Y47.323
N3440X47.189Y47.173
N3450X47.339Y47.323
N3460G01Z-0.400F30.0
N3470G01X47.189Y47.473F600.0
N3480X47.039Y47.323
N3490X47.189Y47.173
N3500X47.339Y47.323
N3510G01Z-0.450F30.0
N3520G01X47.189Y47.473F600.0
N3530X47.039Y47.323
N3540X47.189Y47.173
N3550X47.339Y47.323
N3560G01Z-0.500F30.0
N3570G01X47.189Y47.473F600.0
N3580X47.039Y47.323
N3590X47.189Y47.173
N3600X47.339Y47.323
N3610G01Z-0.550F30.0
N3620G01X47.189Y47.473F600.0
N3630X47.039Y47.323
N3640X47.189Y47.173
N3650X47.339Y47.323
N3660G01Z-0.600F30.0
N3670G01X47.189Y47.473F600.0
N3680X47.039Y47.323
N3690X47.189Y47.173
N3700X47.339Y47.323
N3710G01Z-0.650F30.0
N3720G01X47.189Y47.473F600.0
N3730X47.039Y47.323
N3740X47.189Y47.173
N3750X47.339Y47.323
N3760G01Z-0.700F30.0
N3770G01X47.189Y47.473F600.0
N3780X47.039Y47.323
N3790X47.189Y47.173
N3800X47.339Y47.323
N3810G01Z-0.750F30.0
N3820G01X47.189Y47.473F600.0
N3830X47.039Y47.323
N3840X47.189Y47.173
N3850X47.339Y47.323
N3860G01Z-0.800F30.0
N3870G01X47.189Y47.473F600.0
N3880X47.039Y47.323
N3890X47.189Y47.173
N3900X47.339Y47.323
N3910G01Z-0.850F30.0
N3920G01X47.189Y47.473F600.0
N3930X47.039Y47.323
N3940X47.189Y47.173
N3950X47.339Y47.323
N3960G01Z-0.900F30.0
N3970G01X47.189Y47.473F600.0
N3980X47.039Y47.323
N3990X47.189Y47.173
N4000X47.339Y47.323
N4010G01Z-0.950F30.0
N4020G01X47.189Y47.473F600.0
N4030X47.039Y47.323
N4040X47.189Y47.173
N4050X47.339Y47.323
N4060G01Z-1.000F30.0
N4070G01X47.189Y47.473F600.0
N4080X47.039Y47.323
N4090X47.189Y47.173
N4100X47.339Y47.323
N4110G01Z-1.050F30.0
N4120G01X47.189Y47.473F600.0
N4130X47.039Y47.323
N4140X47.189Y47.173
N4150X47.339Y47.323
N4160G01Z-1.100F30.0
N4170G01X47.189Y47.473F600.0
N4180X47.039Y47.323
N4190X47.189Y47.173
N4200X47.339Y47.323
N4210G01Z-1.150F30.0
N4220G01X47.189Y47.473F600.0
N4230X47.039Y47.323
N4240X47.189Y47.173
N4250X47.339Y47.323
N4260G01Z-1.200F30.0
N4270G01X47.189Y47.473F600.0
N4280X47.039Y47.323
N4290X47.189Y47.173
N4300X47.339Y47.323
N4310G01Z-1.250F30.0
N4320G01X47.189Y47.473F600.0
N4330X47.039Y47.323
N4340X47.189Y47.173
N4350X47.339Y47.323
N4360G01Z-1.300F30.0
N4370G01X47.189Y47.473F600.0
N4380X47.039Y47.323
N4390X47.189Y47.173
N4400X47.339Y47.323
N4410G01Z-1.350F30.0
N4420G01X47.189Y47.473F600.0
N4430X47.039Y47.323
N4440X47.189Y47.173
N4450X47.339Y47.323
N4460G01Z-1.400F30.0
N4470G01X47.189Y47.473F600.0
N4480X47.039Y47.323
N4490X47.189Y47.173
N4500X47.339Y47.323
N4510G01Z-1.450F30.0
N4520G01X47.189Y47.473F600.0
N4530X47.039Y47.323
N4540X47.189Y47.173
N4550X47.339Y47.323
N4560G01Z-1.500F30.0
N4570G01X47.189Y47.473F600.0
N4580X47.039Y47.323
N4590X47.189Y47.173
N4600X47.339Y47.323
N4610G01Z-1.550F30.0
N4620G01X47.189Y47.473F600.0
N4630X47.039Y47.323
N4640X47.189Y47.173
N4650X47.339Y47.323
N4660G01Z-1.600F30.0
N4670G01X47.189Y47.473F600.0
N4680X47.039Y47.323
N4690X47.189Y47.173
N4700X47.339Y47.323
N4710G01Z-1.650F30.0
N4720G01X47.189Y47.473F600.0
N4730X47.039Y47.323
N4740X47.189Y47.173
N4750X47.339Y47.323
N4760G01Z-1.700F30.0
N4770G01X47.189Y47.473F600.0
N4780X47.039Y47.323
N4790X47.189Y47.173
N4800X47.339Y47.323
N4810G01Z-1.750F30.0
N4820G01X47.189Y47.473F600.0
N4830X47.039Y47.323
N4840X47.189Y47.173
N4850X47.339Y47.323
N4860G01Z-1.800F30.0
N4870G01X47.189Y47.473F600.0
N4880X47.039Y47.323
N4890X47.189Y47.173
N4900X47.339Y47.323
N4910G01Z-1.850F30.0
N4920G01X47.189Y47.473F600.0
N4930X47.039Y47.323
N4940X47.189Y47.173
N4950X47.339Y47.323
N4960G01Z-1.900F30.0
N4970G01X47.189Y47.473F600.0
N4980X47.039Y47.323
N4990X47.189Y47.173
N5000X47.339Y47.323
N5010G01Z-1.950F30.0
N5020G01X47.189Y47.473F600.0
N5030X47.039Y47.323
N5040X47.189Y47.173
N5050X47.339Y47.323
N5060G01Z-2.000F30.0
N5070G01X47.189Y47.473F600.0
N5080X47.039Y47.323
N5090X47.189Y47.173
N5100X47.339Y47.323
N5110G01Z-2.050F30.0
N5120G01X47.189Y47.473F600.0
N5130X47.039Y47.323
N5140X47.189Y47.173
N5150X47.339Y47.323
N5160G01Z-2.100F30.0
N5170G01X47.189Y47.473F600.0
N5180X47.039Y47.323
N5190X47.189Y47.173
N5200X47.339Y47.323
N5210G01Z-2.150F30.0
N5220G01X47.189Y47.473F600.0
N5230X47.039Y47.323
N5240X47.189Y47.173
N5250X47.339Y47.323
N5260G01Z-2.200F30.0
N5270G01X47.189Y47.473F600.0
N5280X47.039Y47.323
N5290X47.189Y47.173
N5300X47.339Y47.323
N5310G01Z-2.250F30.0
N5320G01X47.189Y47.473F600.0
N5330X47.039Y47.323
N5340X47.189Y47.173
N5350X47.339Y47.323
N5360G01Z-2.300F30.0
N5370G01X47.189Y47.473F600.0
N5380X47.039Y47.323
N5390X47.189Y47.173
N5400X47.339Y47.323
N5410G01Z-2.350F30.0
N5420G01X47.189Y47.473F600.0
N5430X47.039Y47.323
N5440X47.189Y47.173
N5450X47.339Y47.323
N5460G01Z-2.400F30.0
N5470G01X47.189Y47.473F600.0
N5480X47.039Y47.323
N5490X47.189Y47.173
N5500X47.339Y47.323
N5510G01Z-2.450F30.0
N5520G01X47.189Y47.473F600.0
N5530X47.039Y47.323
N5540X47.189Y47.173
N5550X47.339Y47.323
N5560G01Z-2.500F30.0
N5570G01X47.189Y47.473F600.0
N5580X47.039Y47.323
N5590X47.189Y47.173
N5600X47.339Y47.323
N5610G01Z-2.550F30.0
N5620G01X47.189Y47.473F600.0
N5630X47.039Y47.323
N5640X47.189Y47.173
N5650X47.339Y47.323
N5660G01Z-2.600F30.0
N5670G01X47.189Y47.473F600.0
N5680X47.039Y47.323
N5690X47.189Y47.173
N5700X47.339Y47.323
N5710G01Z-2.650F30.0
N5720G01X47.189Y47.473F600.0
N5730X47.039Y47.323
N5740X47.189Y47.173
N5750X47.339Y47.323
N5760G01Z-2.700F30.0
N5770G01X47.189Y47.473F600.0
N5780X47.039Y47.323
N5790X47.189Y47.173
N5800X47.339Y47.323
N5810G01Z-2.750F30.0
N5820G01X47.189Y47.473F600.0
N5830X47.039Y47.323
N5840X47.189Y47.173
N5850X47.339Y47.323
N5860G01Z-2.800F30.0
N5870G01X47.189Y47.473F600.0
N5880X47.039Y47.323
N5890X47.189Y47.173
N5900X47.339Y47.323
N5910G01Z-2.850F30.0
N5920G01X47.189Y47.473F600.0
N5930X47.039Y47.323
N5940X47.189Y47.173
N5950X47.339Y47.323
N5960G01Z-2.900F30.0
N5970G01X47.189Y47.473F600.0
N5980X47.039Y47.323
N5990X47.189Y47.173
N6000X47.339Y47.323
N6010G01Z-2.950F30.0
N6020G01X47.189Y47.473F600.0
N6030X47.039Y47.323
N6040X47.189Y47.173
N6050X47.339Y47.323
N6060G01Z-3.000F30.0
N6070G01X47.189Y47.473F600.0
N6080X47.039Y47.323
N6090X47.189Y47.173
N6100X47.339Y47.323
N6110G00Z6.000
N6120G00X61.524Y43.823
N6130G01Z-0.050F30.0
N6140G01X66.517F600.0
N6150X70.517
N6160X97.221
N6170X101.221
N6180X127.634
N6190X131.634
N6200X137.689
N6210G3X138.189Y44.323I0.000J0.500
N6220G01Y52.323
N6230G3X137.689Y52.823I-0.500J0.000
N6240G01X100.352
N6250X96.352
N6260X69.938
N6270X65.938
N6280X61.524
N6290G3X61.024Y52.323I0.000J-0.500
N6300G01Y44.323
N6310G3X61.524Y43.823I0.500J0.000
N6320G01Z-0.100F30.0
N6330G01X66.517F600.0
N6340X70.517
N6350X97.221
N6360X101.221
N6370X127.634
N6380X131.634
N6390X137.689
N6400G3X138.189Y44.323I0.000J0.500
N6410G01Y52.323
N6420G3X137.689Y52.823I-0.500J0.000
N6430G01X100.352
N6440X96.352
N6450X69.938
N6460X65.938
N6470X61.524
N6480G3X61.024Y52.323I0.000J-0.500
N6490G01Y44.323
N6500G3X61.524Y43.823I0.500J0.000
N6510G01Z-0.150F30.0
N6520G01X66.517F600.0
N6530X70.517
N6540X97.221
N6550X101.221
N6560X127.634
N6570X131.634
N6580X137.689
N6590G3X138.189Y44.323I0.000J0.500
N6600G01Y52.323
N6610G3X137.689Y52.823I-0.500J0.000
N6620G01X100.352
N6630X96.352
N6640X69.938
N6650X65.938
N6660X61.524
N6670G3X61.024Y52.323I0.000J-0.500
N6680G01Y44.323
N6690G3X61.524Y43.823I0.500J0.000
N6700G01Z-0.200F30.0
N6710G01X66.517F600.0
N6720X70.517
N6730X97.221
N6740X101.221
N6750X127.634
N6760X131.634
N6770X137.689
N6780G3X138.189Y44.323I0.000J0.500
N6790G01Y52.323
N6800G3X137.689Y52.823I-0.500J0.000
N6810G01X100.352
N6820X96.352
N6830X69.938
N6840X65.938
N6850X61.524
N6860G3X61.024Y52.323I0.000J-0.500
N6870G01Y44.323
N6880G3X61.524Y43.823I0.500J0.000
N6890G01Z-0.250F30.0
N6900G01X66.517F600.0
N6910X70.517
N6920X97.221
N6930X101.221
N6940X127.634
N6950X131.634
N6960X137.689
N6970G3X138.189Y44.323I0.000J0.500
N6980G01Y52.323
N6990G3X137.689Y52.823I-0.500J0.000
N7000G01X100.352
N7010X96.352
N7020X69.938
N7030X65.938
N7040X61.524
N7050G3X61.024Y52.323I0.000J-0.500
N7060G01Y44.323
N7070G3X61.524Y43.823I0.500J0.000
N7080G01Z-0.300F30.0
N7090G01X66.517F600.0
N7100X70.517
N7110X97.221
N7120X101.221
N7130X127.634
N7140X131.634
N7150X137.689
N7160G3X138.189Y44.323I0.000J0.500
N7170G01Y52.323
N7180G3X137.689Y52.823I-0.500J0.000
N7190G01X100.352
N7200X96.352
N7210X69.938
N7220X65.938
N7230X61.524
N7240G3X61.024Y52.323I0.000J-0.500
N7250G01Y44.323
N7260G3X61.524Y43.823I0.500J0.000
N7270G01Z-0.350F30.0
N7280G01X66.517F600.0
N7290X70.517
N7300X97.221
N7310X101.221
N7320X127.634
N7330X131.634
N7340X137.689
N7350G3X138.189Y44.323I0.000J0.500
N7360G01Y52.323
N7370G3X137.689Y52.823I-0.500J0.000
N7380G01X100.352
N7390X96.352
N7400X69.938
N7410X65.938
N7420X61.524
N7430G3X61.024Y52.323I0.000J-0.500
N7440G01Y44.323
N7450G3X61.524Y43.823I0.500J0.000
N7460G01Z-0.400F30.0
N7470G01X66.517F600.0
N7480X70.517
N7490X97.221
N7500X101.221
N7510X127.634
N7520X131.634
N7530X137.689
N7540G3X138.189Y44.323I0.000J0.500
N7550G01Y52.323
N7560G3X137.689Y52.823I-0.500J0.000
N7570G01X100.352
N7580X96.352
N7590X69.938
N7600X65.938
N7610X61.524
N7620G3X61.024Y52.323I0.000J-0.500
N7630G01Y44.323
N7640G3X61.524Y43.823I0.500J0.000
N7650G01Z-0.450F30.0
N7660G01X66.517F600.0
N7670X70.517
N7680X97.221
N7690X101.221
N7700X127.634
N7710X131.634
N7720X137.689
N7730G3X138.189Y44.323I0.000J0.500
N7740G01Y52.323
N7750G3X137.689Y52.823I-0.500J0.000
N7760G01X100.352
N7770X96.352
N7780X69.938
N7790X65.938
N7800X61.524
N7810G3X61.024Y52.323I0.000J-0.500
N7820G01Y44.323
N7830G3X61.524Y43.823I0.500J0.000
N7840G01Z-0.500F30.0
N7850G01X66.517F600.0
N7860X70.517
N7870X97.221
N7880X101.221
N7890X127.634
N7900X131.634
N7910X137.689
N7920G3X138.189Y44.323I0.000J0.500
N7930G01Y52.323
N7940G3X137.689Y52.823I-0.500J0.000
N7950G01X100.352
N7960X96.352
N7970X69.938
N7980X65.938
N7990X61.524
N8000G3X61.024Y52.323I0.000J-0.500
N8010G01Y44.323
N8020G3X61.524Y43.823I0.500J0.000
N8030G01Z-0.550F30.0
N8040G01X66.517F600.0
N8050X70.517
N8060X97.221
N8070X101.221
N8080X127.634
N8090X131.634
N8100X137.689
N8110G3X138.189Y44.323I0.000J0.500
N8120G01Y52.323
N8130G3X137.689Y52.823I-0.500J0.000
N8140G01X100.352
N8150X96.352
N8160X69.938
N8170X65.938
N8180X61.524
N8190G3X61.024Y52.323I0.000J-0.500
N8200G01Y44.323
N8210G3X61.524Y43.823I0.500J0.000
N8220G01Z-0.600F30.0
N8230G01X66.517F600.0
N8240X70.517
N8250X97.221
N8260X101.221
N8270X127.634
N8280X131.634
N8290X137.689
N8300G3X138.189Y44.323I0.000J0.500
N8310G01Y52.323
N8320G3X137.689Y52.823I-0.500J0.000
N8330G01X100.352
N8340X96.352
N8350X69.938
N8360X65.938
N8370X61.524
N8380G3X61.024Y52.323I0.000J-0.500
N8390G01Y44.323
N8400G3X61.524Y43.823I0.500J0.000
N8410G01Z-0.650F30.0
N8420G01X66.517F600.0
N8430X70.517
N8440X97.221
N8450X101.221
N8460X127.634
N8470X131.634
N8480X137.689
N8490G3X138.189Y44.323I0.000J0.500
N8500G01Y52.323
N8510G3X137.689Y52.823I-0.500J0.000
N8520G01X100.352
N8530X96.352
N8540X69.938
N8550X65.938
N8560X61.524
N8570G3X61.024Y52.323I0.000J-0.500
N8580G01Y44.323
N8590G3X61.524Y43.823I0.500J0.000
N8600G01Z-0.700F30.0
N8610G01X66.517F600.0
N8620X70.517
N8630X97.221
N8640X101.221
N8650X127.634
N8660X131.634
N8670X137.689
N8680G3X138.189Y44.323I0.000J0.500
N8690G01Y52.323
N8700G3X137.689Y52.823I-0.500J0.000
N8710G01X100.352
N8720X96.352
N8730X69.938
N8740X65.938
N8750X61.524
N8760G3X61.024Y52.323I0.000J-0.500
N8770G01Y44.323
N8780G3X61.524Y43.823I0.500J0.000
N8790G01Z-0.750F30.0
N8800G01X66.517F600.0
N8810X70.517
N8820X97.221
N8830X101.221
N8840X127.634
N8850X131.634
N8860X137.689
N8870G3X138.189Y44.323I0.000J0.500
N8880G01Y52.323
N8890G3X137.689Y52.823I-0.500J0.000
N8900G01X100.352
N8910X96.352
N8920X69.938
N8930X65.938
N8940X61.524
N8950G3X61.024Y52.323I0.000J-0.500
N8960G01Y44.323
N8970G3X61.524Y43.823I0.500J0.000
N8980G01Z-0.800F30.0
N8990G01X66.517F600.0
N9000X70.517
N9010X97.221
N9020X101.221
N9030X127.634
N9040X131.634
N9050X137.689
N9060G3X138.189Y44.323I0.000J0.500
N9070G01Y52.323
N9080G3X137.689Y52.823I-0.500J0.000
N9090G01X100.352
N9100X96.352
N9110X69.938
N9120X65.938
N9130X61.524
N9140G3X61.024Y52.323I0.000J-0.500
N9150G01Y44.323
N9160G3X61.524Y43.823I0.500J0.000
N9170G01Z-0.850F30.0
N9180G01X66.517F600.0
N9190X70.517
N9200X97.221
N9210X101.221
N9220X127.634
N9230X131.634
N9240X137.689
N9250G3X138.189Y44.323I0.000J0.500
N9260G01Y52.323
N9270G3X137.689Y52.823I-0.500J0.000
N9280G01X100.352
N9290X96.352
N9300X69.938
N9310X65.938
N9320X61.524
N9330G3X61.024Y52.323I0.000J-0.500
N9340G01Y44.323
N9350G3X61.524Y43.823I0.500J0.000
N9360G01Z-0.900F30.0
N9370G01X66.517F600.0
N9380X70.517
N9390X97.221
N9400X101.221
N9410X127.634
N9420X131.634
N9430X137.689
N9440G3X138.189Y44.323I0.000J0.500
N9450G01Y52.323
N9460G3X137.689Y52.823I-0.500J0.000
N9470G01X100.352
N9480X96.352
N9490X69.938
N9500X65.938
N9510X61.524
N9520G3X61.024Y52.323I0.000J-0.500
N9530G01Y44.323
N9540G3X61.524Y43.823I0.500J0.000
N9550G01Z-0.950F30.0
N9560G01X66.517F600.0
N9570X70.517
N9580X97.221
N9590X101.221
N9600X127.634
N9610X131.634
N9620X137.689
N9630G3X138.189Y44.323I0.000J0.500
N9640G01Y52.323
N9650G3X137.689Y52.823I-0.500J0.000
N9660G01X100.352
N9670X96.352
N9680X69.938
N9690X65.938
N9700X61.524
N9710G3X61.024Y52.323I0.000J-0.500
N9720G01Y44.323
N9730G3X61.524Y43.823I0.500J0.000
N9740G01Z-1.000F30.0
N9750G01X66.517F600.0
N9760X70.517
N9770X97.221
N9780X101.221
N9790X127.634
N9800X131.634
N9810X137.689
N9820G3X138.189Y44.323I0.000J0.500
N9830G01Y52.323
N9840G3X137.689Y52.823I-0.500J0.000
N9850G01X100.352
N9860X96.352
N9870X69.938
N9880X65.938
N9890X61.524
N9900G3X61.024Y52.323I0.000J-0.500
N9910G01Y44.323
N9920G3X61.524Y43.823I0.500J0.000
N9930G01Z-1.050F30.0
N9940G01X66.517F600.0
N9950X70.517
N9960X97.221
N9970X101.221
N9980X127.634
N9990X131.634
N10000X137.689
N10010G3X138.189Y44.323I0.000J0.500
N10020G01Y52.323
N10030G3X137.689Y52.823I-0.500J0.000
N10040G01X100.352
N10050X96.352
N10060X69.938
N10070X65.938
N10080X61.524
N10090G3X61.024Y52.323I0.000J-0.500
N10100G01Y44.323
N10110G3X61.524Y43.823I0.500J0.000
N10120G01Z-1.100F30.0
N10130G01X66.517F600.0
N10140X70.517
N10150X97.221
N10160X101.221
N10170X127.634
N10180X131.634
N10190X137.689
N10200G3X138.189Y44.323I0.000J0.500
N10210G01Y52.323
N10220G3X137.689Y52.823I-0.500J0.000
N10230G01X100.352
N10240X96.352
N10250X69.938
N10260X65.938
N10270X61.524
N10280G3X61.024Y52.323I0.000J-0.500
N10290G01Y44.323
N10300G3X61.524Y43.823I0.500J0.000
N10310G01Z-1.150F30.0
N10320G01X66.517F600.0
N10330X70.517
N10340X97.221
N10350X101.221
N10360X127.634
N10370X131.634
N10380X137.689
N10390G3X138.189Y44.323I0.000J0.500
N10400G01Y52.323
N10410G3X137.689Y52.823I-0.500J0.000
N10420G01X100.352
N10430X96.352
N10440X69.938
N10450X65.938
N10460X61.524
N10470G3X61.024Y52.323I0.000J-0.500
N10480G01Y44.323
N10490G3X61.524Y43.823I0.500J0.000
N10500G01Z-1.200F30.0
N10510G01X66.517F600.0
N10520X70.517
N10530X97.221
N10540X101.221
N10550X127.634
N10560X131.634
N10570X137.689
N10580G3X138.189Y44.323I0.000J0.500
N10590G01Y52.323
N10600G3X137.689Y52.823I-0.500J0.000
N10610G01X100.352
N10620X96.352
N10630X69.938
N10640X65.938
N10650X61.524
N10660G3X61.024Y52.323I0.000J-0.500
N10670G01Y44.323
N10680G3X61.524Y43.823I0.500J0.000
N10690G01Z-1.250F30.0
N10700G01X66.517F600.0
N10710X70.517
N10720X97.221
N10730X101.221
N10740X127.634
N10750X131.634
N10760X137.689
N10770G3X138.189Y44.323I0.000J0.500
N10780G01Y52.323
N10790G3X137.689Y52.823I-0.500J0.000
N10800G01X100.352
N10810X96.352
N10820X69.938
N10830X65.938
N10840X61.524
N10850G3X61.024Y52.323I0.000J-0.500
N10860G01Y44.323
N10870G3X61.524Y43.823I0.500J0.000
N10880G01Z-1.300F30.0
N10890G01X66.517F600.0
N10900X70.517
N10910X97.221
N10920X101.221
N10930X127.634
N10940X131.634
N10950X137.689
N10960G3X138.189Y44.323I0.000J0.500
N10970G01Y52.323
N10980G3X137.689Y52.823I-0.500J0.000
N10990G01X100.352
N11000X96.352
N11010X69.938
N11020X65.938
N11030X61.524
N11040G3X61.024Y52.323I0.000J-0.500
N11050G01Y44.323
N11060G3X61.524Y43.823I0.500J0.000
N11070G01Z-1.350F30.0
N11080G01X66.517F600.0
N11090X70.517
N11100X97.221
N11110X101.221
N11120X127.634
N11130X131.634
N11140X137.689
N11150G3X138.189Y44.323I0.000J0.500
N11160G01Y52.323
N11170G3X137.689Y52.823I-0.500J0.000
N11180G01X100.352
N11190X96.352
N11200X69.938
N11210X65.938
N11220X61.524
N11230G3X61.024Y52.323I0.000J-0.500
N11240G01Y44.323
N11250G3X61.524Y43.823I0.500J0.000
N11260G01Z-1.400F30.0
N11270G01X66.517F600.0
N11280X70.517
N11290X97.221
N11300X101.221
N11310X127.634
N11320X131.634
N11330X137.689
N11340G3X138.189Y44.323I0.000J0.500
N11350G01Y52.323
N11360G3X137.689Y52.823I-0.500J0.000
N11370G01X100.352
N11380X96.352
N11390X69.938
N11400X65.938
N11410X61.524
N11420G3X61.024Y52.323I0.000J-0.500
N11430G01Y44.323
N11440G3X61.524Y43.823I0.500J0.000
N11450G01Z-1.450F30.0
N11460G01X66.517F600.0
N11470X70.517
N11480X97.221
N11490X101.221
N11500X127.634
N11510X131.634
N11520X137.689
N11530G3X138.189Y44.323I0.000J0.500
N11540G01Y52.323
N11550G3X137.689Y52.823I-0.500J0.000
N11560G01X100.352
N11570X96.352
N11580X69.938
N11590X65.938
N11600X61.524
N11610G3X61.024Y52.323I0.000J-0.500
N11620G01Y44.323
N11630G3X61.524Y43.823I0.500J0.000
N11640G01Z-1.500F30.0
N11650G01X66.517F600.0
N11660X70.517
N11670X97.221
N11680X101.221
N11690X127.634
N11700X131.634
N11710X137.689
N11720G3X138.189Y44.323I0.000J0.500
N11730G01Y52.323
N11740G3X137.689Y52.823I-0.500J0.000
N11750G01X100.352
N11760X96.352
N11770X69.938
N11780X65.938
N11790X61.524
N11800G3X61.024Y52.323I0.000J-0.500
N11810G01Y44.323
N11820G3X61.524Y43.823I0.500J0.000
N11830G01Z-1.550F30.0
N11840G01X66.517F600.0
N11850X70.517
N11860X97.221
N11870X101.221
N11880X127.634
N11890X131.634
N11900X137.689
N11910G3X138.189Y44.323I0.000J0.500
N11920G01Y52.323
N11930G3X137.689Y52.823I-0.500J0.000
N11940G01X100.352
N11950X96.352
N11960X69.938
N11970X65.938
N11980X61.524
N11990G3X61.024Y52.323I0.000J-0.500
N12000G01Y44.323
N12010G3X61.524Y43.823I0.500J0.000
N12020G01Z-1.600F30.0
N12030G01X66.517F600.0
N12040X70.517
N12050X97.221
N12060X101.221
N12070X127.634
N12080X131.634
N12090X137.689
N12100G3X138.189Y44.323I0.000J0.500
N12110G01Y52.323
N12120G3X137.689Y52.823I-0.500J0.000
N12130G01X100.352
N12140X96.352
N12150X69.938
N12160X65.938
N12170X61.524
N12180G3X61.024Y52.323I0.000J-0.500
N12190G01Y44.323
N12200G3X61.524Y43.823I0.500J0.000
N12210G01Z-1.650F30.0
N12220G01X66.517F600.0
N12230X70.517
N12240X97.221
N12250X101.221
N12260X127.634
N12270X131.634
N12280X137.689
N12290G3X138.189Y44.323I0.000J0.500
N12300G01Y52.323
N12310G3X137.689Y52.823I-0.500J0.000
N12320G01X100.352
N12330X96.352
N12340X69.938
N12350X65.938
N12360X61.524
N12370G3X61.024Y52.323I0.000J-0.500
N12380G01Y44.323
N12390G3X61.524Y43.823I0.500J0.000
N12400G01Z-1.700F30.0
N12410G01X66.517F600.0
N12420X70.517
N12430X97.221
N12440X101.221
N12450X127.634
N12460X131.634
N12470X137.689
N12480G3X138.189Y44.323I0.000J0.500
N12490G01Y52.323
N12500G3X137.689Y52.823I-0.500J0.000
N12510G01X100.352
N12520X96.352
N12530X69.938
N12540X65.938
N12550X61.524
N12560G3X61.024Y52.323I0.000J-0.500
N12570G01Y44.323
N12580G3X61.524Y43.823I0.500J0.000
N12590G01Z-1.750F30.0
N12600G01X66.517F600.0
N12610X70.517
N12620X97.221
N12630X101.221
N12640X127.634
N12650X131.634
N12660X137.689
N12670G3X138.189Y44.323I0.000J0.500
N12680G01Y52.323
N12690G3X137.689Y52.823I-0.500J0.000
N12700G01X100.352
N12710X96.352
N12720X69.938
N12730X65.938
N12740X61.524
N12750G3X61.024Y52.323I0.000J-0.500
N12760G01Y44.323
N12770G3X61.524Y43.823I0.500J0.000
N12780G01Z-1.800F30.0
N12790G01X66.517F600.0
N12800X70.517
N12810X97.221
N12820X101.221
N12830X127.634
N12840X131.634
N12850X137.689
N12860G3X138.189Y44.323I0.000J0.500
N12870G01Y52.323
N12880G3X137.689Y52.823I-0.500J0.000
N12890G01X100.352
N12900X96.352
N12910X69.938
N12920X65.938
N12930X61.524
N12940G3X61.024Y52.323I0.000J-0.500
N12950G01Y44.323
N12960G3X61.524Y43.823I0.500J0.000
N12970G01Z-1.850F30.0
N12980G01X66.517F600.0
N12990X70.517
N13000X97.221
N13010X101.221
N13020X127.634
N13030X131.634
N13040X137.689
N13050G3X138.189Y44.323I0.000J0.500
N13060G01Y52.323
N13070G3X137.689Y52.823I-0.500J0.000
N13080G01X100.352
N13090X96.352
N13100X69.938
N13110X65.938
N13120X61.524
N13130G3X61.024Y52.323I0.000J-0.500
N13140G01Y44.323
N13150G3X61.524Y43.823I0.500J0.000
N13160G01Z-1.900F30.0
N13170G01X66.517F600.0
N13180X70.517
N13190X97.221
N13200X101.221
N13210X127.634
N13220X131.634
N13230X137.689
N13240G3X138.189Y44.323I0.000J0.500
N13250G01Y52.323
N13260G3X137.689Y52.823I-0.500J0.000
N13270G01X100.352
N13280X96.352
N13290X69.938
N13300X65.938
N13310X61.524
N13320G3X61.024Y52.323I0.000J-0.500
N13330G01Y44.323
N13340G3X61.524Y43.823I0.500J0.000
N13350G01Z-1.950F30.0
N13360G01X66.517F600.0
N13370X70.517
N13380X97.221
N13390X101.221
N13400X127.634
N13410X131.634
N13420X137.689
N13430G3X138.189Y44.323I0.000J0.500
N13440G01Y52.323
N13450G3X137.689Y52.823I-0.500J0.000
N13460G01X100.352
N13470X96.352
N13480X69.938
N13490X65.938
N13500X61.524
N13510G3X61.024Y52.323I0.000J-0.500
N13520G01Y44.323
N13530G3X61.524Y43.823I0.500J0.000
N13540G01Z-2.000F30.0
N13550G01X66.517F600.0
N13560X70.517
N13570X97.221
N13580X101.221
N13590X127.634
N13600X131.634
N13610X137.689
N13620G3X138.189Y44.323I0.000J0.500
N13630G01Y52.323
N13640G3X137.689Y52.823I-0.500J0.000
N13650G01X100.352
N13660X96.352
N13670X69.938
N13680X65.938
N13690X61.524
N13700G3X61.024Y52.323I0.000J-0.500
N13710G01Y44.323
N13720G3X61.524Y43.823I0.500J0.000
N13730G01Z-2.050F30.0
N13740G01X66.517F600.0
N13750X70.517
N13760X97.221
N13770X101.221
N13780X127.634
N13790X131.634
N13800X137.689
N13810G3X138.189Y44.323I0.000J0.500
N13820G01Y52.323
N13830G3X137.689Y52.823I-0.500J0.000
N13840G01X100.352
N13850X96.352
N13860X69.938
N13870X65.938
N13880X61.524
N13890G3X61.024Y52.323I0.000J-0.500
N13900G01Y44.323
N13910G3X61.524Y43.823I0.500J0.000
N13920G01Z-2.100F30.0
N13930G01X66.517F600.0
N13940X70.517
N13950X97.221
N13960X101.221
N13970X127.634
N13980X131.634
N13990X137.689
N14000G3X138.189Y44.323I0.000J0.500
N14010G01Y52.323
N14020G3X137.689Y52.823I-0.500J0.000
N14030G01X100.352
N14040X96.352
N14050X69.938
N14060X65.938
N14070X61.524
N14080G3X61.024Y52.323I0.000J-0.500
N14090G01Y44.323
N14100G3X61.524Y43.823I0.500J0.000
N14110G01Z-2.150F30.0
N14120G01X66.517F600.0
N14130X70.517
N14140X97.221
N14150X101.221
N14160X127.634
N14170X131.634
N14180X137.689
N14190G3X138.189Y44.323I0.000J0.500
N14200G01Y52.323
N14210G3X137.689Y52.823I-0.500J0.000
N14220G01X100.352
N14230X96.352
N14240X69.938
N14250X65.938
N14260X61.524
N14270G3X61.024Y52.323I0.000J-0.500
N14280G01Y44.323
N14290G3X61.524Y43.823I0.500J0.000
N14300G01Z-2.200F30.0
N14310G01X66.517F600.0
N14320X70.517
N14330X97.221
N14340X101.221
N14350X127.634
N14360X131.634
N14370X137.689
N14380G3X138.189Y44.323I0.000J0.500
N14390G01Y52.323
N14400G3X137.689Y52.823I-0.500J0.000
N14410G01X100.352
N14420X96.352
N14430X69.938
N14440X65.938
N14450X61.524
N14460G3X61.024Y52.323I0.000J-0.500
N14470G01Y44.323
N14480G3X61.524Y43.823I0.500J0.000
N14490G01Z-2.250F30.0
N14500G01X66.517F600.0
N14510X70.517
N14520X97.221
N14530X101.221
N14540X127.634
N14550X131.634
N14560X137.689
N14570G3X138.189Y44.323I0.000J0.500
N14580G01Y52.323
N14590G3X137.689Y52.823I-0.500J0.000
N14600G01X100.352
N14610X96.352
N14620X69.938
N14630X65.938
N14640X61.524
N14650G3X61.024Y52.323I0.000J-0.500
N14660G01Y44.323
N14670G3X61.524Y43.823I0.500J0.000
N14680G01Z-2.300F30.0
N14690G01X66.517F600.0
N14700X70.517
N14710X97.221
N14720X101.221
N14730X127.634
N14740X131.634
N14750X137.689
N14760G3X138.189Y44.323I0.000J0.500
N14770G01Y52.323
N14780G3X137.689Y52.823I-0.500J0.000
N14790G01X100.352
N14800X96.352
N14810X69.938
N14820X65.938
N14830X61.524
N14840G3X61.024Y52.323I0.000J-0.500
N14850G01Y44.323
N14860G3X61.524Y43.823I0.500J0.000
N14870G01Z-2.350F30.0
N14880G01X66.517F600.0
N14890X70.517
N14900X97.221
N14910X101.221
N14920X127.634
N14930X131.634
N14940X137.689
N14950G3X138.189Y44.323I0.000J0.500
N14960G01Y52.323
N14970G3X137.689Y52.823I-0.500J0.000
N14980G01X100.352
N14990X96.352
N15000X69.938
N15010X65.938
N15020X61.524
N15030G3X61.024Y52.323I0.000J-0.500
N15040G01Y44.323
N15050G3X61.524Y43.823I0.500J0.000
N15060G01Z-2.400F30.0
N15070G01X66.517F600.0
N15080X70.517
N15090X97.221
N15100X101.221
N15110X127.634
N15120X131.634
N15130X137.689
N15140G3X138.189Y44.323I0.000J0.500
N15150G01Y52.323
N15160G3X137.689Y52.823I-0.500J0.000
N15170G01X100.352
N15180X96.352
N15190X69.938
N15200X65.938
N15210X61.524
N15220G3X61.024Y52.323I0.000J-0.500
N15230G01Y44.323
N15240G3X61.524Y43.823I0.500J0.000
N15250G01Z-2.450F30.0
N15260G01X66.517F600.0
N15270X70.517
N15280X97.221
N15290X101.221
N15300X127.634
N15310X131.634
N15320X137.689
N15330G3X138.189Y44.323I0.000J0.500
N15340G01Y52.323
N15350G3X137.689Y52.823I-0.500J0.000
N15360G01X100.352
N15370X96.352
N15380X69.938
N15390X65.938
N15400X61.524
N15410G3X61.024Y52.323I0.000J-0.500
N15420G01Y44.323
N15430G3X61.524Y43.823I0.500J0.000
N15440G01Z-2.500F30.0
N15450G01X66.517F600.0
N15460X70.517
N15470X97.221
N15480X101.221
N15490X127.634
N15500X131.634
N15510X137.689
N15520G3X138.189Y44.323I0.000J0.500
N15530G01Y52.323
N15540G3X137.689Y52.823I-0.500J0.000
N15550G01X100.352
N15560X96.352
N15570X69.938
N15580X65.938
N15590X61.524
N15600G3X61.024Y52.323I0.000J-0.500
N15610G01Y44.323
N15620G3X61.524Y43.823I0.500J0.000
N15630G01Z-2.550F30.0
N15640G01X66.517F600.0
N15650X70.517
N15660X97.221
N15670X101.221
N15680X127.634
N15690X131.634
N15700X137.689
N15710G3X138.189Y44.323I0.000J0.500
N15720G01Y52.323
N15730G3X137.689Y52.823I-0.500J0.000
N15740G01X100.352
N15750X96.352
N15760X69.938
N15770X65.938
N15780X61.524
N15790G3X61.024Y52.323I0.000J-0.500
N15800G01Y44.323
N15810G3X61.524Y43.823I0.500J0.000
N15820G01Z-2.600F30.0
N15830G01X66.517F600.0
N15840X70.517
N15850X97.221
N15860X101.221
N15870X127.634
N15880X131.634
N15890X137.689
N15900G3X138.189Y44.323I0.000J0.500
N15910G01Y52.323
N15920G3X137.689Y52.823I-0.500J0.000
N15930G01X100.352
N15940X96.352
N15950X69.938
N15960X65.938
N15970X61.524
N15980G3X61.024Y52.323I0.000J-0.500
N15990G01Y44.323
N16000G3X61.524Y43.823I0.500J0.000
N16010G01Z-2.650F30.0
N16020G01X66.517F600.0
N16030X70.517
N16040X97.221
N16050X101.221
N16060X127.634
N16070X131.634
N16080X137.689
N16090G3X138.189Y44.323I0.000J0.500
N16100G01Y52.323
N16110G3X137.689Y52.823I-0.500J0.000
N16120G01X100.352
N16130X96.352
N16140X69.938
N16150X65.938
N16160X61.524
N16170G3X61.024Y52.323I0.000J-0.500
N16180G01Y44.323
N16190G3X61.524Y43.823I0.500J0.000
N16200G01Z-2.700F30.0
N16210G01X66.517F600.0
N16220X70.517
N16230X97.221
N16240X101.221
N16250X127.634
N16260X131.634
N16270X137.689
N16280G3X138.189Y44.323I0.000J0.500
N16290G01Y52.323
N16300G3X137.689Y52.823I-0.500J0.000
N16310G01X100.352
N16320X96.352
N16330X69.938
N16340X65.938
N16350X61.524
N16360G3X61.024Y52.323I0.000J-0.500
N16370G01Y44.323
N16380G3X61.524Y43.823I0.500J0.000
N16390G01Z-2.750F30.0
N16400G01X66.517F600.0
N16410X70.517
N16420X97.221
N16430X101.221
N16440X127.634
N16450X131.634
N16460X137.689
N16470G3X138.189Y44.323I0.000J0.500
N16480G01Y52.323
N16490G3X137.689Y52.823I-0.500J0.000
N16500G01X100.352
N16510X96.352
N16520X69.938
N16530X65.938
N16540X61.524
N16550G3X61.024Y52.323I0.000J-0.500
N16560G01Y44.323
N16570G3X61.524Y43.823I0.500J0.000
N16580G01Z-2.800F30.0
N16590G01X66.517F600.0
N16600X70.517
N16610X97.221
N16620X101.221
N16630X127.634
N16640X131.634
N16650X137.689
N16660G3X138.189Y44.323I0.000J0.500
N16670G01Y52.323
N16680G3X137.689Y52.823I-0.500J0.000
N16690G01X100.352
N16700X96.352
N16710X69.938
N16720X65.938
N16730X61.524
N16740G3X61.024Y52.323I0.000J-0.500
N16750G01Y44.323
N16760G3X61.524Y43.823I0.500J0.000
N16770G01Z-2.850F30.0
N16780G01X66.517F600.0
N16790Z-2.800
N16800X70.517
N16810G01Z-2.850F30.0
N16820G01X97.221F600.0
N16830Z-2.800
N16840X101.221
N16850G01Z-2.850F30.0
N16860G01X127.634F600.0
N16870Z-2.800
N16880X131.634
N16890G01Z-2.850F30.0
N16900G01X137.689F600.0
N16910G3X138.189Y44.323I0.000J0.500
N16920G01Y52.323
N16930G3X137.689Y52.823I-0.500J0.000
N16940G01X100.352
N16950Z-2.800
N16960X96.352
N16970G01Z-2.850F30.0
N16980G01X69.938F600.0
N16990Z-2.800
N17000X65.938
N17010G01Z-2.850F30.0
N17020G01X61.524F600.0
N17030G3X61.024Y52.323I0.000J-0.500
N17040G01Y44.323
N17050G3X61.524Y43.823I0.500J0.000
N17060G01Z-2.900F30.0
N17070G01X66.517F600.0
N17080Z-2.800
N17090X70.517
N17100G01Z-2.900F30.0
N17110G01X97.221F600.0
N17120Z-2.800
N17130X101.221
N17140G01Z-2.900F30.0
N17150G01X127.634F600.0
N17160Z-2.800
N17170X131.634
N17180G01Z-2.900F30.0
N17190G01X137.689F600.0
N17200G3X138.189Y44.323I0.000J0.500
N17210G01Y52.323
N17220G3X137.689Y52.823I-0.500J0.000
N17230G01X100.352
N17240Z-2.800
N17250X96.352
N17260G01Z-2.900F30.0
N17270G01X69.938F600.0
N17280Z-2.800
N17290X65.938
N17300G01Z-2.900F30.0
N17310G01X61.524F600.0
N17320G3X61.024Y52.323I0.000J-0.500
N17330G01Y44.323
N17340G3X61.524Y43.823I0.500J0.000
N17350G01Z-2.950F30.0
N17360G01X66.517F600.0
N17370Z-2.800
N17380X70.517
N17390G01Z-2.950F30.0
N17400G01X97.221F600.0
N17410Z-2.800
N17420X101.221
N17430G01Z-2.950F30.0
N17440G01X127.634F600.0
N17450Z-2.800
N17460X131.634
N17470G01Z-2.950F30.0
N17480G01X137.689F600.0
N17490G3X138.189Y44.323I0.000J0.500
N17500G01Y52.323
N17510G3X137.689Y52.823I-0.500J0.000
N17520G01X100.352
N17530Z-2.800
N17540X96.352
N17550G01Z-2.950F30.0
N17560G01X69.938F600.0
N17570Z-2.800
N17580X65.938
N17590G01Z-2.950F30.0
N17600G01X61.524F600.0
N17610G3X61.024Y52.323I0.000J-0.500
N17620G01Y44.323
N17630G3X61.524Y43.823I0.500J0.000
N17640G01Z-3.000F30.0
N17650G01X66.517F600.0
N17660Z-2.800
N17670X70.517
N17680G01Z-3.000F30.0
N17690G01X97.221F600.0
N17700Z-2.800
N17710X101.221
N17720G01Z-3.000F30.0
N17730G01X127.634F600.0
N17740Z-2.800
N17750X131.634
N17760G01Z-3.000F30.0
N17770G01X137.689F600.0
N17780G3X138.189Y44.323I0.000J0.500
N17790G01Y52.323
N17800G3X137.689Y52.823I-0.500J0.000
N17810G01X100.352
N17820Z-2.800
N17830X96.352
N17840G01Z-3.000F30.0
N17850G01X69.938F600.0
N17860Z-2.800
N17870X65.938
N17880G01Z-3.000F30.0
N17890G01X61.524F600.0
N17900G3X61.024Y52.323I0.000J-0.500
N17910G01Y44.323
N17920G3X61.524Y43.823I0.500J0.000
N17930G00Z6.000
N17940G00X41.189Y71.823
N17950G01Z-0.050F30.0
N17960G3X41.689Y71.323I0.500J0.000F600.0
N17970G01X78.103
N17980X82.103
N17990X120.683
N18000X124.683
N18010X157.689
N18020G3X158.189Y71.823I0.000J0.500
N18030G01Y86.634
N18040Y90.634
N18050Y120.524
N18060Y124.524
N18070Y132.823
N18080G3X157.689Y133.323I-0.500J0.000
N18090G01X135.690
N18100X131.690
N18110X72.834
N18120X68.834
N18130X41.689
N18140G3X41.189Y132.823I0.000J-0.500
N18150G01Y118.152
N18160Y114.152
N18170Y86.869
N18180Y82.869
N18190Y71.823
N18200G01Z-0.100F30.0
N18210G3X41.689Y71.323I0.500J0.000F600.0
N18220G01X78.103
N18230X82.103
N18240X120.683
N18250X124.683
N18260X157.689
N18270G3X158.189Y71.823I0.000J0.500
N18280G01Y86.634
N18290Y90.634
N18300Y120.524
N18310Y124.524
N18320Y132.823
N18330G3X157.689Y133.323I-0.500J0.000
N18340G01X135.690
N18350X131.690
N18360X72.834
N18370X68.834
N18380X41.689
N18390G3X41.189Y132.823I0.000J-0.500
N18400G01Y118.152
N18410Y114.152
N18420Y86.869
N18430Y82.869
N18440Y71.823
N18450G01Z-0.150F30.0
N18460G3X41.689Y71.323I0.500J0.000F600.0
N18470G01X78.103
N18480X82.103
N18490X120.683
N18500X124.683
N18510X157.689
N18520G3X158.189Y71.823I0.000J0.500
N18530G01Y86.634
N18540Y90.634
N18550Y120.524
N18560Y124.524
N18570Y132.823
N18580G3X157.689Y133.323I-0.500J0.000
N18590G01X135.690
N18600X131.690
N18610X72.834
N18620X68.834
N18630X41.689
N18640G3X41.189Y132.823I0.000J-0.500
N18650G01Y118.152
N18660Y114.152
N18670Y86.869
N18680Y82.869
N18690Y71.823
N18700G01Z-0.200F30.0
N18710G3X41.689Y71.323I0.500J0.000F600.0
N18720G01X78.103
N18730X82.103
N18740X120.683
N18750X124.683
N18760X157.689
N18770G3X158.189Y71.823I0.000J0.500
N18780G01Y86.634
N18790Y90.634
N18800Y120.524
N18810Y124.524
N18820Y132.823
N18830G3X157.689Y133.323I-0.500J0.000
N18840G01X135.690
N18850X131.690
N18860X72.834
N18870X68.834
N18880X41.689
N18890G3X41.189Y132.823I0.000J-0.500
N18900G01Y118.152
N18910Y114.152
N18920Y86.869
N18930Y82.869
N18940Y71.823
N18950G01Z-0.250F30.0
N18960G3X41.689Y71.323I0.500J0.000F600.0
N18970G01X78.103
N18980X82.103
N18990X120.683
N19000X124.683
N19010X157.689
N19020G3X158.189Y71.823I0.000J0.500
N19030G01Y86.634
N19040Y90.634
N19050Y120.524
N19060Y124.524
N19070Y132.823
N19080G3X157.689Y133.323I-0.500J0.000
N19090G01X135.690
N19100X131.690
N19110X72.834
N19120X68.834
N19130X41.689
N19140G3X41.189Y132.823I0.000J-0.500
N19150G01Y118.152
N19160Y114.152
N19170Y86.869
N19180Y82.869
N19190Y71.823
N19200G01Z-0.300F30.0
N19210G3X41.689Y71.323I0.500J0.000F600.0
N19220G01X78.103
N19230X82.103
N19240X120.683
N19250X124.683
N19260X157.689
N19270G3X158.189Y71.823I0.000J0.500
N19280G01Y86.634
N19290Y90.634
N19300Y120.524
N19310Y124.524
N19320Y132.823
N19330G3X157.689Y133.323I-0.500J0.000
N19340G01X135.690
N19350X131.690
N19360X72.834
N19370X68.834
N19380X41.689
N19390G3X41.189Y132.823I0.000J-0.500
N19400G01Y118.152
N19410Y114.152
N19420Y86.869
N19430Y82.869
N19440Y71.823
N19450G01Z-0.350F30.0
N19460G3X41.689Y71.323I0.500J0.000F600.0
N19470G01X78.103
N19480X82.103
N19490X120.683
N19500X124.683
N19510X157.689
N19520G3X158.189Y71.823I0.000J0.500
N19530G01Y86.634
N19540Y90.634
N19550Y120.524
N19560Y124.524
N19570Y132.823
N19580G3X157.689Y133.323I-0.500J0.000
N19590G01X135.690
N19600X131.690
N19610X72.834
N19620X68.834
N19630X41.689
N19640G3X41.189Y132.823I0.000J-0.500
N19650G01Y118.152
N19660Y114.152
N19670Y86.869
N19680Y82.869
N19690Y71.823
N19700G01Z-0.400F30.0
N19710G3X41.689Y71.323I0.500J0.000F600.0
N19720G01X78.103
N19730X82.103
N19740X120.683
N19750X124.683
N19760X157.689
N19770G3X158.189Y71.823I0.000J0.500
N19780G01Y86.634
N19790Y90.634
N19800Y120.524
N19810Y124.524
N19820Y132.823
N19830G3X157.689Y133.323I-0.500J0.000
N19840G01X135.690
N19850X131.690
N19860X72.834
N19870X68.834
N19880X41.689
N19890G3X41.189Y132.823I0.000J-0.500
N19900G01Y118.152
N19910Y114.152
N19920Y86.869
N19930Y82.869
N19940Y71.823
N19950G01Z-0.450F30.0
N19960G3X41.689Y71.323I0.500J0.000F600.0
N19970G01X78.103
N19980X82.103
N19990X120.683
N20000X124.683
N20010X157.689
N20020G3X158.189Y71.823I0.000J0.500
N20030G01Y86.634
N20040Y90.634
N20050Y120.524
N20060Y124.524
N20070Y132.823
N20080G3X157.689Y133.323I-0.500J0.000
N20090G01X135.690
N20100X131.690
N20110X72.834
N20120X68.834
N20130X41.689
N20140G3X41.189Y132.823I0.000J-0.500
N20150G01Y118.152
N20160Y114.152
N20170Y86.869
N20180Y82.869
N20190Y71.823
N20200G01Z-0.500F30.0
N20210G3X41.689Y71.323I0.500J0.000F600.0
N20220G01X78.103
N20230X82.103
N20240X120.683
N20250X124.683
N20260X157.689
N20270G3X158.189Y71.823I0.000J0.500
N20280G01Y86.634
N20290Y90.634
N20300Y120.524
N20310Y124.524
N20320Y132.823
N20330G3X157.689Y133.323I-0.500J0.000
N20340G01X135.690
N20350X131.690
N20360X72.834
N20370X68.834
N20380X41.689
N20390G3X41.189Y132.823I0.000J-0.500
N20400G01Y118.152
N20410Y114.152
N20420Y86.869
N20430Y82.869
N20440Y71.823
N20450G01Z-0.550F30.0
N20460G3X41.689Y71.323I0.500J0.000F600.0
N20470G01X78.103
N20480X82.103
N20490X120.683
N20500X124.683
N20510X157.689
N20520G3X158.189Y71.823I0.000J0.500
N20530G01Y86.634
N20540Y90.634
N20550Y120.524
N20560Y124.524
N20570Y132.823
N20580G3X157.689Y133.323I-0.500J0.000
N20590G01X135.690
N20600X131.690
N20610X72.834
N20620X68.834
N20630X41.689
N20640G3X41.189Y132.823I0.000J-0.500
N20650G01Y118.152
N20660Y114.152
N20670Y86.869
N20680Y82.869
N20690Y71.823
N20700G01Z-0.600F30.0
N20710G3X41.689Y71.323I0.500J0.000F600.0
N20720G01X78.103
N20730X82.103
N20740X120.683
N20750X124.683
N20760X157.689
N20770G3X158.189Y71.823I0.000J0.500
N20780G01Y86.634
N20790Y90.634
N20800Y120.524
N20810Y124.524
N20820Y132.823
N20830G3X157.689Y133.323I-0.500J0.000
N20840G01X135.690
N20850X131.690
N20860X72.834
N20870X68.834
N20880X41.689
N20890G3X41.189Y132.823I0.000J-0.500
N20900G01Y118.152
N20910Y114.152
N20920Y86.869
N20930Y82.869
N20940Y71.823
N20950G01Z-0.650F30.0
N20960G3X41.689Y71.323I0.500J0.000F600.0
N20970G01X78.103
N20980X82.103
N20990X120.683
N21000X124.683
N21010X157.689
N21020G3X158.189Y71.823I0.000J0.500
N21030G01Y86.634
N21040Y90.634
N21050Y120.524
N21060Y124.524
N21070Y132.823
N21080G3X157.689Y133.323I-0.500J0.000
N21090G01X135.690
N21100X131.690
N21110X72.834
N21120X68.834
N21130X41.689
N21140G3X41.189Y132.823I0.000J-0.500
N21150G01Y118.152
N21160Y114.152
N21170Y86.869
N21180Y82.869
N21190Y71.823
N21200G01Z-0.700F30.0
N21210G3X41.689Y71.323I0.500J0.000F600.0
N21220G01X78.103
N21230X82.103
N21240X120.683
N21250X124.683
N21260X157.689
N21270G3X158.189Y71.823I0.000J0.500
N21280G01Y86.634
N21290Y90.634
N21300Y120.524
N21310Y124.524
N21320Y132.823
N21330G3X157.689Y133.323I-0.500J0.000
N21340G01X135.690
N21350X131.690
N21360X72.834
N21370X68.834
N21380X41.689
N21390G3X41.189Y132.823I0.000J-0.500
N21400G01Y118.152
N21410Y114.152
N21420Y86.869
N21430Y82.869
N21440Y71.823
N21450G01Z-0.750F30.0
N21460G3X41.689Y71.323I0.500J0.000F600.0
N21470G01X78.103
N21480X82.103
N21490X120.683
N21500X124.683
N21510X157.689
N21520G3X158.189Y71.823I0.000J0.500
N21530G01Y86.634
N21540Y90.634
N21550Y120.524
N21560Y124.524
N21570Y132.823
N21580G3X157.689Y133.323I-0.500J0.000
N21590G01X135.690
N21600X131.690
N21610X72.834
N21620X68.834
N21630X41.689
N21640G3X41.189Y132.823I0.000J-0.500
N21650G01Y118.152
N21660Y114.152
N21670Y86.869
N21680Y82.869
N21690Y71.823
N21700G01Z-0.800F30.0
N21710G3X41.689Y71.323I0.500J0.000F600.0
N21720G01X78.103
N21730X82.103
N21740X120.683
N21750X124.683
N21760X157.689
N21770G3X158.189Y71.823I0.000J0.500
N21780G01Y86.634
N21790Y90.634
N21800Y120.524
N21810Y124.524
N21820Y132.823
N21830G3X157.689Y133.323I-0.500J0.000
N21840G01X135.690
N21850X131.690
N21860X72.834
N21870X68.834
N21880X41.689
N21890G3X41.189Y132.823I0.000J-0.500
N21900G01Y118.152
N21910Y114.152
N21920Y86.869
N21930Y82.869
N21940Y71.823
N21950G01Z-0.850F30.0
N21960G3X41.689Y71.323I0.500J0.000F600.0
N21970G01X78.103
N21980X82.103
N21990X120.683
N22000X124.683
N22010X157.689
N22020G3X158.189Y71.823I0.000J0.500
N22030G01Y86.634
N22040Y90.634
N22050Y120.524
N22060Y124.524
N22070Y132.823
N22080G3X157.689Y133.323I-0.500J0.000
N22090G01X135.690
N22100X131.690
N22110X72.834
N22120X68.834
N22130X41.689
N22140G3X41.189Y132.823I0.000J-0.500
N22150G01Y118.152
N22160Y114.152
N22170Y86.869
N22180Y82.869
N22190Y71.823
N22200G01Z-0.900F30.0
N22210G3X41.689Y71.323I0.500J0.000F600.0
N22220G01X78.103
N22230X82.103
N22240X120.683
N22250X124.683
N22260X157.689
N22270G3X158.189Y71.823I0.000J0.500
N22280G01Y86.634
N22290Y90.634
N22300Y120.524
N22310Y124.524
N22320Y132.823
N22330G3X157.689Y133.323I-0.500J0.000
N22340G01X135.690
N22350X131.690
N22360X72.834
N22370X68.834
N22380X41.689
N22390G3X41.189Y132.823I0.000J-0.500
N22400G01Y118.152
N22410Y114.152
N22420Y86.869
N22430Y82.869
N22440Y71.823
N22450G01Z-0.950F30.0
N22460G3X41.689Y71.323I0.500J0.000F600.0
N22470G01X78.103
N22480X82.103
N22490X120.683
N22500X124.683
N22510X157.689
N22520G3X158.189Y71.823I0.000J0.500
N22530G01Y86.634
N22540Y90.634
N22550Y120.524
N22560Y124.524
N22570Y132.823
N22580G3X157.689Y133.323I-0.500J0.000
N22590G01X135.690
N22600X131.690
N22610X72.834
N22620X68.834
N22630X41.689
N22640G3X41.189Y132.823I0.000J-0.500
N22650G01Y118.152
N22660Y114.152
N22670Y86.869
N22680Y82.869
N22690Y71.823
N22700G01Z-1.000F30.0
N22710G3X41.689Y71.323I0.500J0.000F600.0
N22720G01X78.103
N22730X82.103
N22740X120.683
N22750X124.683
N22760X157.689
N22770G3X158.189Y71.823I0.000J0.500
N22780G01Y86.634
N22790Y90.634
N22800Y120.524
N22810Y124.524
N22820Y132.823
N22830G3X157.689Y133.323I-0.500J0.000
N22840G01X135.690
N22850X131.690
N22860X72.834
N22870X68.834
N22880X41.689
N22890G3X41.189Y132.823I0.000J-0.500
N22900G01Y118.152
N22910Y114.152
N22920Y86.869
N22930Y82.869
N22940Y71.823
N22950G01Z-1.050F30.0
N22960G3X41.689Y71.323I0.500J0.000F600.0
N22970G01X78.103
N22980X82.103
N22990X120.683
N23000X124.683
N23010X157.689
N23020G3X158.189Y71.823I0.000J0.500
N23030G01Y86.634
N23040Y90.634
N23050Y120.524
N23060Y124.524
N23070Y132.823
N23080G3X157.689Y133.323I-0.500J0.000
N23090G01X135.690
N23100X131.690
N23110X72.834
N23120X68.834
N23130X41.689
N23140G3X41.189Y132.823I0.000J-0.500
N23150G01Y118.152
N23160Y114.152
N23170Y86.869
N23180Y82.869
N23190Y71.823
N23200G01Z-1.100F30.0
N23210G3X41.689Y71.323I0.500J0.000F600.0
N23220G01X78.103
N23230X82.103
N23240X120.683
N23250X124.683
N23260X157.689
N23270G3X158.189Y71.823I0.000J0.500
N23280G01Y86.634
N23290Y90.634
N23300Y120.524
N23310Y124.524
N23320Y132.823
N23330G3X157.689Y133.323I-0.500J0.000
N23340G01X135.690
N23350X131.690
N23360X72.834
N23370X68.834
N23380X41.689
N23390G3X41.189Y132.823I0.000J-0.500
N23400G01Y118.152
N23410Y114.152
N23420Y86.869
N23430Y82.869
N23440Y71.823
N23450G01Z-1.150F30.0
N23460G3X41.689Y71.323I0.500J0.000F600.0
N23470G01X78.103
N23480X82.103
N23490X120.683
N23500X124.683
N23510X157.689
N23520G3X158.189Y71.823I0.000J0.500
N23530G01Y86.634
N23540Y90.634
N23550Y120.524
N23560Y124.524
N23570Y132.823
N23580G3X157.689Y133.323I-0.500J0.000
N23590G01X135.690
N23600X131.690
N23610X72.834
N23620X68.834
N23630X41.689
N23640G3X41.189Y132.823I0.000J-0.500
N23650G01Y118.152
N23660Y114.152
N23670Y86.869
N23680Y82.869
N23690Y71.823
N23700G01Z-1.200F30.0
N23710G3X41.689Y71.323I0.500J0.000F600.0
N23720G01X78.103
N23730X82.103
N23740X120.683
N23750X124.683
N23760X157.689
N23770G3X158.189Y71.823I0.000J0.500
N23780G01Y86.634
N23790Y90.634
N23800Y120.524
N23810Y124.524
N23820Y132.823
N23830G3X157.689Y133.323I-0.500J0.000
N23840G01X135.690
N23850X131.690
N23860X72.834
N23870X68.834
N23880X41.689
N23890G3X41.189Y132.823I0.000J-0.500
N23900G01Y118.152
N23910Y114.152
N23920Y86.869
N23930Y82.869
N23940Y71.823
N23950G01Z-1.250F30.0
N23960G3X41.689Y71.323I0.500J0.000F600.0
N23970G01X78.103
N23980X82.103
N23990X120.683
N24000X124.683
N24010X157.689
N24020G3X158.189Y71.823I0.000J0.500
N24030G01Y86.634
N24040Y90.634
N24050Y120.524
N24060Y124.524
N24070Y132.823
N24080G3X157.689Y133.323I-0.500J0.000
N24090G01X135.690
N24100X131.690
N24110X72.834
N24120X68.834
N24130X41.689
N24140G3X41.189Y132.823I0.000J-0.500
N24150G01Y118.152
N24160Y114.152
N24170Y86.869
N24180Y82.869
N24190Y71.823
N24200G01Z-1.300F30.0
N24210G3X41.689Y71.323I0.500J0.000F600.0
N24220G01X78.103
N24230X82.103
N24240X120.683
N24250X124.683
N24260X157.689
N24270G3X158.189Y71.823I0.000J0.500
N24280G01Y86.634
N24290Y90.634
N24300Y120.524
N24310Y124.524
N24320Y132.823
N24330G3X157.689Y133.323I-0.500J0.000
N24340G01X135.690
N24350X131.690
N24360X72.834
N24370X68.834
N24380X41.689
N24390G3X41.189Y132.823I0.000J-0.500
N24400G01Y118.152
N24410Y114.152
N24420Y86.869
N24430Y82.869
N24440Y71.823
N24450G01Z-1.350F30.0
N24460G3X41.689Y71.323I0.500J0.000F600.0
N24470G01X78.103
N24480X82.103
N24490X120.683
N24500X124.683
N24510X157.689
N24520G3X158.189Y71.823I0.000J0.500
N24530G01Y86.634
N24540Y90.634
N24550Y120.524
N24560Y124.524
N24570Y132.823
N24580G3X157.689Y133.323I-0.500J0.000
N24590G01X135.690
N24600X131.690
N24610X72.834
N24620X68.834
N24630X41.689
N24640G3X41.189Y132.823I0.000J-0.500
N24650G01Y118.152
N24660Y114.152
N24670Y86.869
N24680Y82.869
N24690Y71.823
N24700G01Z-1.400F30.0
N24710G3X41.689Y71.323I0.500J0.000F600.0
N24720G01X78.103
N24730X82.103
N24740X120.683
N24750X124.683
N24760X157.689
N24770G3X158.189Y71.823I0.000J0.500
N24780G01Y86.634
N24790Y90.634
N24800Y120.524
N24810Y124.524
N24820Y132.823
N24830G3X157.689Y133.323I-0.500J0.000
N24840G01X135.690
N24850X131.690
N24860X72.834
N24870X68.834
N24880X41.689
N24890G3X41.189Y132.823I0.000J-0.500
N24900G01Y118.152
N24910Y114.152
N24920Y86.869
N24930Y82.869
N24940Y71.823
N24950G01Z-1.450F30.0
N24960G3X41.689Y71.323I0.500J0.000F600.0
N24970G01X78.103
N24980X82.103
N24990X120.683
N25000X124.683
N25010X157.689
N25020G3X158.189Y71.823I0.000J0.500
N25030G01Y86.634
N25040Y90.634
N25050Y120.524
N25060Y124.524
N25070Y132.823
N25080G3X157.689Y133.323I-0.500J0.000
N25090G01X135.690
N25100X131.690
N25110X72.834
N25120X68.834
N25130X41.689
N25140G3X41.189Y132.823I0.000J-0.500
N25150G01Y118.152
N25160Y114.152
N25170Y86.869
N25180Y82.869
N25190Y71.823
N25200G01Z-1.500F30.0
N25210G3X41.689Y71.323I0.500J0.000F600.0
N25220G01X78.103
N25230X82.103
N25240X120.683
N25250X124.683
N25260X157.689
N25270G3X158.189Y71.823I0.000J0.500
N25280G01Y86.634
N25290Y90.634
N25300Y120.524
N25310Y124.524
N25320Y132.823
N25330G3X157.689Y133.323I-0.500J0.000
N25340G01X135.690
N25350X131.690
N25360X72.834
N25370X68.834
N25380X41.689
N25390G3X41.189Y132.823I0.000J-0.500
N25400G01Y118.152
N25410Y114.152
N25420Y86.869
N25430Y82.869
N25440Y71.823
N25450G01Z-1.550F30.0
N25460G3X41.689Y71.323I0.500J0.000F600.0
N25470G01X78.103
N25480X82.103
N25490X120.683
N25500X124.683
N25510X157.689
N25520G3X158.189Y71.823I0.000J0.500
N25530G01Y86.634
N25540Y90.634
N25550Y120.524
N25560Y124.524
N25570Y132.823
N25580G3X157.689Y133.323I-0.500J0.000
N25590G01X135.690
N25600X131.690
N25610X72.834
N25620X68.834
N25630X41.689
N25640G3X41.189Y132.823I0.000J-0.500
N25650G01Y118.152
N25660Y114.152
N25670Y86.869
N25680Y82.869
N25690Y71.823
N25700G01Z-1.600F30.0
N25710G3X41.689Y71.323I0.500J0.000F600.0
N25720G01X78.103
N25730X82.103
N25740X120.683
N25750X124.683
N25760X157.689
N25770G3X158.189Y71.823I0.000J0.500
N25780G01Y86.634
N25790Y90.634
N25800Y120.524
N25810Y124.524
N25820Y132.823
N25830G3X157.689Y133.323I-0.500J0.000
N25840G01X135.690
N25850X131.690
N25860X72.834
N25870X68.834
N25880X41.689
N25890G3X41.189Y132.823I0.000J-0.500
N25900G01Y118.152
N25910Y114.152
N25920Y86.869
N25930Y82.869
N25940Y71.823
N25950G01Z-1.650F30.0
N25960G3X41.689Y71.323I0.500J0.000F600.0
N25970G01X78.103
N25980X82.103
N25990X120.683
N26000X124.683
N26010X157.689
N26020G3X158.189Y71.823I0.000J0.500
N26030G01Y86.634
N26040Y90.634
N26050Y120.524
N26060Y124.524
N26070Y132.823
N26080G3X157.689Y133.323I-0.500J0.000
N26090G01X135.690
N26100X131.690
N26110X72.834
N26120X68.834
N26130X41.689
N26140G3X41.189Y132.823I0.000J-0.500
N26150G01Y118.152
N26160Y114.152
N26170Y86.869
N26180Y82.869
N26190Y71.823
N26200G01Z-1.700F30.0
N26210G3X41.689Y71.323I0.500J0.000F600.0
N26220G01X78.103
N26230X82.103
N26240X120.683
N26250X124.683
N26260X157.689
N26270G3X158.189Y71.823I0.000J0.500
N26280G01Y86.634
N26290Y90.634
N26300Y120.524
N26310Y124.524
N26320Y132.823
N26330G3X157.689Y133.323I-0.500J0.000
N26340G01X135.690
N26350X131.690
N26360X72.834
N26370X68.834
N26380X41.689
N26390G3X41.189Y132.823I0.000J-0.500
N26400G01Y118.152
N26410Y114.152
N26420Y86.869
N26430Y82.869
N26440Y71.823
N26450G01Z-1.750F30.0
N26460G3X41.689Y71.323I0.500J0.000F600.0
N26470G01X78.103
N26480X82.103
N26490X120.683
N26500X124.683
N26510X157.689
N26520G3X158.189Y71.823I0.000J0.500
N26530G01Y86.634
N26540Y90.634
N26550Y120.524
N26560Y124.524
N26570Y132.823
N26580G3X157.689Y133.323I-0.500J0.000
N26590G01X135.690
N26600X131.690
N26610X72.834
N26620X68.834
N26630X41.689
N26640G3X41.189Y132.823I0.000J-0.500
N26650G01Y118.152
N26660Y114.152
N26670Y86.869
N26680Y82.869
N26690Y71.823
N26700G01Z-1.800F30.0
N26710G3X41.689Y71.323I0.500J0.000F600.0
N26720G01X78.103
N26730X82.103
N26740X120.683
N26750X124.683
N26760X157.689
N26770G3X158.189Y71.823I0.000J0.500
N26780G01Y86.634
N26790Y90.634
N26800Y120.524
N26810Y124.524
N26820Y132.823
N26830G3X157.689Y133.323I-0.500J0.000
N26840G01X135.690
N26850X131.690
N26860X72.834
N26870X68.834
N26880X41.689
N26890G3X41.189Y132.823I0.000J-0.500
N26900G01Y118.152
N26910Y114.152
N26920Y86.869
N26930Y82.869
N26940Y71.823
N26950G01Z-1.850F30.0
N26960G3X41.689Y71.323I0.500J0.000F600.0
N26970G01X78.103
N26980X82.103
N26990X120.683
N27000X124.683
N27010X157.689
N27020G3X158.189Y71.823I0.000J0.500
N27030G01Y86.634
N27040Y90.634
N27050Y120.524
N27060Y124.524
N27070Y132.823
N27080G3X157.689Y133.323I-0.500J0.000
N27090G01X135.690
N27100X131.690
N27110X72.834
N27120X68.834
N27130X41.689
N27140G3X41.189Y132.823I0.000J-0.500
N27150G01Y118.152
N27160Y114.152
N27170Y86.869
N27180Y82.869
N27190Y71.823
N27200G01Z-1.900F30.0
N27210G3X41.689Y71.323I0.500J0.000F600.0
N27220G01X78.103
N27230X82.103
N27240X120.683
N27250X124.683
N27260X157.689
N27270G3X158.189Y71.823I0.000J0.500
N27280G01Y86.634
N27290Y90.634
N27300Y120.524
N27310Y124.524
N27320Y132.823
N27330G3X157.689Y133.323I-0.500J0.000
N27340G01X135.690
N27350X131.690
N27360X72.834
N27370X68.834
N27380X41.689
N27390G3X41.189Y132.823I0.000J-0.500
N27400G01Y118.152
N27410Y114.152
N27420Y86.869
N27430Y82.869
N27440Y71.823
N27450G01Z-1.950F30.0
N27460G3X41.689Y71.323I0.500J0.000F600.0
N27470G01X78.103
N27480X82.103
N27490X120.683
N27500X124.683
N27510X157.689
N27520G3X158.189Y71.823I0.000J0.500
N27530G01Y86.634
N27540Y90.634
N27550Y120.524
N27560Y124.524
N27570Y132.823
N27580G3X157.689Y133.323I-0.500J0.000
N27590G01X135.690
N27600X131.690
N27610X72.834
N27620X68.834
N27630X41.689
N27640G3X41.189Y132.823I0.000J-0.500
N27650G01Y118.152
N27660Y114.152
N27670Y86.869
N27680Y82.869
N27690Y71.823
N27700G01Z-2.000F30.0
N27710G3X41.689Y71.323I0.500J0.000F600.0
N27720G01X78.103
N27730X82.103
N27740X120.683
N27750X124.683
N27760X157.689
N27770G3X158.189Y71.823I0.000J0.500
N27780G01Y86.634
N27790Y90.634
N27800Y120.524
N27810Y124.524
N27820Y132.823
N27830G3X157.689Y133.323I-0.500J0.000
N27840G01X135.690
N27850X131.690
N27860X72.834
N27870X68.834
N27880X41.689
N27890G3X41.189Y132.823I0.000J-0.500
N27900G01Y118.152
N27910Y114.152
N27920Y86.869
N27930Y82.869
N27940Y71.823
N27950G01Z-2.050F30.0
N27960G3X41.689Y71.323I0.500J0.000F600.0
N27970G01X78.103
N27980X82.103
N27990X120.683
N28000X124.683
N28010X157.689
N28020G3X158.189Y71.823I0.000J0.500
N28030G01Y86.634
N28040Y90.634
N28050Y120.524
N28060Y124.524
N28070Y132.823
N28080G3X157.689Y133.323I-0.500J0.000
N28090G01X135.690
N28100X131.690
N28110X72.834
N28120X68.834
N28130X41.689
N28140G3X41.189Y132.823I0.000J-0.500
N28150G01Y118.152
N28160Y114.152
N28170Y86.869
N28180Y82.869
N28190Y71.823
N28200G01Z-2.100F30.0
N28210G3X41.689Y71.323I0.500J0.000F600.0
N28220G01X78.103
N28230X82.103
N28240X120.683
N28250X124.683
N28260X157.689
N28270G3X158.189Y71.823I0.000J0.500
N28280G01Y86.634
N28290Y90.634
N28300Y120.524
N28310Y124.524
N28320Y132.823
N28330G3X157.689Y133.323I-0.500J0.000
N28340G01X135.690
N28350X131.690
N28360X72.834
N28370X68.834
N28380X41.689
N28390G3X41.189Y132.823I0.000J-0.500
N28400G01Y118.152
N28410Y114.152
N28420Y86.869
N28430Y82.869
N28440Y71.823
N28450G01Z-2.150F30.0
N28460G3X41.689Y71.323I0.500J0.000F600.0
N28470G01X78.103
N28480X82.103
N28490X120.683
N28500X124.683
N28510X157.689
N28520G3X158.189Y71.823I0.000J0.500
N28530G01Y86.634
N28540Y90.634
N28550Y120.524
N28560Y124.524
N28570Y132.823
N28580G3X157.689Y133.323I-0.500J0.000
N28590G01X135.690
N28600X131.690
N28610X72.834
N28620X68.834
N28630X41.689
N28640G3X41.189Y132.823I0.000J-0.500
N28650G01Y118.152
N28660Y114.152
N28670Y86.869
N28680Y82.869
N28690Y71.823
N28700G01Z-2.200F30.0
N28710G3X41.689Y71.323I0.500J0.000F600.0
N28720G01X78.103
N28730X82.103
N28740X120.683
N28750X124.683
N28760X157.689
N28770G3X158.189Y71.823I0.000J0.500
N28780G01Y86.634
N28790Y90.634
N28800Y120.524
N28810Y124.524
N28820Y132.823
N28830G3X157.689Y133.323I-0.500J0.000
N28840G01X135.690
N28850X131.690
N28860X72.834
N28870X68.834
N28880X41.689
N28890G3X41.189Y132.823I0.000J-0.500
N28900G01Y118.152
N28910Y114.152
N28920Y86.869
N28930Y82.869
N28940Y71.823
N28950G01Z-2.250F30.0
N28960G3X41.689Y71.323I0.500J0.000F600.0
N28970G01X78.103
N28980X82.103
N28990X120.683
N29000X124.683
N29010X157.689
N29020G3X158.189Y71.823I0.000J0.500
N29030G01Y86.634
N29040Y90.634
N29050Y120.524
N29060Y124.524
N29070Y132.823
N29080G3X157.689Y133.323I-0.500J0.000
N29090G01X135.690
N29100X131.690
N29110X72.834
N29120X68.834
N29130X41.689
N29140G3X41.189Y132.823I0.000J-0.500
N29150G01Y118.152
N29160Y114.152
N29170Y86.869
N29180Y82.869
N29190Y71.823
N29200G01Z-2.300F30.0
N29210G3X41.689Y71.323I0.500J0.000F600.0
N29220G01X78.103
N29230X82.103
N29240X120.683
N29250X124.683
N29260X157.689
N29270G3X158.189Y71.823I0.000J0.500
N29280G01Y86.634
N29290Y90.634
N29300Y120.524
N29310Y124.524
N29320Y132.823
N29330G3X157.689Y133.323I-0.500J0.000
N29340G01X135.690
N29350X131.690
N29360X72.834
N29370X68.834
N29380X41.689
N29390G3X41.189Y132.823I0.000J-0.500
N29400G01Y118.152
N29410Y114.152
N29420Y86.869
N29430Y82.869
N29440Y71.823
N29450G01Z-2.350F30.0
N29460G3X41.689Y71.323I0.500J0.000F600.0
N29470G01X78.103
N29480X82.103
N29490X120.683
N29500X124.683
N29510X157.689
N29520G3X158.189Y71.823I0.000J0.500
N29530G01Y86.634
N29540Y90.634
N29550Y120.524
N29560Y124.524
N29570Y132.823
N29580G3X157.689Y133.323I-0.500J0.000
N29590G01X135.690
N29600X131.690
N29610X72.834
N29620X68.834
N29630X41.689
N29640G3X41.189Y132.823I0.000J-0.500
N29650G01Y118.152
N29660Y114.152
N29670Y86.869
N29680Y82.869
N29690Y71.823
N29700G01Z-2.400F30.0
N29710G3X41.689Y71.323I0.500J0.000F600.0
N29720G01X78.103
N29730X82.103
N29740X120.683
N29750X124.683
N29760X157.689
N29770G3X158.189Y71.823I0.000J0.500
N29780G01Y86.634
N29790Y90.634
N29800Y120.524
N29810Y124.524
N29820Y132.823
N29830G3X157.689Y133.323I-0.500J0.000
N29840G01X135.690
N29850X131.690
N29860X72.834
N29870X68.834
N29880X41.689
N29890G3X41.189Y132.823I0.000J-0.500
N29900G01Y118.152
N29910Y114.152
N29920Y86.869
N29930Y82.869
N29940Y71.823
N29950G01Z-2.450F30.0
N29960G3X41.689Y71.323I0.500J0.000F600.0
N29970G01X78.103
N29980X82.103
N29990X120.683
N30000X124.683
N30010X157.689
N30020G3X158.189Y71.823I0.000J0.500
N30030G01Y86.634
N30040Y90.634
N30050Y120.524
N30060Y124.524
N30070Y132.823
N30080G3X157.689Y133.323I-0.500J0.000
N30090G01X135.690
N30100X131.690
N30110X72.834
N30120X68.834
N30130X41.689
N30140G3X41.189Y132.823I0.000J-0.500
N30150G01Y118.152
N30160Y114.152
N30170Y86.869
N30180Y82.869
N30190Y71.823
N30200G01Z-2.500F30.0
N30210G3X41.689Y71.323I0.500J0.000F600.0
N30220G01X78.103
N30230X82.103
N30240X120.683
N30250X124.683
N30260X157.689
N30270G3X158.189Y71.823I0.000J0.500
N30280G01Y86.634
N30290Y90.634
N30300Y120.524
N30310Y124.524
N30320Y132.823
N30330G3X157.689Y133.323I-0.500J0.000
N30340G01X135.690
N30350X131.690
N30360X72.834
N30370X68.834
N30380X41.689
N30390G3X41.189Y132.823I0.000J-0.500
N30400G01Y118.152
N30410Y114.152
N30420Y86.869
N30430Y82.869
N30440Y71.823
N30450G01Z-2.550F30.0
N30460G3X41.689Y71.323I0.500J0.000F600.0
N30470G01X78.103
N30480X82.103
N30490X120.683
N30500X124.683
N30510X157.689
N30520G3X158.189Y71.823I0.000J0.500
N30530G01Y86.634
N30540Y90.634
N30550Y120.524
N30560Y124.524
N30570Y132.823
N30580G3X157.689Y133.323I-0.500J0.000
N30590G01X135.690
N30600X131.690
N30610X72.834
N30620X68.834
N30630X41.689
N30640G3X41.189Y132.823I0.000J-0.500
N30650G01Y118.152
N30660Y114.152
N30670Y86.869
N30680Y82.869
N30690Y71.823
N30700G01Z-2.600F30.0
N30710G3X41.689Y71.323I0.500J0.000F600.0
N30720G01X78.103
N30730X82.103
N30740X120.683
N30750X124.683
N30760X157.689
N30770G3X158.189Y71.823I0.000J0.500
N30780G01Y86.634
N30790Y90.634
N30800Y120.524
N30810Y124.524
N30820Y132.823
N30830G3X157.689Y133.323I-0.500J0.000
N30840G01X135.690
N30850X131.690
N30860X72.834
N30870X68.834
N30880X41.689
N30890G3X41.189Y132.823I0.000J-0.500
N30900G01Y118.152
N30910Y114.152
N30920Y86.869
N30930Y82.869
N30940Y71.823
N30950G01Z-2.650F30.0
N30960G3X41.689Y71.323I0.500J0.000F600.0
N30970G01X78.103
N30980X82.103
N30990X120.683
N31000X124.683
N31010X157.689
N31020G3X158.189Y71.823I0.000J0.500
N31030G01Y86.634
N31040Y90.634
N31050Y120.524
N31060Y124.524
N31070Y132.823
N31080G3X157.689Y133.323I-0.500J0.000
N31090G01X135.690
N31100X131.690
N31110X72.834
N31120X68.834
N31130X41.689
N31140G3X41.189Y132.823I0.000J-0.500
N31150G01Y118.152
N31160Y114.152
N31170Y86.869
N31180Y82.869
N31190Y71.823
N31200G01Z-2.700F30.0
N31210G3X41.689Y71.323I0.500J0.000F600.0
N31220G01X78.103
N31230X82.103
N31240X120.683
N31250X124.683
N31260X157.689
N31270G3X158.189Y71.823I0.000J0.500
N31280G01Y86.634
N31290Y90.634
N31300Y120.524
N31310Y124.524
N31320Y132.823
N31330G3X157.689Y133.323I-0.500J0.000
N31340G01X135.690
N31350X131.690
N31360X72.834
N31370X68.834
N31380X41.689
N31390G3X41.189Y132.823I0.000J-0.500
N31400G01Y118.152
N31410Y114.152
N31420Y86.869
N31430Y82.869
N31440Y71.823
N31450G01Z-2.750F30.0
N31460G3X41.689Y71.323I0.500J0.000F600.0
N31470G01X78.103
N31480X82.103
N31490X120.683
N31500X124.683
N31510X157.689
N31520G3X158.189Y71.823I0.000J0.500
N31530G01Y86.634
N31540Y90.634
N31550Y120.524
N31560Y124.524
N31570Y132.823
N31580G3X157.689Y133.323I-0.500J0.000
N31590G01X135.690
N31600X131.690
N31610X72.834
N31620X68.834
N31630X41.689
N31640G3X41.189Y132.823I0.000J-0.500
N31650G01Y118.152
N31660Y114.152
N31670Y86.869
N31680Y82.869
N31690Y71.823
N31700G01Z-2.800F30.0
N31710G3X41.689Y71.323I0.500J0.000F600.0
N31720G01X78.103
N31730X82.103
N31740X120.683
N31750X124.683
N31760X157.689
N31770G3X158.189Y71.823I0.000J0.500
N31780G01Y86.634
N31790Y90.634
N31800Y120.524
N31810Y124.524
N31820Y132.823
N31830G3X157.689Y133.323I-0.500J0.000
N31840G01X135.690
N31850X131.690
N31860X72.834
N31870X68.834
N31880X41.689
N31890G3X41.189Y132.823I0.000J-0.500
N31900G01Y118.152
N31910Y114.152
N31920Y86.869
N31930Y82.869
N31940Y71.823
N31950G01Z-2.850F30.0
N31960G3X41.689Y71.323I0.500J0.000F600.0
N31970G01X78.103
N31980Z-2.800
N31990X82.103
N32000G01Z-2.850F30.0
N32010G01X120.683F600.0
N32020Z-2.800
N32030X124.683
N32040G01Z-2.850F30.0
N32050G01X157.689F600.0
N32060G3X158.189Y71.823I0.000J0.500
N32070G01Y86.634
N32080Z-2.800
N32090Y90.634
N32100G01Z-2.850F30.0
N32110G01Y120.524F600.0
N32120Z-2.800
N32130Y124.524
N32140G01Z-2.850F30.0
N32150G01Y132.823F600.0
N32160G3X157.689Y133.323I-0.500J0.000
N32170G01X135.690
N32180Z-2.800
N32190X131.690
N32200G01Z-2.850F30.0
N32210G01X72.834F600.0
N32220Z-2.800
N32230X68.834
N32240G01Z-2.850F30.0
N32250G01X41.689F600.0
N32260G3X41.189Y132.823I0.000J-0.500
N32270G01Y118.152
N32280Z-2.800
N32290Y114.152
N32300G01Z-2.850F30.0
N32310G01Y86.869F600.0
N32320Z-2.800
N32330Y82.869
N32340G01Z-2.850F30.0
N32350G01Y71.823F600.0
N32360G01Z-2.900F30.0
N32370G3X41.689Y71.323I0.500J0.000F600.0
N32380G01X78.103
N32390Z-2.800
N32400X82.103
N32410G01Z-2.900F30.0
N32420G01X120.683F600.0
N32430Z-2.800
N32440X124.683
N32450G01Z-2.900F30.0
N32460G01X157.689F600.0
N32470G3X158.189Y71.823I0.000J0.500
N32480G01Y86.634
N32490Z-2.800
N32500Y90.634
N32510G01Z-2.900F30.0
N32520G01Y120.524F600.0
N32530Z-2.800
N32540Y124.524
N32550G01Z-2.900F30.0
N32560G01Y132.823F600.0
N32570G3X157.689Y133.323I-0.500J0.000
N32580G01X135.690
N32590Z-2.800
N32600X131.690
N32610G01Z-2.900F30.0
N32620G01X72.834F600.0
N32630Z-2.800
N32640X68.834
N32650G01Z-2.900F30.0
N32660G01X41.689F600.0
N32670G3X41.189Y132.823I0.000J-0.500
N32680G01Y118.152
N32690Z-2.800
N32700Y114.152
N32710G01Z-2.900F30.0
N32720G01Y86.869F600.0
N32730Z-2.800
N32740Y82.869
N32750G01Z-2.900F30.0
N32760G01Y71.823F600.0
N32770G01Z-2.950F30.0
N32780G3X41.689Y71.323I0.500J0.000F600.0
N32790G01X78.103
N32800Z-2.800
N32810X82.103
N32820G01Z-2.950F30.0
N32830G01X120.683F600.0
N32840Z-2.800
N32850X124.683
N32860G01Z-2.950F30.0
N32870G01X157.689F600.0
N32880G3X158.189Y71.823I0.000J0.500
N32890G01Y86.634
N32900Z-2.800
N32910Y90.634
N32920G01Z-2.950F30.0
N32930G01Y120.524F600.0
N32940Z-2.800
N32950Y124.524
N32960G01Z-2.950F30.0
N32970G01Y132.823F600.0
N32980G3X157.689Y133.323I-0.500J0.000
N32990G01X135.690
N33000Z-2.800
N33010X131.690
N33020G01Z-2.950F30.0
N33030G01X72.834F600.0
N33040Z-2.800
N33050X68.834
N33060G01Z-2.950F30.0
N33070G01X41.689F600.0
N33080G3X41.189Y132.823I0.000J-0.500
N33090G01Y118.152
N33100Z-2.800
N33110Y114.152
N33120G01Z-2.950F30.0
N33130G01Y86.869F600.0
N33140Z-2.800
N33150Y82.869
N33160G01Z-2.950F30.0
N33170G01Y71.823F600.0
N33180G01Z-3.000F30.0
N33190G3X41.689Y71.323I0.500J0.000F600.0
N33200G01X78.103
N33210Z-2.800
N33220X82.103
N33230G01Z-3.000F30.0
N33240G01X120.683F600.0
N33250Z-2.800
N33260X124.683
N33270G01Z-3.000F30.0
N33280G01X157.689F600.0
N33290G3X158.189Y71.823I0.000J0.500
N33300G01Y86.634
N33310Z-2.800
N33320Y90.634
N33330G01Z-3.000F30.0
N33340G01Y120.524F600.0
N33350Z-2.800
N33360Y124.524
N33370G01Z-3.000F30.0
N33380G01Y132.823F600.0
N33390G3X157.689Y133.323I-0.500J0.000
N33400G01X135.690
N33410Z-2.800
N33420X131.690
N33430G01Z-3.000F30.0
N33440G01X72.834F600.0
N33450Z-2.800
N33460X68.834
N33470G01Z-3.000F30.0
N33480G01X41.689F600.0
N33490G3X41.189Y132.823I0.000J-0.500
N33500G01Y118.152
N33510Z-2.800
N33520Y114.152
N33530G01Z-3.000F30.0
N33540G01Y86.869F600.0
N33550Z-2.800
N33560Y82.869
N33570G01Z-3.000F30.0
N33580G01Y71.823F600.0
N33590G00Z6.000
N33600G00X21.839Y102.323
N33610G01Z-0.050F30.0
N33620G3X20.689Y103.473I-1.150J0.000F600.0
N33630G3X19.539Y102.323I0.000J-1.150
N33640G3X20.689Y101.173I1.150J0.000
N33650G3X21.839Y102.323I0.000J1.150
N33660G01Z-0.100F30.0
N33670G3X20.689Y103.473I-1.150J0.000F600.0
N33680G3X19.539Y102.323I0.000J-1.150
N33690G3X20.689Y101.173I1.150J0.000
N33700G3X21.839Y102.323I0.000J1.150
N33710G01Z-0.150F30.0
N33720G3X20.689Y103.473I-1.150J0.000F600.0
N33730G3X19.539Y102.323I0.000J-1.150
N33740G3X20.689Y101.173I1.150J0.000
N33750G3X21.839Y102.323I0.000J1.150
N33760G01Z-0.200F30.0
N33770G3X20.689Y103.473I-1.150J0.000F600.0
N33780G3X19.539Y102.323I0.000J-1.150
N33790G3X20.689Y101.173I1.150J0.000
N33800G3X21.839Y102.323I0.000J1.150
N33810G01Z-0.250F30.0
N33820G3X20.689Y103.473I-1.150J0.000F600.0
N33830G3X19.539Y102.323I0.000J-1.150
N33840G3X20.689Y101.173I1.150J0.000
N33850G3X21.839Y102.323I0.000J1.150
N33860G01Z-0.300F30.0
N33870G3X20.689Y103.473I-1.150J0.000F600.0
N33880G3X19.539Y102.323I0.000J-1.150
N33890G3X20.689Y101.173I1.150J0.000
N33900G3X21.839Y102.323I0.000J1.150
N33910G01Z-0.350F30.0
N33920G3X20.689Y103.473I-1.150J0.000F600.0
N33930G3X19.539Y102.323I0.000J-1.150
N33940G3X20.689Y101.173I1.150J0.000
N33950G3X21.839Y102.323I0.000J1.150
N33960G01Z-0.400F30.0
N33970G3X20.689Y103.473I-1.150J0.000F600.0
N33980G3X19.539Y102.323I0.000J-1.150
N33990G3X20.689Y101.173I1.150J0.000
N34000G3X21.839Y102.323I0.000J1.150
N34010G01Z-0.450F30.0
N34020G3X20.689Y103.473I-1.150J0.000F600.0
N34030G3X19.539Y102.323I0.000J-1.150
N34040G3X20.689Y101.173I1.150J0.000
N34050G3X21.839Y102.323I0.000J1.150
N34060G01Z-0.500F30.0
N34070G3X20.689Y103.473I-1.150J0.000F600.0
N34080G3X19.539Y102.323I0.000J-1.150
N34090G3X20.689Y101.173I1.150J0.000
N34100G3X21.839Y102.323I0.000J1.150
N34110G01Z-0.550F30.0
N34120G3X20.689Y103.473I-1.150J0.000F600.0
N34130G3X19.539Y102.323I0.000J-1.150
N34140G3X20.689Y101.173I1.150J0.000
N34150G3X21.839Y102.323I0.000J1.150
N34160G01Z-0.600F30.0
N34170G3X20.689Y103.473I-1.150J0.000F600.0
N34180G3X19.539Y102.323I0.000J-1.150
N34190G3X20.689Y101.173I1.150J0.000
N34200G3X21.839Y102.323I0.000J1.150
N34210G01Z-0.650F30.0
N34220G3X20.689Y103.473I-1.150J0.000F600.0
N34230G3X19.539Y102.323I0.000J-1.150
N34240G3X20.689Y101.173I1.150J0.000
N34250G3X21.839Y102.323I0.000J1.150
N34260G01Z-0.700F30.0
N34270G3X20.689Y103.473I-1.150J0.000F600.0
N34280G3X19.539Y102.323I0.000J-1.150
N34290G3X20.689Y101.173I1.150J0.000
N34300G3X21.839Y102.323I0.000J1.150
N34310G01Z-0.750F30.0
N34320G3X20.689Y103.473I-1.150J0.000F600.0
N34330G3X19.539Y102.323I0.000J-1.150
N34340G3X20.689Y101.173I1.150J0.000
N34350G3X21.839Y102.323I0.000J1.150
N34360G01Z-0.800F30.0
N34370G3X20.689Y103.473I-1.150J0.000F600.0
N34380G3X19.539Y102.323I0.000J-1.150
N34390G3X20.689Y101.173I1.150J0.000
N34400G3X21.839Y102.323I0.000J1.150
N34410G01Z-0.850F30.0
N34420G3X20.689Y103.473I-1.150J0.000F600.0
N34430G3X19.539Y102.323I0.000J-1.150
N34440G3X20.689Y101.173I1.150J0.000
N34450G3X21.839Y102.323I0.000J1.150
N34460G01Z-0.900F30.0
N34470G3X20.689Y103.473I-1.150J0.000F600.0
N34480G3X19.539Y102.323I0.000J-1.150
N34490G3X20.689Y101.173I1.150J0.000
N34500G3X21.839Y102.323I0.000J1.150
N34510G01Z-0.950F30.0
N34520G3X20.689Y103.473I-1.150J0.000F600.0
N34530G3X19.539Y102.323I0.000J-1.150
N34540G3X20.689Y101.173I1.150J0.000
N34550G3X21.839Y102.323I0.000J1.150
N34560G01Z-1.000F30.0
N34570G3X20.689Y103.473I-1.150J0.000F600.0
N34580G3X19.539Y102.323I0.000J-1.150
N34590G3X20.689Y101.173I1.150J0.000
N34600G3X21.839Y102.323I0.000J1.150
N34610G01Z-1.050F30.0
N34620G3X20.689Y103.473I-1.150J0.000F600.0
N34630G3X19.539Y102.323I0.000J-1.150
N34640G3X20.689Y101.173I1.150J0.000
N34650G3X21.839Y102.323I0.000J1.150
N34660G01Z-1.100F30.0
N34670G3X20.689Y103.473I-1.150J0.000F600.0
N34680G3X19.539Y102.323I0.000J-1.150
N34690G3X20.689Y101.173I1.150J0.000
N34700G3X21.839Y102.323I0.000J1.150
N34710G01Z-1.150F30.0
N34720G3X20.689Y103.473I-1.150J0.000F600.0
N34730G3X19.539Y102.323I0.000J-1.150
N34740G3X20.689Y101.173I1.150J0.000
N34750G3X21.839Y102.323I0.000J1.150
N34760G01Z-1.200F30.0
N34770G3X20.689Y103.473I-1.150J0.000F600.0
N34780G3X19.539Y102.323I0.000J-1.150
N34790G3X20.689Y101.173I1.150J0.000
N34800G3X21.839Y102.323I0.000J1.150
N34810G01Z-1.250F30.0
N34820G3X20.689Y103.473I-1.150J0.000F600.0
N34830G3X19.539Y102.323I0.000J-1.150
N34840G3X20.689Y101.173I1.150J0.000
N34850G3X21.839Y102.323I0.000J1.150
N34860G01Z-1.300F30.0
N34870G3X20.689Y103.473I-1.150J0.000F600.0
N34880G3X19.539Y102.323I0.000J-1.150
N34890G3X20.689Y101.173I1.150J0.000
N34900G3X21.839Y102.323I0.000J1.150
N34910G01Z-1.350F30.0
N34920G3X20.689Y103.473I-1.150J0.000F600.0
N34930G3X19.539Y102.323I0.000J-1.150
N34940G3X20.689Y101.173I1.150J0.000
N34950G3X21.839Y102.323I0.000J1.150
N34960G01Z-1.400F30.0
N34970G3X20.689Y103.473I-1.150J0.000F600.0
N34980G3X19.539Y102.323I0.000J-1.150
N34990G3X20.689Y101.173I1.150J0.000
N35000G3X21.839Y102.323I0.000J1.150
N35010G01Z-1.450F30.0
N35020G3X20.689Y103.473I-1.150J0.000F600.0
N35030G3X19.539Y102.323I0.000J-1.150
N35040G3X20.689Y101.173I1.150J0.000
N35050G3X21.839Y102.323I0.000J1.150
N35060G01Z-1.500F30.0
N35070G3X20.689Y103.473I-1.150J0.000F600.0
N35080G3X19.539Y102.323I0.000J-1.150
N35090G3X20.689Y101.173I1.150J0.000
N35100G3X21.839Y102.323I0.000J1.150
N35110G01Z-1.550F30.0
N35120G3X20.689Y103.473I-1.150J0.000F600.0
N35130G3X19.539Y102.323I0.000J-1.150
N35140G3X20.689Y101.173I1.150J0.000
N35150G3X21.839Y102.323I0.000J1.150
N35160G01Z-1.600F30.0
N35170G3X20.689Y103.473I-1.150J0.000F600.0
N35180G3X19.539Y102.323I0.000J-1.150
N35190G3X20.689Y101.173I1.150J0.000
N35200G3X21.839Y102.323I0.000J1.150
N35210G01Z-1.650F30.0
N35220G3X20.689Y103.473I-1.150J0.000F600.0
N35230G3X19.539Y102.323I0.000J-1.150
N35240G3X20.689Y101.173I1.150J0.000
N35250G3X21.839Y102.323I0.000J1.150
N35260G01Z-1.700F30.0
N35270G3X20.689Y103.473I-1.150J0.000F600.0
N35280G3X19.539Y102.323I0.000J-1.150
N35290G3X20.689Y101.173I1.150J0.000
N35300G3X21.839Y102.323I0.000J1.150
N35310G01Z-1.750F30.0
N35320G3X20.689Y103.473I-1.150J0.000F600.0
N35330G3X19.539Y102.323I0.000J-1.150
N35340G3X20.689Y101.173I1.150J0.000
N35350G3X21.839Y102.323I0.000J1.150
N35360G01Z-1.800F30.0
N35370G3X20.689Y103.473I-1.150J0.000F600.0
N35380G3X19.539Y102.323I0.000J-1.150
N35390G3X20.689Y101.173I1.150J0.000
N35400G3X21.839Y102.323I0.000J1.150
N35410G01Z-1.850F30.0
N35420G3X20.689Y103.473I-1.150J0.000F600.0
N35430G3X19.539Y102.323I0.000J-1.150
N35440G3X20.689Y101.173I1.150J0.000
N35450G3X21.839Y102.323I0.000J1.150
N35460G01Z-1.900F30.0
N35470G3X20.689Y103.473I-1.150J0.000F600.0
N35480G3X19.539Y102.323I0.000J-1.150
N35490G3X20.689Y101.173I1.150J0.000
N35500G3X21.839Y102.323I0.000J1.150
N35510G01Z-1.950F30.0
N35520G3X20.689Y103.473I-1.150J0.000F600.0
N35530G3X19.539Y102.323I0.000J-1.150
N35540G3X20.689Y101.173I1.150J0.000
N35550G3X21.839Y102.323I0.000J1.150
N35560G01Z-2.000F30.0
N35570G3X20.689Y103.473I-1.150J0.000F600.0
N35580G3X19.539Y102.323I0.000J-1.150
N35590G3X20.689Y101.173I1.150J0.000
N35600G3X21.839Y102.323I0.000J1.150
N35610G01Z-2.050F30.0
N35620G3X20.689Y103.473I-1.150J0.000F600.0
N35630G3X19.539Y102.323I0.000J-1.150
N35640G3X20.689Y101.173I1.150J0.000
N35650G3X21.839Y102.323I0.000J1.150
N35660G01Z-2.100F30.0
N35670G3X20.689Y103.473I-1.150J0.000F600.0
N35680G3X19.539Y102.323I0.000J-1.150
N35690G3X20.689Y101.173I1.150J0.000
N35700G3X21.839Y102.323I0.000J1.150
N35710G01Z-2.150F30.0
N35720G3X20.689Y103.473I-1.150J0.000F600.0
N35730G3X19.539Y102.323I0.000J-1.150
N35740G3X20.689Y101.173I1.150J0.000
N35750G3X21.839Y102.323I0.000J1.150
N35760G01Z-2.200F30.0
N35770G3X20.689Y103.473I-1.150J0.000F600.0
N35780G3X19.539Y102.323I0.000J-1.150
N35790G3X20.689Y101.173I1.150J0.000
N35800G3X21.839Y102.323I0.000J1.150
N35810G01Z-2.250F30.0
N35820G3X20.689Y103.473I-1.150J0.000F600.0
N35830G3X19.539Y102.323I0.000J-1.150
N35840G3X20.689Y101.173I1.150J0.000
N35850G3X21.839Y102.323I0.000J1.150
N35860G01Z-2.300F30.0
N35870G3X20.689Y103.473I-1.150J0.000F600.0
N35880G3X19.539Y102.323I0.000J-1.150
N35890G3X20.689Y101.173I1.150J0.000
N35900G3X21.839Y102.323I0.000J1.150
N35910G01Z-2.350F30.0
N35920G3X20.689Y103.473I-1.150J0.000F600.0
N35930G3X19.539Y102.323I0.000J-1.150
N35940G3X20.689Y101.173I1.150J0.000
N35950G3X21.839Y102.323I0.000J1.150
N35960G01Z-2.400F30.0
N35970G3X20.689Y103.473I-1.150J0.000F600.0
N35980G3X19.539Y102.323I0.000J-1.150
N35990G3X20.689Y101.173I1.150J0.000
N36000G3X21.839Y102.323I0.000J1.150
N36010G01Z-2.450F30.0
N36020G3X20.689Y103.473I-1.150J0.000F600.0
N36030G3X19.539Y102.323I0.000J-1.150
N36040G3X20.689Y101.173I1.150J0.000
N36050G3X21.839Y102.323I0.000J1.150
N36060G01Z-2.500F30.0
N36070G3X20.689Y103.473I-1.150J0.000F600.0
N36080G3X19.539Y102.323I0.000J-1.150
N36090G3X20.689Y101.173I1.150J0.000
N36100G3X21.839Y102.323I0.000J1.150
N36110G01Z-2.550F30.0
N36120G3X20.689Y103.473I-1.150J0.000F600.0
N36130G3X19.539Y102.323I0.000J-1.150
N36140G3X20.689Y101.173I1.150J0.000
N36150G3X21.839Y102.323I0.000J1.150
N36160G01Z-2.600F30.0
N36170G3X20.689Y103.473I-1.150J0.000F600.0
N36180G3X19.539Y102.323I0.000J-1.150
N36190G3X20.689Y101.173I1.150J0.000
N36200G3X21.839Y102.323I0.000J1.150
N36210G01Z-2.650F30.0
N36220G3X20.689Y103.473I-1.150J0.000F600.0
N36230G3X19.539Y102.323I0.000J-1.150
N36240G3X20.689Y101.173I1.150J0.000
N36250G3X21.839Y102.323I0.000J1.150
N36260G01Z-2.700F30.0
N36270G3X20.689Y103.473I-1.150J0.000F600.0
N36280G3X19.539Y102.323I0.000J-1.150
N36290G3X20.689Y101.173I1.150J0.000
N36300G3X21.839Y102.323I0.000J1.150
N36310G01Z-2.750F30.0
N36320G3X20.689Y103.473I-1.150J0.000F600.0
N36330G3X19.539Y102.323I0.000J-1.150
N36340G3X20.689Y101.173I1.150J0.000
N36350G3X21.839Y102.323I0.000J1.150
N36360G01Z-2.800F30.0
N36370G3X20.689Y103.473I-1.150J0.000F600.0
N36380G3X19.539Y102.323I0.000J-1.150
N36390G3X20.689Y101.173I1.150J0.000
N36400G3X21.839Y102.323I0.000J1.150
N36410G01Z-2.850F30.0
N36420G3X20.689Y103.473I-1.150J0.000F600.0
N36430G3X19.539Y102.323I0.000J-1.150
N36440G3X20.689Y101.173I1.150J0.000
N36450G3X21.839Y102.323I0.000J1.150
N36460G01Z-2.900F30.0
N36470G3X20.689Y103.473I-1.150J0.000F600.0
N36480G3X19.539Y102.323I0.000J-1.150
N36490G3X20.689Y101.173I1.150J0.000
N36500G3X21.839Y102.323I0.000J1.150
N36510G01Z-2.950F30.0
N36520G3X20.689Y103.473I-1.150J0.000F600.0
N36530G3X19.539Y102.323I0.000J-1.150
N36540G3X20.689Y101.173I1.150J0.000
N36550G3X21.839Y102.323I0.000J1.150
N36560G01Z-3.000F30.0
N36570G3X20.689Y103.473I-1.150J0.000F600.0
N36580G3X19.539Y102.323I0.000J-1.150
N36590G3X20.689Y101.173I1.150J0.000
N36600G3X21.839Y102.323I0.000J1.150
N36610G00Z6.000
N36620G00X47.339Y157.323
N36630G01Z-0.050F30.0
N36640G01X47.189Y157.473F600.0
N36650X47.039Y157.323
N36660X47.189Y157.173
N36670X47.339Y157.323
N36680G01Z-0.100F30.0
N36690G01X47.189Y157.473F600.0
N36700X47.039Y157.323
N36710X47.189Y157.173
N36720X47.339Y157.323
N36730G01Z-0.150F30.0
N36740G01X47.189Y157.473F600.0
N36750X47.039Y157.323
N36760X47.189Y157.173
N36770X47.339Y157.323
N36780G01Z-0.200F30.0
N36790G01X47.189Y157.473F600.0
N36800X47.039Y157.323
N36810X47.189Y157.173
N36820X47.339Y157.323
N36830G01Z-0.250F30.0
N36840G01X47.189Y157.473F600.0
N36850X47.039Y157.323
N36860X47.189Y157.173
N36870X47.339Y157.323
N36880G01Z-0.300F30.0
N36890G01X47.189Y157.473F600.0
N36900X47.039Y157.323
N36910X47.189Y157.173
N36920X47.339Y157.323
N36930G01Z-0.350F30.0
N36940G01X47.189Y157.473F600.0
N36950X47.039Y157.323
N36960X47.189Y157.173
N36970X47.339Y157.323
N36980G01Z-0.400F30.0
N36990G01X47.189Y157.473F600.0
N37000X47.039Y157.323
N37010X47.189Y157.173
N37020X47.339Y157.323
N37030G01Z-0.450F30.0
N37040G01X47.189Y157.473F600.0
N37050X47.039Y157.323
N37060X47.189Y157.173
N37070X47.339Y157.323
N37080G01Z-0.500F30.0
N37090G01X47.189Y157.473F600.0
N37100X47.039Y157.323
N37110X47.189Y157.173
N37120X47.339Y157.323
N37130G01Z-0.550F30.0
N37140G01X47.189Y157.473F600.0
N37150X47.039Y157.323
N37160X47.189Y157.173
N37170X47.339Y157.323
N37180G01Z-0.600F30.0
N37190G01X47.189Y157.473F600.0
N37200X47.039Y157.323
N37210X47.189Y157.173
N37220X47.339Y157.323
N37230G01Z-0.650F30.0
N37240G01X47.189Y157.473F600.0
N37250X47.039Y157.323
N37260X47.189Y157.173
N37270X47.339Y157.323
N37280G01Z-0.700F30.0
N37290G01X47.189Y157.473F600.0
N37300X47.039Y157.323
N37310X47.189Y157.173
N37320X47.339Y157.323
N37330G01Z-0.750F30.0
N37340G01X47.189Y157.473F600.0
N37350X47.039Y157.323
N37360X47.189Y157.173
N37370X47.339Y157.323
N37380G01Z-0.800F30.0
N37390G01X47.189Y157.473F600.0
N37400X47.039Y157.323
N37410X47.189Y157.173
N37420X47.339Y157.323
N37430G01Z-0.850F30.0
N37440G01X47.189Y157.473F600.0
N37450X47.039Y157.323
N37460X47.189Y157.173
N37470X47.339Y157.323
N37480G01Z-0.900F30.0
N37490G01X47.189Y157.473F600.0
N37500X47.039Y157.323
N37510X47.189Y157.173
N37520X47.339Y157.323
N37530G01Z-0.950F30.0
N37540G01X47.189Y157.473F600.0
N37550X47.039Y157.323
N37560X47.189Y157.173
N37570X47.339Y157.323
N37580G01Z-1.000F30.0
N37590G01X47.189Y157.473F600.0
N37600X47.039Y157.323
N37610X47.189Y157.173
N37620X47.339Y157.323
N37630G01Z-1.050F30.0
N37640G01X47.189Y157.473F600.0
N37650X47.039Y157.323
N37660X47.189Y157.173
N37670X47.339Y157.323
N37680G01Z-1.100F30.0
N37690G01X47.189Y157.473F600.0
N37700X47.039Y157.323
N37710X47.189Y157.173
N37720X47.339Y157.323
N37730G01Z-1.150F30.0
N37740G01X47.189Y157.473F600.0
N37750X47.039Y157.323
N37760X47.189Y157.173
N37770X47.339Y157.323
N37780G01Z-1.200F30.0
N37790G01X47.189Y157.473F600.0
N37800X47.039Y157.323
N37810X47.189Y157.173
N37820X47.339Y157.323
N37830G01Z-1.250F30.0
N37840G01X47.189Y157.473F600.0
N37850X47.039Y157.323
N37860X47.189Y157.173
N37870X47.339Y157.323
N37880G01Z-1.300F30.0
N37890G01X47.189Y157.473F600.0
N37900X47.039Y157.323
N37910X47.189Y157.173
N37920X47.339Y157.323
N37930G01Z-1.350F30.0
N37940G01X47.189Y157.473F600.0
N37950X47.039Y157.323
N37960X47.189Y157.173
N37970X47.339Y157.323
N37980G01Z-1.400F30.0
N37990G01X47.189Y157.473F600.0
N38000X47.039Y157.323
N38010X47.189Y157.173
N38020X47.339Y157.323
N38030G01Z-1.450F30.0
N38040G01X47.189Y157.473F600.0
N38050X47.039Y157.323
N38060X47.189Y157.173
N38070X47.339Y157.323
N38080G01Z-1.500F30.0
N38090G01X47.189Y157.473F600.0
N38100X47.039Y157.323
N38110X47.189Y157.173
N38120X47.339Y157.323
N38130G01Z-1.550F30.0
N38140G01X47.189Y157.473F600.0
N38150X47.039Y157.323
N38160X47.189Y157.173
N38170X47.339Y157.323
N38180G01Z-1.600F30.0
N38190G01X47.189Y157.473F600.0
N38200X47.039Y157.323
N38210X47.189Y157.173
N38220X47.339Y157.323
N38230G01Z-1.650F30.0
N38240G01X47.189Y157.473F600.0
N38250X47.039Y157.323
N38260X47.189Y157.173
N38270X47.339Y157.323
N38280G01Z-1.700F30.0
N38290G01X47.189Y157.473F600.0
N38300X47.039Y157.323
N38310X47.189Y157.173
N38320X47.339Y157.323
N38330G01Z-1.750F30.0
N38340G01X47.189Y157.473F600.0
N38350X47.039Y157.323
N38360X47.189Y157.173
N38370X47.339Y157.323
N38380G01Z-1.800F30.0
N38390G01X47.189Y157.473F600.0
N38400X47.039Y157.323
N38410X47.189Y157.173
N38420X47.339Y157.323
N38430G01Z-1.850F30.0
N38440G01X47.189Y157.473F600.0
N38450X47.039Y157.323
N38460X47.189Y157.173
N38470X47.339Y157.323
N38480G01Z-1.900F30.0
N38490G01X47.189Y157.473F600.0
N38500X47.039Y157.323
N38510X47.189Y157.173
N38520X47.339Y157.323
N38530G01Z-1.950F30.0
N38540G01X47.189Y157.473F600.0
N38550X47.039Y157.323
N38560X47.189Y157.173
N38570X47.339Y157.323
N38580G01Z-2.000F30.0
N38590G01X47.189Y157.473F600.0
N38600X47.039Y157.323
N38610X47.189Y157.173
N38620X47.339Y157.323
N38630G01Z-2.050F30.0
N38640G01X47.189Y157.473F600.0
N38650X47.039Y157.323
N38660X47.189Y157.173
N38670X47.339Y157.323
N38680G01Z-2.100F30.0
N38690G01X47.189Y157.473F600.0
N38700X47.039Y157.323
N38710X47.189Y157.173
N38720X47.339Y157.323
N38730G01Z-2.150F30.0
N38740G01X47.189Y157.473F600.0
N38750X47.039Y157.323
N38760X47.189Y157.173
N38770X47.339Y157.323
N38780G01Z-2.200F30.0
N38790G01X47.189Y157.473F600.0
N38800X47.039Y157.323
N38810X47.189Y157.173
N38820X47.339Y157.323
N38830G01Z-2.250F30.0
N38840G01X47.189Y157.473F600.0
N38850X47.039Y157.323
N38860X47.189Y157.173
N38870X47.339Y157.323
N38880G01Z-2.300F30.0
N38890G01X47.189Y157.473F600.0
N38900X47.039Y157.323
N38910X47.189Y157.173
N38920X47.339Y157.323
N38930G01Z-2.350F30.0
N38940G01X47.189Y157.473F600.0
N38950X47.039Y157.323
N38960X47.189Y157.173
N38970X47.339Y157.323
N38980G01Z-2.400F30.0
N38990G01X47.189Y157.473F600.0
N39000X47.039Y157.323
N39010X47.189Y157.173
N39020X47.339Y157.323
N39030G01Z-2.450F30.0
N39040G01X47.189Y157.473F600.0
N39050X47.039Y157.323
N39060X47.189Y157.173
N39070X47.339Y157.323
N39080G01Z-2.500F30.0
N39090G01X47.189Y157.473F600.0
N39100X47.039Y157.323
N39110X47.189Y157.173
N39120X47.339Y157.323
N39130G01Z-2.550F30.0
N39140G01X47.189Y157.473F600.0
N39150X47.039Y157.323
N39160X47.189Y157.173
N39170X47.339Y157.323
N39180G01Z-2.600F30.0
N39190G01X47.189Y157.473F600.0
N39200X47.039Y157.323
N39210X47.189Y157.173
N39220X47.339Y157.323
N39230G01Z-2.650F30.0
N39240G01X47.189Y157.473F600.0
N39250X47.039Y157.323
N39260X47.189Y157.173
N39270X47.339Y157.323
N39280G01Z-2.700F30.0
N39290G01X47.189Y157.473F600.0
N39300X47.039Y157.323
N39310X47.189Y157.173
N39320X47.339Y157.323
N39330G01Z-2.750F30.0
N39340G01X47.189Y157.473F600.0
N39350X47.039Y157.323
N39360X47.189Y157.173
N39370X47.339Y157.323
N39380G01Z-2.800F30.0
N39390G01X47.189Y157.473F600.0
N39400X47.039Y157.323
N39410X47.189Y157.173
N39420X47.339Y157.323
N39430G01Z-2.850F30.0
N39440G01X47.189Y157.473F600.0
N39450X47.039Y157.323
N39460X47.189Y157.173
N39470X47.339Y157.323
N39480G01Z-2.900F30.0
N39490G01X47.189Y157.473F600.0
N39500X47.039Y157.323
N39510X47.189Y157.173
N39520X47.339Y157.323
N39530G01Z-2.950F30.0
N39540G01X47.189Y157.473F600.0
N39550X47.039Y157.323
N39560X47.189Y157.173
N39570X47.339Y157.323
N39580G01Z-3.000F30.0
N39590G01X47.189Y157.473F600.0
N39600X47.039Y157.323
N39610X47.189Y157.173
N39620X47.339Y157.323
N39630G00Z6.000
N39640G00Y165.323
N39650G01Z-0.050F30.0
N39660G01X47.189Y165.473F600.0
N39670X47.039Y165.323
N39680X47.189Y165.173
N39690X47.339Y165.323
N39700G01Z-0.100F30.0
N39710G01X47.189Y165.473F600.0
N39720X47.039Y165.323
N39730X47.189Y165.173
N39740X47.339Y165.323
N39750G01Z-0.150F30.0
N39760G01X47.189Y165.473F600.0
N39770X47.039Y165.323
N39780X47.189Y165.173
N39790X47.339Y165.323
N39800G01Z-0.200F30.0
N39810G01X47.189Y165.473F600.0
N39820X47.039Y165.323
N39830X47.189Y165.173
N39840X47.339Y165.323
N39850G01Z-0.250F30.0
N39860G01X47.189Y165.473F600.0
N39870X47.039Y165.323
N39880X47.189Y165.173
N39890X47.339Y165.323
N39900G01Z-0.300F30.0
N39910G01X47.189Y165.473F600.0
N39920X47.039Y165.323
N39930X47.189Y165.173
N39940X47.339Y165.323
N39950G01Z-0.350F30.0
N39960G01X47.189Y165.473F600.0
N39970X47.039Y165.323
N39980X47.189Y165.173
N39990X47.339Y165.323
N40000G01Z-0.400F30.0
N40010G01X47.189Y165.473F600.0
N40020X47.039Y165.323
N40030X47.189Y165.173
N40040X47.339Y165.323
N40050G01Z-0.450F30.0
N40060G01X47.189Y165.473F600.0
N40070X47.039Y165.323
N40080X47.189Y165.173
N40090X47.339Y165.323
N40100G01Z-0.500F30.0
N40110G01X47.189Y165.473F600.0
N40120X47.039Y165.323
N40130X47.189Y165.173
N40140X47.339Y165.323
N40150G01Z-0.550F30.0
N40160G01X47.189Y165.473F600.0
N40170X47.039Y165.323
N40180X47.189Y165.173
N40190X47.339Y165.323
N40200G01Z-0.600F30.0
N40210G01X47.189Y165.473F600.0
N40220X47.039Y165.323
N40230X47.189Y165.173
N40240X47.339Y165.323
N40250G01Z-0.650F30.0
N40260G01X47.189Y165.473F600.0
N40270X47.039Y165.323
N40280X47.189Y165.173
N40290X47.339Y165.323
N40300G01Z-0.700F30.0
N40310G01X47.189Y165.473F600.0
N40320X47.039Y165.323
N40330X47.189Y165.173
N40340X47.339Y165.323
N40350G01Z-0.750F30.0
N40360G01X47.189Y165.473F600.0
N40370X47.039Y165.323
N40380X47.189Y165.173
N40390X47.339Y165.323
N40400G01Z-0.800F30.0
N40410G01X47.189Y165.473F600.0
N40420X47.039Y165.323
N40430X47.189Y165.173
N40440X47.339Y165.323
N40450G01Z-0.850F30.0
N40460G01X47.189Y165.473F600.0
N40470X47.039Y165.323
N40480X47.189Y165.173
N40490X47.339Y165.323
N40500G01Z-0.900F30.0
N40510G01X47.189Y165.473F600.0
N40520X47.039Y165.323
N40530X47.189Y165.173
N40540X47.339Y165.323
N40550G01Z-0.950F30.0
N40560G01X47.189Y165.473F600.0
N40570X47.039Y165.323
N40580X47.189Y165.173
N40590X47.339Y165.323
N40600G01Z-1.000F30.0
N40610G01X47.189Y165.473F600.0
N40620X47.039Y165.323
N40630X47.189Y165.173
N40640X47.339Y165.323
N40650G01Z-1.050F30.0
N40660G01X47.189Y165.473F600.0
N40670X47.039Y165.323
N40680X47.189Y165.173
N40690X47.339Y165.323
N40700G01Z-1.100F30.0
N40710G01X47.189Y165.473F600.0
N40720X47.039Y165.323
N40730X47.189Y165.173
N40740X47.339Y165.323
N40750G01Z-1.150F30.0
N40760G01X47.189Y165.473F600.0
N40770X47.039Y165.323
N40780X47.189Y165.173
N40790X47.339Y165.323
N40800G01Z-1.200F30.0
N40810G01X47.189Y165.473F600.0
N40820X47.039Y165.323
N40830X47.189Y165.173
N40840X47.339Y165.323
N40850G01Z-1.250F30.0
N40860G01X47.189Y165.473F600.0
N40870X47.039Y165.323
N40880X47.189Y165.173
N40890X47.339Y165.323
N40900G01Z-1.300F30.0
N40910G01X47.189Y165.473F600.0
N40920X47.039Y165.323
N40930X47.189Y165.173
N40940X47.339Y165.323
N40950G01Z-1.350F30.0
N40960G01X47.189Y165.473F600.0
N40970X47.039Y165.323
N40980X47.189Y165.173
N40990X47.339Y165.323
N41000G01Z-1.400F30.0
N41010G01X47.189Y165.473F600.0
N41020X47.039Y165.323
N41030X47.189Y165.173
N41040X47.339Y165.323
N41050G01Z-1.450F30.0
N41060G01X47.189Y165.473F600.0
N41070X47.039Y165.323
N41080X47.189Y165.173
N41090X47.339Y165.323
N41100G01Z-1.500F30.0
N41110G01X47.189Y165.473F600.0
N41120X47.039Y165.323
N41130X47.189Y165.173
N41140X47.339Y165.323
N41150G01Z-1.550F30.0
N41160G01X47.189Y165.473F600.0
N41170X47.039Y165.323
N41180X47.189Y165.173
N41190X47.339Y165.323
N41200G01Z-1.600F30.0
N41210G01X47.189Y165.473F600.0
N41220X47.039Y165.323
N41230X47.189Y165.173
N41240X47.339Y165.323
N41250G01Z-1.650F30.0
N41260G01X47.189Y165.473F600.0
N41270X47.039Y165.323
N41280X47.189Y165.173
N41290X47.339Y165.323
N41300G01Z-1.700F30.0
N41310G01X47.189Y165.473F600.0
N41320X47.039Y165.323
N41330X47.189Y165.173
N41340X47.339Y165.323
N41350G01Z-1.750F30.0
N41360G01X47.189Y165.473F600.0
N41370X47.039Y165.323
N41380X47.189Y165.173
N41390X47.339Y165.323
N41400G01Z-1.800F30.0
N41410G01X47.189Y165.473F600.0
N41420X47.039Y165.323
N41430X47.189Y165.173
N41440X47.339Y165.323
N41450G01Z-1.850F30.0
N41460G01X47.189Y165.473F600.0
N41470X47.039Y165.323
N41480X47.189Y165.173
N41490X47.339Y165.323
N41500G01Z-1.900F30.0
N41510G01X47.189Y165.473F600.0
N41520X47.039Y165.323
N41530X47.189Y165.173
N41540X47.339Y165.323
N41550G01Z-1.950F30.0
N41560G01X47.189Y165.473F600.0
N41570X47.039Y165.323
N41580X47.189Y165.173
N41590X47.339Y165.323
N41600G01Z-2.000F30.0
N41610G01X47.189Y165.473F600.0
N41620X47.039Y165.323
N41630X47.189Y165.173
N41640X47.339Y165.323
N41650G01Z-2.050F30.0
N41660G01X47.189Y165.473F600.0
N41670X47.039Y165.323
N41680X47.189Y165.173
N41690X47.339Y165.323
N41700G01Z-2.100F30.0
N41710G01X47.189Y165.473F600.0
N41720X47.039Y165.323
N41730X47.189Y165.173
N41740X47.339Y165.323
N41750G01Z-2.150F30.0
N41760G01X47.189Y165.473F600.0
N41770X47.039Y165.323
N41780X47.189Y165.173
N41790X47.339Y165.323
N41800G01Z-2.200F30.0
N41810G01X47.189Y165.473F600.0
N41820X47.039Y165.323
N41830X47.189Y165.173
N41840X47.339Y165.323
N41850G01Z-2.250F30.0
N41860G01X47.189Y165.473F600.0
N41870X47.039Y165.323
N41880X47.189Y165.173
N41890X47.339Y165.323
N41900G01Z-2.300F30.0
N41910G01X47.189Y165.473F600.0
N41920X47.039Y165.323
N41930X47.189Y165.173
N41940X47.339Y165.323
N41950G01Z-2.350F30.0
N41960G01X47.189Y165.473F600.0
N41970X47.039Y165.323
N41980X47.189Y165.173
N41990X47.339Y165.323
N42000G01Z-2.400F30.0
N42010G01X47.189Y165.473F600.0
N42020X47.039Y165.323
N42030X47.189Y165.173
N42040X47.339Y165.323
N42050G01Z-2.450F30.0
N42060G01X47.189Y165.473F600.0
N42070X47.039Y165.323
N42080X47.189Y165.173
N42090X47.339Y165.323
N42100G01Z-2.500F30.0
N42110G01X47.189Y165.473F600.0
N42120X47.039Y165.323
N42130X47.189Y165.173
N42140X47.339Y165.323
N42150G01Z-2.550F30.0
N42160G01X47.189Y165.473F600.0
N42170X47.039Y165.323
N42180X47.189Y165.173
N42190X47.339Y165.323
N42200G01Z-2.600F30.0
N42210G01X47.189Y165.473F600.0
N42220X47.039Y165.323
N42230X47.189Y165.173
N42240X47.339Y165.323
N42250G01Z-2.650F30.0
N42260G01X47.189Y165.473F600.0
N42270X47.039Y165.323
N42280X47.189Y165.173
N42290X47.339Y165.323
N42300G01Z-2.700F30.0
N42310G01X47.189Y165.473F600.0
N42320X47.039Y165.323
N42330X47.189Y165.173
N42340X47.339Y165.323
N42350G01Z-2.750F30.0
N42360G01X47.189Y165.473F600.0
N42370X47.039Y165.323
N42380X47.189Y165.173
N42390X47.339Y165.323
N42400G01Z-2.800F30.0
N42410G01X47.189Y165.473F600.0
N42420X47.039Y165.323
N42430X47.189Y165.173
N42440X47.339Y165.323
N42450G01Z-2.850F30.0
N42460G01X47.189Y165.473F600.0
N42470X47.039Y165.323
N42480X47.189Y165.173
N42490X47.339Y165.323
N42500G01Z-2.900F30.0
N42510G01X47.189Y165.473F600.0
N42520X47.039Y165.323
N42530X47.189Y165.173
N42540X47.339Y165.323
N42550G01Z-2.950F30.0
N42560G01X47.189Y165.473F600.0
N42570X47.039Y165.323
N42580X47.189Y165.173
N42590X47.339Y165.323
N42600G01Z-3.000F30.0
N42610G01X47.189Y165.473F600.0
N42620X47.039Y165.323
N42630X47.189Y165.173
N42640X47.339Y165.323
N42650G00Z6.000
N42660G00X38.734Y208.651
N42670G01Z-0.050F30.0
N42680G3X38.534Y208.851I-0.200J0.000F600.0
N42690G3X38.334Y208.651I0.000J-0.200
N42700G3X38.534Y208.451I0.200J0.000
N42710G3X38.734Y208.651I0.000J0.200
N42720G01Z-0.100F30.0
N42730G3X38.534Y208.851I-0.200J0.000F600.0
N42740G3X38.334Y208.651I0.000J-0.200
N42750G3X38.534Y208.451I0.200J0.000
N42760G3X38.734Y208.651I0.000J0.200
N42770G01Z-0.150F30.0
N42780G3X38.534Y208.851I-0.200J0.000F600.0
N42790G3X38.334Y208.651I0.000J-0.200
N42800G3X38.534Y208.451I0.200J0.000
N42810G3X38.734Y208.651I0.000J0.200
N42820G01Z-0.200F30.0
N42830G3X38.534Y208.851I-0.200J0.000F600.0
N42840G3X38.334Y208.651I0.000J-0.200
N42850G3X38.534Y208.451I0.200J0.000
N42860G3X38.734Y208.651I0.000J0.200
N42870G01Z-0.250F30.0
N42880G3X38.534Y208.851I-0.200J0.000F600.0
N42890G3X38.334Y208.651I0.000J-0.200
N42900G3X38.534Y208.451I0.200J0.000
N42910G3X38.734Y208.651I0.000J0.200
N42920G01Z-0.300F30.0
N42930G3X38.534Y208.851I-0.200J0.000F600.0
N42940G3X38.334Y208.651I0.000J-0.200
N42950G3X38.534Y208.451I0.200J0.000
N42960G3X38.734Y208.651I0.000J0.200
N42970G01Z-0.350F30.0
N42980G3X38.534Y208.851I-0.200J0.000F600.0
N42990G3X38.334Y208.651I0.000J-0.200
N43000G3X38.534Y208.451I0.200J0.000
N43010G3X38.734Y208.651I0.000J0.200
N43020G01Z-0.400F30.0
N43030G3X38.534Y208.851I-0.200J0.000F600.0
N43040G3X38.334Y208.651I0.000J-0.200
N43050G3X38.534Y208.451I0.200J0.000
N43060G3X38.734Y208.651I0.000J0.200
N43070G01Z-0.450F30.0
N43080G3X38.534Y208.851I-0.200J0.000F600.0
N43090G3X38.334Y208.651I0.000J-0.200
N43100G3X38.534Y208.451I0.200J0.000
N43110G3X38.734Y208.651I0.000J0.200
N43120G01Z-0.500F30.0
N43130G3X38.534Y208.851I-0.200J0.000F600.0
N43140G3X38.334Y208.651I0.000J-0.200
N43150G3X38.534Y208.451I0.200J0.000
N43160G3X38.734Y208.651I0.000J0.200
N43170G01Z-0.550F30.0
N43180G3X38.534Y208.851I-0.200J0.000F600.0
N43190G3X38.334Y208.651I0.000J-0.200
N43200G3X38.534Y208.451I0.200J0.000
N43210G3X38.734Y208.651I0.000J0.200
N43220G01Z-0.600F30.0
N43230G3X38.534Y208.851I-0.200J0.000F600.0
N43240G3X38.334Y208.651I0.000J-0.200
N43250G3X38.534Y208.451I0.200J0.000
N43260G3X38.734Y208.651I0.000J0.200
N43270G01Z-0.650F30.0
N43280G3X38.534Y208.851I-0.200J0.000F600.0
N43290G3X38.334Y208.651I0.000J-0.200
N43300G3X38.534Y208.451I0.200J0.000
N43310G3X38.734Y208.651I0.000J0.200
N43320G01Z-0.700F30.0
N43330G3X38.534Y208.851I-0.200J0.000F600.0
N43340G3X38.334Y208.651I0.000J-0.200
N43350G3X38.534Y208.451I0.200J0.000
N43360G3X38.734Y208.651I0.000J0.200
N43370G01Z-0.750F30.0
N43380G3X38.534Y208.851I-0.200J0.000F600.0
N43390G3X38.334Y208.651I0.000J-0.200
N43400G3X38.534Y208.451I0.200J0.000
N43410G3X38.734Y208.651I0.000J0.200
N43420G01Z-0.800F30.0
N43430G3X38.534Y208.851I-0.200J0.000F600.0
N43440G3X38.334Y208.651I0.000J-0.200
N43450G3X38.534Y208.451I0.200J0.000
N43460G3X38.734Y208.651I0.000J0.200
N43470G01Z-0.850F30.0
N43480G3X38.534Y208.851I-0.200J0.000F600.0
N43490G3X38.334Y208.651I0.000J-0.200
N43500G3X38.534Y208.451I0.200J0.000
N43510G3X38.734Y208.651I0.000J0.200
N43520G01Z-0.900F30.0
N43530G3X38.534Y208.851I-0.200J0.000F600.0
N43540G3X38.334Y208.651I0.000J-0.200
N43550G3X38.534Y208.451I0.200J0.000
N43560G3X38.734Y208.651I0.000J0.200
N43570G01Z-0.950F30.0
N43580G3X38.534Y208.851I-0.200J0.000F600.0
N43590G3X38.334Y208.651I0.000J-0.200
N43600G3X38.534Y208.451I0.200J0.000
N43610G3X38.734Y208.651I0.000J0.200
N43620G01Z-1.000F30.0
N43630G3X38.534Y208.851I-0.200J0.000F600.0
N43640G3X38.334Y208.651I0.000J-0.200
N43650G3X38.534Y208.451I0.200J0.000
N43660G3X38.734Y208.651I0.000J0.200
N43670G01Z-1.050F30.0
N43680G3X38.534Y208.851I-0.200J0.000F600.0
N43690G3X38.334Y208.651I0.000J-0.200
N43700G3X38.534Y208.451I0.200J0.000
N43710G3X38.734Y208.651I0.000J0.200
N43720G01Z-1.100F30.0
N43730G3X38.534Y208.851I-0.200J0.000F600.0
N43740G3X38.334Y208.651I0.000J-0.200
N43750G3X38.534Y208.451I0.200J0.000
N43760G3X38.734Y208.651I0.000J0.200
N43770G01Z-1.150F30.0
N43780G3X38.534Y208.851I-0.200J0.000F600.0
N43790G3X38.334Y208.651I0.000J-0.200
N43800G3X38.534Y208.451I0.200J0.000
N43810G3X38.734Y208.651I0.000J0.200
N43820G01Z-1.200F30.0
N43830G3X38.534Y208.851I-0.200J0.000F600.0
N43840G3X38.334Y208.651I0.000J-0.200
N43850G3X38.534Y208.451I0.200J0.000
N43860G3X38.734Y208.651I0.000J0.200
N43870G01Z-1.250F30.0
N43880G3X38.534Y208.851I-0.200J0.000F600.0
N43890G3X38.334Y208.651I0.000J-0.200
N43900G3X38.534Y208.451I0.200J0.000
N43910G3X38.734Y208.651I0.000J0.200
N43920G01Z-1.300F30.0
N43930G3X38.534Y208.851I-0.200J0.000F600.0
N43940G3X38.334Y208.651I0.000J-0.200
N43950G3X38.534Y208.451I0.200J0.000
N43960G3X38.734Y208.651I0.000J0.200
N43970G01Z-1.350F30.0
N43980G3X38.534Y208.851I-0.200J0.000F600.0
N43990G3X38.334Y208.651I0.000J-0.200
N44000G3X38.534Y208.451I0.200J0.000
N44010G3X38.734Y208.651I0.000J0.200
N44020G01Z-1.400F30.0
N44030G3X38.534Y208.851I-0.200J0.000F600.0
N44040G3X38.334Y208.651I0.000J-0.200
N44050G3X38.534Y208.451I0.200J0.000
N44060G3X38.734Y208.651I0.000J0.200
N44070G01Z-1.450F30.0
N44080G3X38.534Y208.851I-0.200J0.000F600.0
N44090G3X38.334Y208.651I0.000J-0.200
N44100G3X38.534Y208.451I0.200J0.000
N44110G3X38.734Y208.651I0.000J0.200
N44120G01Z-1.500F30.0
N44130G3X38.534Y208.851I-0.200J0.000F600.0
N44140G3X38.334Y208.651I0.000J-0.200
N44150G3X38.534Y208.451I0.200J0.000
N44160G3X38.734Y208.651I0.000J0.200
N44170G01Z-1.550F30.0
N44180G3X38.534Y208.851I-0.200J0.000F600.0
N44190G3X38.334Y208.651I0.000J-0.200
N44200G3X38.534Y208.451I0.200J0.000
N44210G3X38.734Y208.651I0.000J0.200
N44220G01Z-1.600F30.0
N44230G3X38.534Y208.851I-0.200J0.000F600.0
N44240G3X38.334Y208.651I0.000J-0.200
N44250G3X38.534Y208.451I0.200J0.000
N44260G3X38.734Y208.651I0.000J0.200
N44270G01Z-1.650F30.0
N44280G3X38.534Y208.851I-0.200J0.000F600.0
N44290G3X38.334Y208.651I0.000J-0.200
N44300G3X38.534Y208.451I0.200J0.000
N44310G3X38.734Y208.651I0.000J0.200
N44320G01Z-1.700F30.0
N44330G3X38.534Y208.851I-0.200J0.000F600.0
N44340G3X38.334Y208.651I0.000J-0.200
N44350G3X38.534Y208.451I0.200J0.000
N44360G3X38.734Y208.651I0.000J0.200
N44370G01Z-1.750F30.0
N44380G3X38.534Y208.851I-0.200J0.000F600.0
N44390G3X38.334Y208.651I0.000J-0.200
N44400G3X38.534Y208.451I0.200J0.000
N44410G3X38.734Y208.651I0.000J0.200
N44420G01Z-1.800F30.0
N44430G3X38.534Y208.851I-0.200J0.000F600.0
N44440G3X38.334Y208.651I0.000J-0.200
N44450G3X38.534Y208.451I0.200J0.000
N44460G3X38.734Y208.651I0.000J0.200
N44470G01Z-1.850F30.0
N44480G3X38.534Y208.851I-0.200J0.000F600.0
N44490G3X38.334Y208.651I0.000J-0.200
N44500G3X38.534Y208.451I0.200J0.000
N44510G3X38.734Y208.651I0.000J0.200
N44520G01Z-1.900F30.0
N44530G3X38.534Y208.851I-0.200J0.000F600.0
N44540G3X38.334Y208.651I0.000J-0.200
N44550G3X38.534Y208.451I0.200J0.000
N44560G3X38.734Y208.651I0.000J0.200
N44570G01Z-1.950F30.0
N44580G3X38.534Y208.851I-0.200J0.000F600.0
N44590G3X38.334Y208.651I0.000J-0.200
N44600G3X38.534Y208.451I0.200J0.000
N44610G3X38.734Y208.651I0.000J0.200
N44620G01Z-2.000F30.0
N44630G3X38.534Y208.851I-0.200J0.000F600.0
N44640G3X38.334Y208.651I0.000J-0.200
N44650G3X38.534Y208.451I0.200J0.000
N44660G3X38.734Y208.651I0.000J0.200
N44670G01Z-2.050F30.0
N44680G3X38.534Y208.851I-0.200J0.000F600.0
N44690G3X38.334Y208.651I0.000J-0.200
N44700G3X38.534Y208.451I0.200J0.000
N44710G3X38.734Y208.651I0.000J0.200
N44720G01Z-2.100F30.0
N44730G3X38.534Y208.851I-0.200J0.000F600.0
N44740G3X38.334Y208.651I0.000J-0.200
N44750G3X38.534Y208.451I0.200J0.000
N44760G3X38.734Y208.651I0.000J0.200
N44770G01Z-2.150F30.0
N44780G3X38.534Y208.851I-0.200J0.000F600.0
N44790G3X38.334Y208.651I0.000J-0.200
N44800G3X38.534Y208.451I0.200J0.000
N44810G3X38.734Y208.651I0.000J0.200
N44820G01Z-2.200F30.0
N44830G3X38.534Y208.851I-0.200J0.000F600.0
N44840G3X38.334Y208.651I0.000J-0.200
N44850G3X38.534Y208.451I0.200J0.000
N44860G3X38.734Y208.651I0.000J0.200
N44870G01Z-2.250F30.0
N44880G3X38.534Y208.851I-0.200J0.000F600.0
N44890G3X38.334Y208.651I0.000J-0.200
N44900G3X38.534Y208.451I0.200J0.000
N44910G3X38.734Y208.651I0.000J0.200
N44920G01Z-2.300F30.0
N44930G3X38.534Y208.851I-0.200J0.000F600.0
N44940G3X38.334Y208.651I0.000J-0.200
N44950G3X38.534Y208.451I0.200J0.000
N44960G3X38.734Y208.651I0.000J0.200
N44970G01Z-2.350F30.0
N44980G3X38.534Y208.851I-0.200J0.000F600.0
N44990G3X38.334Y208.651I0.000J-0.200
