( 3mm_insede )
( USBCNC Postprocessor )
N20G00G21G17G90G40G49
N30G80
N40G00G43Z6.001H5
N50S8000M03
N60G94
N70X0.000Y0.000F600.0
N80G00X21.747Y15.499Z6.000
N90G01Z-0.050F30.0
N100G01X21.647Y15.599F600.0
N110X21.547Y15.499
N120X21.647Y15.399
N130X21.747Y15.499
N140G01Z-0.100F30.0
N150G01X21.647Y15.599F600.0
N160X21.547Y15.499
N170X21.647Y15.399
N180X21.747Y15.499
N190G01Z-0.150F30.0
N200G01X21.647Y15.599F600.0
N210X21.547Y15.499
N220X21.647Y15.399
N230X21.747Y15.499
N240G01Z-0.200F30.0
N250G01X21.647Y15.599F600.0
N260X21.547Y15.499
N270X21.647Y15.399
N280X21.747Y15.499
N290G01Z-0.250F30.0
N300G01X21.647Y15.599F600.0
N310X21.547Y15.499
N320X21.647Y15.399
N330X21.747Y15.499
N340G01Z-0.300F30.0
N350G01X21.647Y15.599F600.0
N360X21.547Y15.499
N370X21.647Y15.399
N380X21.747Y15.499
N390G01Z-0.350F30.0
N400G01X21.647Y15.599F600.0
N410X21.547Y15.499
N420X21.647Y15.399
N430X21.747Y15.499
N440G01Z-0.400F30.0
N450G01X21.647Y15.599F600.0
N460X21.547Y15.499
N470X21.647Y15.399
N480X21.747Y15.499
N490G01Z-0.450F30.0
N500G01X21.647Y15.599F600.0
N510X21.547Y15.499
N520X21.647Y15.399
N530X21.747Y15.499
N540G01Z-0.500F30.0
N550G01X21.647Y15.599F600.0
N560X21.547Y15.499
N570X21.647Y15.399
N580X21.747Y15.499
N590G01Z-0.550F30.0
N600G01X21.647Y15.599F600.0
N610X21.547Y15.499
N620X21.647Y15.399
N630X21.747Y15.499
N640G01Z-0.600F30.0
N650G01X21.647Y15.599F600.0
N660X21.547Y15.499
N670X21.647Y15.399
N680X21.747Y15.499
N690G01Z-0.650F30.0
N700G01X21.647Y15.599F600.0
N710X21.547Y15.499
N720X21.647Y15.399
N730X21.747Y15.499
N740G01Z-0.700F30.0
N750G01X21.647Y15.599F600.0
N760X21.547Y15.499
N770X21.647Y15.399
N780X21.747Y15.499
N790G01Z-0.750F30.0
N800G01X21.647Y15.599F600.0
N810X21.547Y15.499
N820X21.647Y15.399
N830X21.747Y15.499
N840G01Z-0.800F30.0
N850G01X21.647Y15.599F600.0
N860X21.547Y15.499
N870X21.647Y15.399
N880X21.747Y15.499
N890G01Z-0.850F30.0
N900G01X21.647Y15.599F600.0
N910X21.547Y15.499
N920X21.647Y15.399
N930X21.747Y15.499
N940G01Z-0.900F30.0
N950G01X21.647Y15.599F600.0
N960X21.547Y15.499
N970X21.647Y15.399
N980X21.747Y15.499
N990G01Z-0.950F30.0
N1000G01X21.647Y15.599F600.0
N1010X21.547Y15.499
N1020X21.647Y15.399
N1030X21.747Y15.499
N1040G01Z-1.000F30.0
N1050G01X21.647Y15.599F600.0
N1060X21.547Y15.499
N1070X21.647Y15.399
N1080X21.747Y15.499
N1090G01Z-1.050F30.0
N1100G01X21.647Y15.599F600.0
N1110X21.547Y15.499
N1120X21.647Y15.399
N1130X21.747Y15.499
N1140G01Z-1.100F30.0
N1150G01X21.647Y15.599F600.0
N1160X21.547Y15.499
N1170X21.647Y15.399
N1180X21.747Y15.499
N1190G01Z-1.150F30.0
N1200G01X21.647Y15.599F600.0
N1210X21.547Y15.499
N1220X21.647Y15.399
N1230X21.747Y15.499
N1240G01Z-1.200F30.0
N1250G01X21.647Y15.599F600.0
N1260X21.547Y15.499
N1270X21.647Y15.399
N1280X21.747Y15.499
N1290G01Z-1.250F30.0
N1300G01X21.647Y15.599F600.0
N1310X21.547Y15.499
N1320X21.647Y15.399
N1330X21.747Y15.499
N1340G01Z-1.300F30.0
N1350G01X21.647Y15.599F600.0
N1360X21.547Y15.499
N1370X21.647Y15.399
N1380X21.747Y15.499
N1390G01Z-1.350F30.0
N1400G01X21.647Y15.599F600.0
N1410X21.547Y15.499
N1420X21.647Y15.399
N1430X21.747Y15.499
N1440G01Z-1.400F30.0
N1450G01X21.647Y15.599F600.0
N1460X21.547Y15.499
N1470X21.647Y15.399
N1480X21.747Y15.499
N1490G01Z-1.450F30.0
N1500G01X21.647Y15.599F600.0
N1510X21.547Y15.499
N1520X21.647Y15.399
N1530X21.747Y15.499
N1540G01Z-1.500F30.0
N1550G01X21.647Y15.599F600.0
N1560X21.547Y15.499
N1570X21.647Y15.399
N1580X21.747Y15.499
N1590G01Z-1.550F30.0
N1600G01X21.647Y15.599F600.0
N1610X21.547Y15.499
N1620X21.647Y15.399
N1630X21.747Y15.499
N1640G01Z-1.600F30.0
N1650G01X21.647Y15.599F600.0
N1660X21.547Y15.499
N1670X21.647Y15.399
N1680X21.747Y15.499
N1690G01Z-1.650F30.0
N1700G01X21.647Y15.599F600.0
N1710X21.547Y15.499
N1720X21.647Y15.399
N1730X21.747Y15.499
N1740G01Z-1.700F30.0
N1750G01X21.647Y15.599F600.0
N1760X21.547Y15.499
N1770X21.647Y15.399
N1780X21.747Y15.499
N1790G01Z-1.750F30.0
N1800G01X21.647Y15.599F600.0
N1810X21.547Y15.499
N1820X21.647Y15.399
N1830X21.747Y15.499
N1840G01Z-1.800F30.0
N1850G01X21.647Y15.599F600.0
N1860X21.547Y15.499
N1870X21.647Y15.399
N1880X21.747Y15.499
N1890G01Z-1.850F30.0
N1900G01X21.647Y15.599F600.0
N1910X21.547Y15.499
N1920X21.647Y15.399
N1930X21.747Y15.499
N1940G01Z-1.900F30.0
N1950G01X21.647Y15.599F600.0
N1960X21.547Y15.499
N1970X21.647Y15.399
N1980X21.747Y15.499
N1990G01Z-1.950F30.0
N2000G01X21.647Y15.599F600.0
N2010X21.547Y15.499
N2020X21.647Y15.399
N2030X21.747Y15.499
N2040G01Z-2.000F30.0
N2050G01X21.647Y15.599F600.0
N2060X21.547Y15.499
N2070X21.647Y15.399
N2080X21.747Y15.499
N2090G01Z-2.050F30.0
N2100G01X21.647Y15.599F600.0
N2110X21.547Y15.499
N2120X21.647Y15.399
N2130X21.747Y15.499
N2140G01Z-2.100F30.0
N2150G01X21.647Y15.599F600.0
N2160X21.547Y15.499
N2170X21.647Y15.399
N2180X21.747Y15.499
N2190G01Z-2.150F30.0
N2200G01X21.647Y15.599F600.0
N2210X21.547Y15.499
N2220X21.647Y15.399
N2230X21.747Y15.499
N2240G01Z-2.200F30.0
N2250G01X21.647Y15.599F600.0
N2260X21.547Y15.499
N2270X21.647Y15.399
N2280X21.747Y15.499
N2290G01Z-2.250F30.0
N2300G01X21.647Y15.599F600.0
N2310X21.547Y15.499
N2320X21.647Y15.399
N2330X21.747Y15.499
N2340G01Z-2.300F30.0
N2350G01X21.647Y15.599F600.0
N2360X21.547Y15.499
N2370X21.647Y15.399
N2380X21.747Y15.499
N2390G01Z-2.350F30.0
N2400G01X21.647Y15.599F600.0
N2410X21.547Y15.499
N2420X21.647Y15.399
N2430X21.747Y15.499
N2440G01Z-2.400F30.0
N2450G01X21.647Y15.599F600.0
N2460X21.547Y15.499
N2470X21.647Y15.399
N2480X21.747Y15.499
N2490G01Z-2.450F30.0
N2500G01X21.647Y15.599F600.0
N2510X21.547Y15.499
N2520X21.647Y15.399
N2530X21.747Y15.499
N2540G01Z-2.500F30.0
N2550G01X21.647Y15.599F600.0
N2560X21.547Y15.499
N2570X21.647Y15.399
N2580X21.747Y15.499
N2590G01Z-2.550F30.0
N2600G01X21.647Y15.599F600.0
N2610X21.547Y15.499
N2620X21.647Y15.399
N2630X21.747Y15.499
N2640G01Z-2.600F30.0
N2650G01X21.647Y15.599F600.0
N2660X21.547Y15.499
N2670X21.647Y15.399
N2680X21.747Y15.499
N2690G01Z-2.650F30.0
N2700G01X21.647Y15.599F600.0
N2710X21.547Y15.499
N2720X21.647Y15.399
N2730X21.747Y15.499
N2740G01Z-2.700F30.0
N2750G01X21.647Y15.599F600.0
N2760X21.547Y15.499
N2770X21.647Y15.399
N2780X21.747Y15.499
N2790G01Z-2.750F30.0
N2800G01X21.647Y15.599F600.0
N2810X21.547Y15.499
N2820X21.647Y15.399
N2830X21.747Y15.499
N2840G01Z-2.800F30.0
N2850G01X21.647Y15.599F600.0
N2860X21.547Y15.499
N2870X21.647Y15.399
N2880X21.747Y15.499
N2890G01Z-2.850F30.0
N2900G01X21.647Y15.599F600.0
N2910X21.547Y15.499
N2920X21.647Y15.399
N2930X21.747Y15.499
N2940G01Z-2.900F30.0
N2950G01X21.647Y15.599F600.0
N2960X21.547Y15.499
N2970X21.647Y15.399
N2980X21.747Y15.499
N2990G01Z-2.950F30.0
N3000G01X21.647Y15.599F600.0
N3010X21.547Y15.499
N3020X21.647Y15.399
N3030X21.747Y15.499
N3040G01Z-3.000F30.0
N3050G01X21.647Y15.599F600.0
N3060X21.547Y15.499
N3070X21.647Y15.399
N3080X21.747Y15.499
N3090G00Z6.000
N3100G00X33.257Y18.459
N3110G01Z-0.050F30.0
N3120G3X32.607Y19.109I-0.650J0.000F600.0
N3130G3X31.957Y18.459I0.000J-0.650
N3140G3X32.607Y17.809I0.650J0.000
N3150G3X33.257Y18.459I0.000J0.650
N3160G01Z-0.100F30.0
N3170G3X32.607Y19.109I-0.650J0.000F600.0
N3180G3X31.957Y18.459I0.000J-0.650
N3190G3X32.607Y17.809I0.650J0.000
N3200G3X33.257Y18.459I0.000J0.650
N3210G01Z-0.150F30.0
N3220G3X32.607Y19.109I-0.650J0.000F600.0
N3230G3X31.957Y18.459I0.000J-0.650
N3240G3X32.607Y17.809I0.650J0.000
N3250G3X33.257Y18.459I0.000J0.650
N3260G01Z-0.200F30.0
N3270G3X32.607Y19.109I-0.650J0.000F600.0
N3280G3X31.957Y18.459I0.000J-0.650
N3290G3X32.607Y17.809I0.650J0.000
N3300G3X33.257Y18.459I0.000J0.650
N3310G01Z-0.250F30.0
N3320G3X32.607Y19.109I-0.650J0.000F600.0
N3330G3X31.957Y18.459I0.000J-0.650
N3340G3X32.607Y17.809I0.650J0.000
N3350G3X33.257Y18.459I0.000J0.650
N3360G01Z-0.300F30.0
N3370G3X32.607Y19.109I-0.650J0.000F600.0
N3380G3X31.957Y18.459I0.000J-0.650
N3390G3X32.607Y17.809I0.650J0.000
N3400G3X33.257Y18.459I0.000J0.650
N3410G01Z-0.350F30.0
N3420G3X32.607Y19.109I-0.650J0.000F600.0
N3430G3X31.957Y18.459I0.000J-0.650
N3440G3X32.607Y17.809I0.650J0.000
N3450G3X33.257Y18.459I0.000J0.650
N3460G01Z-0.400F30.0
N3470G3X32.607Y19.109I-0.650J0.000F600.0
N3480G3X31.957Y18.459I0.000J-0.650
N3490G3X32.607Y17.809I0.650J0.000
N3500G3X33.257Y18.459I0.000J0.650
N3510G01Z-0.450F30.0
N3520G3X32.607Y19.109I-0.650J0.000F600.0
N3530G3X31.957Y18.459I0.000J-0.650
N3540G3X32.607Y17.809I0.650J0.000
N3550G3X33.257Y18.459I0.000J0.650
N3560G01Z-0.500F30.0
N3570G3X32.607Y19.109I-0.650J0.000F600.0
N3580G3X31.957Y18.459I0.000J-0.650
N3590G3X32.607Y17.809I0.650J0.000
N3600G3X33.257Y18.459I0.000J0.650
N3610G01Z-0.550F30.0
N3620G3X32.607Y19.109I-0.650J0.000F600.0
N3630G3X31.957Y18.459I0.000J-0.650
N3640G3X32.607Y17.809I0.650J0.000
N3650G3X33.257Y18.459I0.000J0.650
N3660G01Z-0.600F30.0
N3670G3X32.607Y19.109I-0.650J0.000F600.0
N3680G3X31.957Y18.459I0.000J-0.650
N3690G3X32.607Y17.809I0.650J0.000
N3700G3X33.257Y18.459I0.000J0.650
N3710G01Z-0.650F30.0
N3720G3X32.607Y19.109I-0.650J0.000F600.0
N3730G3X31.957Y18.459I0.000J-0.650
N3740G3X32.607Y17.809I0.650J0.000
N3750G3X33.257Y18.459I0.000J0.650
N3760G01Z-0.700F30.0
N3770G3X32.607Y19.109I-0.650J0.000F600.0
N3780G3X31.957Y18.459I0.000J-0.650
N3790G3X32.607Y17.809I0.650J0.000
N3800G3X33.257Y18.459I0.000J0.650
N3810G01Z-0.750F30.0
N3820G3X32.607Y19.109I-0.650J0.000F600.0
N3830G3X31.957Y18.459I0.000J-0.650
N3840G3X32.607Y17.809I0.650J0.000
N3850G3X33.257Y18.459I0.000J0.650
N3860G01Z-0.800F30.0
N3870G3X32.607Y19.109I-0.650J0.000F600.0
N3880G3X31.957Y18.459I0.000J-0.650
N3890G3X32.607Y17.809I0.650J0.000
N3900G3X33.257Y18.459I0.000J0.650
N3910G01Z-0.850F30.0
N3920G3X32.607Y19.109I-0.650J0.000F600.0
N3930G3X31.957Y18.459I0.000J-0.650
N3940G3X32.607Y17.809I0.650J0.000
N3950G3X33.257Y18.459I0.000J0.650
N3960G01Z-0.900F30.0
N3970G3X32.607Y19.109I-0.650J0.000F600.0
N3980G3X31.957Y18.459I0.000J-0.650
N3990G3X32.607Y17.809I0.650J0.000
N4000G3X33.257Y18.459I0.000J0.650
N4010G01Z-0.950F30.0
N4020G3X32.607Y19.109I-0.650J0.000F600.0
N4030G3X31.957Y18.459I0.000J-0.650
N4040G3X32.607Y17.809I0.650J0.000
N4050G3X33.257Y18.459I0.000J0.650
N4060G01Z-1.000F30.0
N4070G3X32.607Y19.109I-0.650J0.000F600.0
N4080G3X31.957Y18.459I0.000J-0.650
N4090G3X32.607Y17.809I0.650J0.000
N4100G3X33.257Y18.459I0.000J0.650
N4110G01Z-1.050F30.0
N4120G3X32.607Y19.109I-0.650J0.000F600.0
N4130G3X31.957Y18.459I0.000J-0.650
N4140G3X32.607Y17.809I0.650J0.000
N4150G3X33.257Y18.459I0.000J0.650
N4160G01Z-1.100F30.0
N4170G3X32.607Y19.109I-0.650J0.000F600.0
N4180G3X31.957Y18.459I0.000J-0.650
N4190G3X32.607Y17.809I0.650J0.000
N4200G3X33.257Y18.459I0.000J0.650
N4210G01Z-1.150F30.0
N4220G3X32.607Y19.109I-0.650J0.000F600.0
N4230G3X31.957Y18.459I0.000J-0.650
N4240G3X32.607Y17.809I0.650J0.000
N4250G3X33.257Y18.459I0.000J0.650
N4260G01Z-1.200F30.0
N4270G3X32.607Y19.109I-0.650J0.000F600.0
N4280G3X31.957Y18.459I0.000J-0.650
N4290G3X32.607Y17.809I0.650J0.000
N4300G3X33.257Y18.459I0.000J0.650
N4310G01Z-1.250F30.0
N4320G3X32.607Y19.109I-0.650J0.000F600.0
N4330G3X31.957Y18.459I0.000J-0.650
N4340G3X32.607Y17.809I0.650J0.000
N4350G3X33.257Y18.459I0.000J0.650
N4360G01Z-1.300F30.0
N4370G3X32.607Y19.109I-0.650J0.000F600.0
N4380G3X31.957Y18.459I0.000J-0.650
N4390G3X32.607Y17.809I0.650J0.000
N4400G3X33.257Y18.459I0.000J0.650
N4410G01Z-1.350F30.0
N4420G3X32.607Y19.109I-0.650J0.000F600.0
N4430G3X31.957Y18.459I0.000J-0.650
N4440G3X32.607Y17.809I0.650J0.000
N4450G3X33.257Y18.459I0.000J0.650
N4460G01Z-1.400F30.0
N4470G3X32.607Y19.109I-0.650J0.000F600.0
N4480G3X31.957Y18.459I0.000J-0.650
N4490G3X32.607Y17.809I0.650J0.000
N4500G3X33.257Y18.459I0.000J0.650
N4510G01Z-1.450F30.0
N4520G3X32.607Y19.109I-0.650J0.000F600.0
N4530G3X31.957Y18.459I0.000J-0.650
N4540G3X32.607Y17.809I0.650J0.000
N4550G3X33.257Y18.459I0.000J0.650
N4560G01Z-1.500F30.0
N4570G3X32.607Y19.109I-0.650J0.000F600.0
N4580G3X31.957Y18.459I0.000J-0.650
N4590G3X32.607Y17.809I0.650J0.000
N4600G3X33.257Y18.459I0.000J0.650
N4610G01Z-1.550F30.0
N4620G3X32.607Y19.109I-0.650J0.000F600.0
N4630G3X31.957Y18.459I0.000J-0.650
N4640G3X32.607Y17.809I0.650J0.000
N4650G3X33.257Y18.459I0.000J0.650
N4660G01Z-1.600F30.0
N4670G3X32.607Y19.109I-0.650J0.000F600.0
N4680G3X31.957Y18.459I0.000J-0.650
N4690G3X32.607Y17.809I0.650J0.000
N4700G3X33.257Y18.459I0.000J0.650
N4710G01Z-1.650F30.0
N4720G3X32.607Y19.109I-0.650J0.000F600.0
N4730G3X31.957Y18.459I0.000J-0.650
N4740G3X32.607Y17.809I0.650J0.000
N4750G3X33.257Y18.459I0.000J0.650
N4760G01Z-1.700F30.0
N4770G3X32.607Y19.109I-0.650J0.000F600.0
N4780G3X31.957Y18.459I0.000J-0.650
N4790G3X32.607Y17.809I0.650J0.000
N4800G3X33.257Y18.459I0.000J0.650
N4810G01Z-1.750F30.0
N4820G3X32.607Y19.109I-0.650J0.000F600.0
N4830G3X31.957Y18.459I0.000J-0.650
N4840G3X32.607Y17.809I0.650J0.000
N4850G3X33.257Y18.459I0.000J0.650
N4860G01Z-1.800F30.0
N4870G3X32.607Y19.109I-0.650J0.000F600.0
N4880G3X31.957Y18.459I0.000J-0.650
N4890G3X32.607Y17.809I0.650J0.000
N4900G3X33.257Y18.459I0.000J0.650
N4910G01Z-1.850F30.0
N4920G3X32.607Y19.109I-0.650J0.000F600.0
N4930G3X31.957Y18.459I0.000J-0.650
N4940G3X32.607Y17.809I0.650J0.000
N4950G3X33.257Y18.459I0.000J0.650
N4960G01Z-1.900F30.0
N4970G3X32.607Y19.109I-0.650J0.000F600.0
N4980G3X31.957Y18.459I0.000J-0.650
N4990G3X32.607Y17.809I0.650J0.000
N5000G3X33.257Y18.459I0.000J0.650
N5010G01Z-1.950F30.0
N5020G3X32.607Y19.109I-0.650J0.000F600.0
N5030G3X31.957Y18.459I0.000J-0.650
N5040G3X32.607Y17.809I0.650J0.000
N5050G3X33.257Y18.459I0.000J0.650
N5060G01Z-2.000F30.0
N5070G3X32.607Y19.109I-0.650J0.000F600.0
N5080G3X31.957Y18.459I0.000J-0.650
N5090G3X32.607Y17.809I0.650J0.000
N5100G3X33.257Y18.459I0.000J0.650
N5110G01Z-2.050F30.0
N5120G3X32.607Y19.109I-0.650J0.000F600.0
N5130G3X31.957Y18.459I0.000J-0.650
N5140G3X32.607Y17.809I0.650J0.000
N5150G3X33.257Y18.459I0.000J0.650
N5160G01Z-2.100F30.0
N5170G3X32.607Y19.109I-0.650J0.000F600.0
N5180G3X31.957Y18.459I0.000J-0.650
N5190G3X32.607Y17.809I0.650J0.000
N5200G3X33.257Y18.459I0.000J0.650
N5210G01Z-2.150F30.0
N5220G3X32.607Y19.109I-0.650J0.000F600.0
N5230G3X31.957Y18.459I0.000J-0.650
N5240G3X32.607Y17.809I0.650J0.000
N5250G3X33.257Y18.459I0.000J0.650
N5260G01Z-2.200F30.0
N5270G3X32.607Y19.109I-0.650J0.000F600.0
N5280G3X31.957Y18.459I0.000J-0.650
N5290G3X32.607Y17.809I0.650J0.000
N5300G3X33.257Y18.459I0.000J0.650
N5310G01Z-2.250F30.0
N5320G3X32.607Y19.109I-0.650J0.000F600.0
N5330G3X31.957Y18.459I0.000J-0.650
N5340G3X32.607Y17.809I0.650J0.000
N5350G3X33.257Y18.459I0.000J0.650
N5360G01Z-2.300F30.0
N5370G3X32.607Y19.109I-0.650J0.000F600.0
N5380G3X31.957Y18.459I0.000J-0.650
N5390G3X32.607Y17.809I0.650J0.000
N5400G3X33.257Y18.459I0.000J0.650
N5410G01Z-2.350F30.0
N5420G3X32.607Y19.109I-0.650J0.000F600.0
N5430G3X31.957Y18.459I0.000J-0.650
N5440G3X32.607Y17.809I0.650J0.000
N5450G3X33.257Y18.459I0.000J0.650
N5460G01Z-2.400F30.0
N5470G3X32.607Y19.109I-0.650J0.000F600.0
N5480G3X31.957Y18.459I0.000J-0.650
N5490G3X32.607Y17.809I0.650J0.000
N5500G3X33.257Y18.459I0.000J0.650
N5510G01Z-2.450F30.0
N5520G3X32.607Y19.109I-0.650J0.000F600.0
N5530G3X31.957Y18.459I0.000J-0.650
N5540G3X32.607Y17.809I0.650J0.000
N5550G3X33.257Y18.459I0.000J0.650
N5560G01Z-2.500F30.0
N5570G3X32.607Y19.109I-0.650J0.000F600.0
N5580G3X31.957Y18.459I0.000J-0.650
N5590G3X32.607Y17.809I0.650J0.000
N5600G3X33.257Y18.459I0.000J0.650
N5610G01Z-2.550F30.0
N5620G3X32.607Y19.109I-0.650J0.000F600.0
N5630G3X31.957Y18.459I0.000J-0.650
N5640G3X32.607Y17.809I0.650J0.000
N5650G3X33.257Y18.459I0.000J0.650
N5660G01Z-2.600F30.0
N5670G3X32.607Y19.109I-0.650J0.000F600.0
N5680G3X31.957Y18.459I0.000J-0.650
N5690G3X32.607Y17.809I0.650J0.000
N5700G3X33.257Y18.459I0.000J0.650
N5710G01Z-2.650F30.0
N5720G3X32.607Y19.109I-0.650J0.000F600.0
N5730G3X31.957Y18.459I0.000J-0.650
N5740G3X32.607Y17.809I0.650J0.000
N5750G3X33.257Y18.459I0.000J0.650
N5760G01Z-2.700F30.0
N5770G3X32.607Y19.109I-0.650J0.000F600.0
N5780G3X31.957Y18.459I0.000J-0.650
N5790G3X32.607Y17.809I0.650J0.000
N5800G3X33.257Y18.459I0.000J0.650
N5810G01Z-2.750F30.0
N5820G3X32.607Y19.109I-0.650J0.000F600.0
N5830G3X31.957Y18.459I0.000J-0.650
N5840G3X32.607Y17.809I0.650J0.000
N5850G3X33.257Y18.459I0.000J0.650
N5860G01Z-2.800F30.0
N5870G3X32.607Y19.109I-0.650J0.000F600.0
N5880G3X31.957Y18.459I0.000J-0.650
N5890G3X32.607Y17.809I0.650J0.000
N5900G3X33.257Y18.459I0.000J0.650
N5910G01Z-2.850F30.0
N5920G3X32.607Y19.109I-0.650J0.000F600.0
N5930G3X31.957Y18.459I0.000J-0.650
N5940G3X32.607Y17.809I0.650J0.000
N5950G3X33.257Y18.459I0.000J0.650
N5960G01Z-2.900F30.0
N5970G3X32.607Y19.109I-0.650J0.000F600.0
N5980G3X31.957Y18.459I0.000J-0.650
N5990G3X32.607Y17.809I0.650J0.000
N6000G3X33.257Y18.459I0.000J0.650
N6010G01Z-2.950F30.0
N6020G3X32.607Y19.109I-0.650J0.000F600.0
N6030G3X31.957Y18.459I0.000J-0.650
N6040G3X32.607Y17.809I0.650J0.000
N6050G3X33.257Y18.459I0.000J0.650
N6060G01Z-3.000F30.0
N6070G3X32.607Y19.109I-0.650J0.000F600.0
N6080G3X31.957Y18.459I0.000J-0.650
N6090G3X32.607Y17.809I0.650J0.000
N6100G3X33.257Y18.459I0.000J0.650
N6110G00Z6.000
N6120G00X35.257Y26.459
N6130G01Z-0.050F30.0
N6140G3X32.607Y29.109I-2.650J0.000F600.0
N6150G3X29.957Y26.459I0.000J-2.650
N6160G3X32.607Y23.809I2.650J0.000
N6170G3X35.257Y26.459I0.000J2.650
N6180G01Z-0.100F30.0
N6190G3X32.607Y29.109I-2.650J0.000F600.0
N6200G3X29.957Y26.459I0.000J-2.650
N6210G3X32.607Y23.809I2.650J0.000
N6220G3X35.257Y26.459I0.000J2.650
N6230G01Z-0.150F30.0
N6240G3X32.607Y29.109I-2.650J0.000F600.0
N6250G3X29.957Y26.459I0.000J-2.650
N6260G3X32.607Y23.809I2.650J0.000
N6270G3X35.257Y26.459I0.000J2.650
N6280G01Z-0.200F30.0
N6290G3X32.607Y29.109I-2.650J0.000F600.0
N6300G3X29.957Y26.459I0.000J-2.650
N6310G3X32.607Y23.809I2.650J0.000
N6320G3X35.257Y26.459I0.000J2.650
N6330G01Z-0.250F30.0
N6340G3X32.607Y29.109I-2.650J0.000F600.0
N6350G3X29.957Y26.459I0.000J-2.650
N6360G3X32.607Y23.809I2.650J0.000
N6370G3X35.257Y26.459I0.000J2.650
N6380G01Z-0.300F30.0
N6390G3X32.607Y29.109I-2.650J0.000F600.0
N6400G3X29.957Y26.459I0.000J-2.650
N6410G3X32.607Y23.809I2.650J0.000
N6420G3X35.257Y26.459I0.000J2.650
N6430G01Z-0.350F30.0
N6440G3X32.607Y29.109I-2.650J0.000F600.0
N6450G3X29.957Y26.459I0.000J-2.650
N6460G3X32.607Y23.809I2.650J0.000
N6470G3X35.257Y26.459I0.000J2.650
N6480G01Z-0.400F30.0
N6490G3X32.607Y29.109I-2.650J0.000F600.0
N6500G3X29.957Y26.459I0.000J-2.650
N6510G3X32.607Y23.809I2.650J0.000
N6520G3X35.257Y26.459I0.000J2.650
N6530G01Z-0.450F30.0
N6540G3X32.607Y29.109I-2.650J0.000F600.0
N6550G3X29.957Y26.459I0.000J-2.650
N6560G3X32.607Y23.809I2.650J0.000
N6570G3X35.257Y26.459I0.000J2.650
N6580G01Z-0.500F30.0
N6590G3X32.607Y29.109I-2.650J0.000F600.0
N6600G3X29.957Y26.459I0.000J-2.650
N6610G3X32.607Y23.809I2.650J0.000
N6620G3X35.257Y26.459I0.000J2.650
N6630G01Z-0.550F30.0
N6640G3X32.607Y29.109I-2.650J0.000F600.0
N6650G3X29.957Y26.459I0.000J-2.650
N6660G3X32.607Y23.809I2.650J0.000
N6670G3X35.257Y26.459I0.000J2.650
N6680G01Z-0.600F30.0
N6690G3X32.607Y29.109I-2.650J0.000F600.0
N6700G3X29.957Y26.459I0.000J-2.650
N6710G3X32.607Y23.809I2.650J0.000
N6720G3X35.257Y26.459I0.000J2.650
N6730G01Z-0.650F30.0
N6740G3X32.607Y29.109I-2.650J0.000F600.0
N6750G3X29.957Y26.459I0.000J-2.650
N6760G3X32.607Y23.809I2.650J0.000
N6770G3X35.257Y26.459I0.000J2.650
N6780G01Z-0.700F30.0
N6790G3X32.607Y29.109I-2.650J0.000F600.0
N6800G3X29.957Y26.459I0.000J-2.650
N6810G3X32.607Y23.809I2.650J0.000
N6820G3X35.257Y26.459I0.000J2.650
N6830G01Z-0.750F30.0
N6840G3X32.607Y29.109I-2.650J0.000F600.0
N6850G3X29.957Y26.459I0.000J-2.650
N6860G3X32.607Y23.809I2.650J0.000
N6870G3X35.257Y26.459I0.000J2.650
N6880G01Z-0.800F30.0
N6890G3X32.607Y29.109I-2.650J0.000F600.0
N6900G3X29.957Y26.459I0.000J-2.650
N6910G3X32.607Y23.809I2.650J0.000
N6920G3X35.257Y26.459I0.000J2.650
N6930G01Z-0.850F30.0
N6940G3X32.607Y29.109I-2.650J0.000F600.0
N6950G3X29.957Y26.459I0.000J-2.650
N6960G3X32.607Y23.809I2.650J0.000
N6970G3X35.257Y26.459I0.000J2.650
N6980G01Z-0.900F30.0
N6990G3X32.607Y29.109I-2.650J0.000F600.0
N7000G3X29.957Y26.459I0.000J-2.650
N7010G3X32.607Y23.809I2.650J0.000
N7020G3X35.257Y26.459I0.000J2.650
N7030G01Z-0.950F30.0
N7040G3X32.607Y29.109I-2.650J0.000F600.0
N7050G3X29.957Y26.459I0.000J-2.650
N7060G3X32.607Y23.809I2.650J0.000
N7070G3X35.257Y26.459I0.000J2.650
N7080G01Z-1.000F30.0
N7090G3X32.607Y29.109I-2.650J0.000F600.0
N7100G3X29.957Y26.459I0.000J-2.650
N7110G3X32.607Y23.809I2.650J0.000
N7120G3X35.257Y26.459I0.000J2.650
N7130G01Z-1.050F30.0
N7140G3X32.607Y29.109I-2.650J0.000F600.0
N7150G3X29.957Y26.459I0.000J-2.650
N7160G3X32.607Y23.809I2.650J0.000
N7170G3X35.257Y26.459I0.000J2.650
N7180G01Z-1.100F30.0
N7190G3X32.607Y29.109I-2.650J0.000F600.0
N7200G3X29.957Y26.459I0.000J-2.650
N7210G3X32.607Y23.809I2.650J0.000
N7220G3X35.257Y26.459I0.000J2.650
N7230G01Z-1.150F30.0
N7240G3X32.607Y29.109I-2.650J0.000F600.0
N7250G3X29.957Y26.459I0.000J-2.650
N7260G3X32.607Y23.809I2.650J0.000
N7270G3X35.257Y26.459I0.000J2.650
N7280G01Z-1.200F30.0
N7290G3X32.607Y29.109I-2.650J0.000F600.0
N7300G3X29.957Y26.459I0.000J-2.650
N7310G3X32.607Y23.809I2.650J0.000
N7320G3X35.257Y26.459I0.000J2.650
N7330G01Z-1.250F30.0
N7340G3X32.607Y29.109I-2.650J0.000F600.0
N7350G3X29.957Y26.459I0.000J-2.650
N7360G3X32.607Y23.809I2.650J0.000
N7370G3X35.257Y26.459I0.000J2.650
N7380G01Z-1.300F30.0
N7390G3X32.607Y29.109I-2.650J0.000F600.0
N7400G3X29.957Y26.459I0.000J-2.650
N7410G3X32.607Y23.809I2.650J0.000
N7420G3X35.257Y26.459I0.000J2.650
N7430G01Z-1.350F30.0
N7440G3X32.607Y29.109I-2.650J0.000F600.0
N7450G3X29.957Y26.459I0.000J-2.650
N7460G3X32.607Y23.809I2.650J0.000
N7470G3X35.257Y26.459I0.000J2.650
N7480G01Z-1.400F30.0
N7490G3X32.607Y29.109I-2.650J0.000F600.0
N7500G3X29.957Y26.459I0.000J-2.650
N7510G3X32.607Y23.809I2.650J0.000
N7520G3X35.257Y26.459I0.000J2.650
N7530G01Z-1.450F30.0
N7540G3X32.607Y29.109I-2.650J0.000F600.0
N7550G3X29.957Y26.459I0.000J-2.650
N7560G3X32.607Y23.809I2.650J0.000
N7570G3X35.257Y26.459I0.000J2.650
N7580G01Z-1.500F30.0
N7590G3X32.607Y29.109I-2.650J0.000F600.0
N7600G3X29.957Y26.459I0.000J-2.650
N7610G3X32.607Y23.809I2.650J0.000
N7620G3X35.257Y26.459I0.000J2.650
N7630G01Z-1.550F30.0
N7640G3X32.607Y29.109I-2.650J0.000F600.0
N7650G3X29.957Y26.459I0.000J-2.650
N7660G3X32.607Y23.809I2.650J0.000
N7670G3X35.257Y26.459I0.000J2.650
N7680G01Z-1.600F30.0
N7690G3X32.607Y29.109I-2.650J0.000F600.0
N7700G3X29.957Y26.459I0.000J-2.650
N7710G3X32.607Y23.809I2.650J0.000
N7720G3X35.257Y26.459I0.000J2.650
N7730G01Z-1.650F30.0
N7740G3X32.607Y29.109I-2.650J0.000F600.0
N7750G3X29.957Y26.459I0.000J-2.650
N7760G3X32.607Y23.809I2.650J0.000
N7770G3X35.257Y26.459I0.000J2.650
N7780G01Z-1.700F30.0
N7790G3X32.607Y29.109I-2.650J0.000F600.0
N7800G3X29.957Y26.459I0.000J-2.650
N7810G3X32.607Y23.809I2.650J0.000
N7820G3X35.257Y26.459I0.000J2.650
N7830G01Z-1.750F30.0
N7840G3X32.607Y29.109I-2.650J0.000F600.0
N7850G3X29.957Y26.459I0.000J-2.650
N7860G3X32.607Y23.809I2.650J0.000
N7870G3X35.257Y26.459I0.000J2.650
N7880G01Z-1.800F30.0
N7890G3X32.607Y29.109I-2.650J0.000F600.0
N7900G3X29.957Y26.459I0.000J-2.650
N7910G3X32.607Y23.809I2.650J0.000
N7920G3X35.257Y26.459I0.000J2.650
N7930G01Z-1.850F30.0
N7940G3X32.607Y29.109I-2.650J0.000F600.0
N7950G3X29.957Y26.459I0.000J-2.650
N7960G3X32.607Y23.809I2.650J0.000
N7970G3X35.257Y26.459I0.000J2.650
N7980G01Z-1.900F30.0
N7990G3X32.607Y29.109I-2.650J0.000F600.0
N8000G3X29.957Y26.459I0.000J-2.650
N8010G3X32.607Y23.809I2.650J0.000
N8020G3X35.257Y26.459I0.000J2.650
N8030G01Z-1.950F30.0
N8040G3X32.607Y29.109I-2.650J0.000F600.0
N8050G3X29.957Y26.459I0.000J-2.650
N8060G3X32.607Y23.809I2.650J0.000
N8070G3X35.257Y26.459I0.000J2.650
N8080G01Z-2.000F30.0
N8090G3X32.607Y29.109I-2.650J0.000F600.0
N8100G3X29.957Y26.459I0.000J-2.650
N8110G3X32.607Y23.809I2.650J0.000
N8120G3X35.257Y26.459I0.000J2.650
N8130G01Z-2.050F30.0
N8140G3X32.607Y29.109I-2.650J0.000F600.0
N8150G3X29.957Y26.459I0.000J-2.650
N8160G3X32.607Y23.809I2.650J0.000
N8170G3X35.257Y26.459I0.000J2.650
N8180G01Z-2.100F30.0
N8190G3X32.607Y29.109I-2.650J0.000F600.0
N8200G3X29.957Y26.459I0.000J-2.650
N8210G3X32.607Y23.809I2.650J0.000
N8220G3X35.257Y26.459I0.000J2.650
N8230G01Z-2.150F30.0
N8240G3X32.607Y29.109I-2.650J0.000F600.0
N8250G3X29.957Y26.459I0.000J-2.650
N8260G3X32.607Y23.809I2.650J0.000
N8270G3X35.257Y26.459I0.000J2.650
N8280G01Z-2.200F30.0
N8290G3X32.607Y29.109I-2.650J0.000F600.0
N8300G3X29.957Y26.459I0.000J-2.650
N8310G3X32.607Y23.809I2.650J0.000
N8320G3X35.257Y26.459I0.000J2.650
N8330G01Z-2.250F30.0
N8340G3X32.607Y29.109I-2.650J0.000F600.0
N8350G3X29.957Y26.459I0.000J-2.650
N8360G3X32.607Y23.809I2.650J0.000
N8370G3X35.257Y26.459I0.000J2.650
N8380G01Z-2.300F30.0
N8390G3X32.607Y29.109I-2.650J0.000F600.0
N8400G3X29.957Y26.459I0.000J-2.650
N8410G3X32.607Y23.809I2.650J0.000
N8420G3X35.257Y26.459I0.000J2.650
N8430G01Z-2.350F30.0
N8440G3X32.607Y29.109I-2.650J0.000F600.0
N8450G3X29.957Y26.459I0.000J-2.650
N8460G3X32.607Y23.809I2.650J0.000
N8470G3X35.257Y26.459I0.000J2.650
N8480G01Z-2.400F30.0
N8490G3X32.607Y29.109I-2.650J0.000F600.0
N8500G3X29.957Y26.459I0.000J-2.650
N8510G3X32.607Y23.809I2.650J0.000
N8520G3X35.257Y26.459I0.000J2.650
N8530G01Z-2.450F30.0
N8540G3X32.607Y29.109I-2.650J0.000F600.0
N8550G3X29.957Y26.459I0.000J-2.650
N8560G3X32.607Y23.809I2.650J0.000
N8570G3X35.257Y26.459I0.000J2.650
N8580G01Z-2.500F30.0
N8590G3X32.607Y29.109I-2.650J0.000F600.0
N8600G3X29.957Y26.459I0.000J-2.650
N8610G3X32.607Y23.809I2.650J0.000
N8620G3X35.257Y26.459I0.000J2.650
N8630G01Z-2.550F30.0
N8640G3X32.607Y29.109I-2.650J0.000F600.0
N8650G3X29.957Y26.459I0.000J-2.650
N8660G3X32.607Y23.809I2.650J0.000
N8670G3X35.257Y26.459I0.000J2.650
N8680G01Z-2.600F30.0
N8690G3X32.607Y29.109I-2.650J0.000F600.0
N8700G3X29.957Y26.459I0.000J-2.650
N8710G3X32.607Y23.809I2.650J0.000
N8720G3X35.257Y26.459I0.000J2.650
N8730G01Z-2.650F30.0
N8740G3X32.607Y29.109I-2.650J0.000F600.0
N8750G3X29.957Y26.459I0.000J-2.650
N8760G3X32.607Y23.809I2.650J0.000
N8770G3X35.257Y26.459I0.000J2.650
N8780G01Z-2.700F30.0
N8790G3X32.607Y29.109I-2.650J0.000F600.0
N8800G3X29.957Y26.459I0.000J-2.650
N8810G3X32.607Y23.809I2.650J0.000
N8820G3X35.257Y26.459I0.000J2.650
N8830G01Z-2.750F30.0
N8840G3X32.607Y29.109I-2.650J0.000F600.0
N8850G3X29.957Y26.459I0.000J-2.650
N8860G3X32.607Y23.809I2.650J0.000
N8870G3X35.257Y26.459I0.000J2.650
N8880G01Z-2.800F30.0
N8890G3X32.607Y29.109I-2.650J0.000F600.0
N8900G3X29.957Y26.459I0.000J-2.650
N8910G3X32.607Y23.809I2.650J0.000
N8920G3X35.257Y26.459I0.000J2.650
N8930G01Z-2.850F30.0
N8940G3X32.607Y29.109I-2.650J0.000F600.0
N8950G3X29.957Y26.459I0.000J-2.650
N8960G3X32.607Y23.809I2.650J0.000
N8970G3X35.257Y26.459I0.000J2.650
N8980G01Z-2.900F30.0
N8990G3X32.607Y29.109I-2.650J0.000F600.0
N9000G3X29.957Y26.459I0.000J-2.650
N9010G3X32.607Y23.809I2.650J0.000
N9020G3X35.257Y26.459I0.000J2.650
N9030G01Z-2.950F30.0
N9040G3X32.607Y29.109I-2.650J0.000F600.0
N9050G3X29.957Y26.459I0.000J-2.650
N9060G3X32.607Y23.809I2.650J0.000
N9070G3X35.257Y26.459I0.000J2.650
N9080G01Z-3.000F30.0
N9090G3X32.607Y29.109I-2.650J0.000F600.0
N9100G3X29.957Y26.459I0.000J-2.650
N9110G3X32.607Y23.809I2.650J0.000
N9120G3X35.257Y26.459I0.000J2.650
N9130G00Z6.000
N9140G00X41.257
N9150G01Z-0.050F30.0
N9160G3X40.607Y27.109I-0.650J0.000F600.0
N9170G3X39.957Y26.459I0.000J-0.650
N9180G3X40.607Y25.809I0.650J0.000
N9190G3X41.257Y26.459I0.000J0.650
N9200G01Z-0.100F30.0
N9210G3X40.607Y27.109I-0.650J0.000F600.0
N9220G3X39.957Y26.459I0.000J-0.650
N9230G3X40.607Y25.809I0.650J0.000
N9240G3X41.257Y26.459I0.000J0.650
N9250G01Z-0.150F30.0
N9260G3X40.607Y27.109I-0.650J0.000F600.0
N9270G3X39.957Y26.459I0.000J-0.650
N9280G3X40.607Y25.809I0.650J0.000
N9290G3X41.257Y26.459I0.000J0.650
N9300G01Z-0.200F30.0
N9310G3X40.607Y27.109I-0.650J0.000F600.0
N9320G3X39.957Y26.459I0.000J-0.650
N9330G3X40.607Y25.809I0.650J0.000
N9340G3X41.257Y26.459I0.000J0.650
N9350G01Z-0.250F30.0
N9360G3X40.607Y27.109I-0.650J0.000F600.0
N9370G3X39.957Y26.459I0.000J-0.650
N9380G3X40.607Y25.809I0.650J0.000
N9390G3X41.257Y26.459I0.000J0.650
N9400G01Z-0.300F30.0
N9410G3X40.607Y27.109I-0.650J0.000F600.0
N9420G3X39.957Y26.459I0.000J-0.650
N9430G3X40.607Y25.809I0.650J0.000
N9440G3X41.257Y26.459I0.000J0.650
N9450G01Z-0.350F30.0
N9460G3X40.607Y27.109I-0.650J0.000F600.0
N9470G3X39.957Y26.459I0.000J-0.650
N9480G3X40.607Y25.809I0.650J0.000
N9490G3X41.257Y26.459I0.000J0.650
N9500G01Z-0.400F30.0
N9510G3X40.607Y27.109I-0.650J0.000F600.0
N9520G3X39.957Y26.459I0.000J-0.650
N9530G3X40.607Y25.809I0.650J0.000
N9540G3X41.257Y26.459I0.000J0.650
N9550G01Z-0.450F30.0
N9560G3X40.607Y27.109I-0.650J0.000F600.0
N9570G3X39.957Y26.459I0.000J-0.650
N9580G3X40.607Y25.809I0.650J0.000
N9590G3X41.257Y26.459I0.000J0.650
N9600G01Z-0.500F30.0
N9610G3X40.607Y27.109I-0.650J0.000F600.0
N9620G3X39.957Y26.459I0.000J-0.650
N9630G3X40.607Y25.809I0.650J0.000
N9640G3X41.257Y26.459I0.000J0.650
N9650G01Z-0.550F30.0
N9660G3X40.607Y27.109I-0.650J0.000F600.0
N9670G3X39.957Y26.459I0.000J-0.650
N9680G3X40.607Y25.809I0.650J0.000
N9690G3X41.257Y26.459I0.000J0.650
N9700G01Z-0.600F30.0
N9710G3X40.607Y27.109I-0.650J0.000F600.0
N9720G3X39.957Y26.459I0.000J-0.650
N9730G3X40.607Y25.809I0.650J0.000
N9740G3X41.257Y26.459I0.000J0.650
N9750G01Z-0.650F30.0
N9760G3X40.607Y27.109I-0.650J0.000F600.0
N9770G3X39.957Y26.459I0.000J-0.650
N9780G3X40.607Y25.809I0.650J0.000
N9790G3X41.257Y26.459I0.000J0.650
N9800G01Z-0.700F30.0
N9810G3X40.607Y27.109I-0.650J0.000F600.0
N9820G3X39.957Y26.459I0.000J-0.650
N9830G3X40.607Y25.809I0.650J0.000
N9840G3X41.257Y26.459I0.000J0.650
N9850G01Z-0.750F30.0
N9860G3X40.607Y27.109I-0.650J0.000F600.0
N9870G3X39.957Y26.459I0.000J-0.650
N9880G3X40.607Y25.809I0.650J0.000
N9890G3X41.257Y26.459I0.000J0.650
N9900G01Z-0.800F30.0
N9910G3X40.607Y27.109I-0.650J0.000F600.0
N9920G3X39.957Y26.459I0.000J-0.650
N9930G3X40.607Y25.809I0.650J0.000
N9940G3X41.257Y26.459I0.000J0.650
N9950G01Z-0.850F30.0
N9960G3X40.607Y27.109I-0.650J0.000F600.0
N9970G3X39.957Y26.459I0.000J-0.650
N9980G3X40.607Y25.809I0.650J0.000
N9990G3X41.257Y26.459I0.000J0.650
N10000G01Z-0.900F30.0
N10010G3X40.607Y27.109I-0.650J0.000F600.0
N10020G3X39.957Y26.459I0.000J-0.650
N10030G3X40.607Y25.809I0.650J0.000
N10040G3X41.257Y26.459I0.000J0.650
N10050G01Z-0.950F30.0
N10060G3X40.607Y27.109I-0.650J0.000F600.0
N10070G3X39.957Y26.459I0.000J-0.650
N10080G3X40.607Y25.809I0.650J0.000
N10090G3X41.257Y26.459I0.000J0.650
N10100G01Z-1.000F30.0
N10110G3X40.607Y27.109I-0.650J0.000F600.0
N10120G3X39.957Y26.459I0.000J-0.650
N10130G3X40.607Y25.809I0.650J0.000
N10140G3X41.257Y26.459I0.000J0.650
N10150G01Z-1.050F30.0
N10160G3X40.607Y27.109I-0.650J0.000F600.0
N10170G3X39.957Y26.459I0.000J-0.650
N10180G3X40.607Y25.809I0.650J0.000
N10190G3X41.257Y26.459I0.000J0.650
N10200G01Z-1.100F30.0
N10210G3X40.607Y27.109I-0.650J0.000F600.0
N10220G3X39.957Y26.459I0.000J-0.650
N10230G3X40.607Y25.809I0.650J0.000
N10240G3X41.257Y26.459I0.000J0.650
N10250G01Z-1.150F30.0
N10260G3X40.607Y27.109I-0.650J0.000F600.0
N10270G3X39.957Y26.459I0.000J-0.650
N10280G3X40.607Y25.809I0.650J0.000
N10290G3X41.257Y26.459I0.000J0.650
N10300G01Z-1.200F30.0
N10310G3X40.607Y27.109I-0.650J0.000F600.0
N10320G3X39.957Y26.459I0.000J-0.650
N10330G3X40.607Y25.809I0.650J0.000
N10340G3X41.257Y26.459I0.000J0.650
N10350G01Z-1.250F30.0
N10360G3X40.607Y27.109I-0.650J0.000F600.0
N10370G3X39.957Y26.459I0.000J-0.650
N10380G3X40.607Y25.809I0.650J0.000
N10390G3X41.257Y26.459I0.000J0.650
N10400G01Z-1.300F30.0
N10410G3X40.607Y27.109I-0.650J0.000F600.0
N10420G3X39.957Y26.459I0.000J-0.650
N10430G3X40.607Y25.809I0.650J0.000
N10440G3X41.257Y26.459I0.000J0.650
N10450G01Z-1.350F30.0
N10460G3X40.607Y27.109I-0.650J0.000F600.0
N10470G3X39.957Y26.459I0.000J-0.650
N10480G3X40.607Y25.809I0.650J0.000
N10490G3X41.257Y26.459I0.000J0.650
N10500G01Z-1.400F30.0
N10510G3X40.607Y27.109I-0.650J0.000F600.0
N10520G3X39.957Y26.459I0.000J-0.650
N10530G3X40.607Y25.809I0.650J0.000
N10540G3X41.257Y26.459I0.000J0.650
N10550G01Z-1.450F30.0
N10560G3X40.607Y27.109I-0.650J0.000F600.0
N10570G3X39.957Y26.459I0.000J-0.650
N10580G3X40.607Y25.809I0.650J0.000
N10590G3X41.257Y26.459I0.000J0.650
N10600G01Z-1.500F30.0
N10610G3X40.607Y27.109I-0.650J0.000F600.0
N10620G3X39.957Y26.459I0.000J-0.650
N10630G3X40.607Y25.809I0.650J0.000
N10640G3X41.257Y26.459I0.000J0.650
N10650G01Z-1.550F30.0
N10660G3X40.607Y27.109I-0.650J0.000F600.0
N10670G3X39.957Y26.459I0.000J-0.650
N10680G3X40.607Y25.809I0.650J0.000
N10690G3X41.257Y26.459I0.000J0.650
N10700G01Z-1.600F30.0
N10710G3X40.607Y27.109I-0.650J0.000F600.0
N10720G3X39.957Y26.459I0.000J-0.650
N10730G3X40.607Y25.809I0.650J0.000
N10740G3X41.257Y26.459I0.000J0.650
N10750G01Z-1.650F30.0
N10760G3X40.607Y27.109I-0.650J0.000F600.0
N10770G3X39.957Y26.459I0.000J-0.650
N10780G3X40.607Y25.809I0.650J0.000
N10790G3X41.257Y26.459I0.000J0.650
N10800G01Z-1.700F30.0
N10810G3X40.607Y27.109I-0.650J0.000F600.0
N10820G3X39.957Y26.459I0.000J-0.650
N10830G3X40.607Y25.809I0.650J0.000
N10840G3X41.257Y26.459I0.000J0.650
N10850G01Z-1.750F30.0
N10860G3X40.607Y27.109I-0.650J0.000F600.0
N10870G3X39.957Y26.459I0.000J-0.650
N10880G3X40.607Y25.809I0.650J0.000
N10890G3X41.257Y26.459I0.000J0.650
N10900G01Z-1.800F30.0
N10910G3X40.607Y27.109I-0.650J0.000F600.0
N10920G3X39.957Y26.459I0.000J-0.650
N10930G3X40.607Y25.809I0.650J0.000
N10940G3X41.257Y26.459I0.000J0.650
N10950G01Z-1.850F30.0
N10960G3X40.607Y27.109I-0.650J0.000F600.0
N10970G3X39.957Y26.459I0.000J-0.650
N10980G3X40.607Y25.809I0.650J0.000
N10990G3X41.257Y26.459I0.000J0.650
N11000G01Z-1.900F30.0
N11010G3X40.607Y27.109I-0.650J0.000F600.0
N11020G3X39.957Y26.459I0.000J-0.650
N11030G3X40.607Y25.809I0.650J0.000
N11040G3X41.257Y26.459I0.000J0.650
N11050G01Z-1.950F30.0
N11060G3X40.607Y27.109I-0.650J0.000F600.0
N11070G3X39.957Y26.459I0.000J-0.650
N11080G3X40.607Y25.809I0.650J0.000
N11090G3X41.257Y26.459I0.000J0.650
N11100G01Z-2.000F30.0
N11110G3X40.607Y27.109I-0.650J0.000F600.0
N11120G3X39.957Y26.459I0.000J-0.650
N11130G3X40.607Y25.809I0.650J0.000
N11140G3X41.257Y26.459I0.000J0.650
N11150G01Z-2.050F30.0
N11160G3X40.607Y27.109I-0.650J0.000F600.0
N11170G3X39.957Y26.459I0.000J-0.650
N11180G3X40.607Y25.809I0.650J0.000
N11190G3X41.257Y26.459I0.000J0.650
N11200G01Z-2.100F30.0
N11210G3X40.607Y27.109I-0.650J0.000F600.0
N11220G3X39.957Y26.459I0.000J-0.650
N11230G3X40.607Y25.809I0.650J0.000
N11240G3X41.257Y26.459I0.000J0.650
N11250G01Z-2.150F30.0
N11260G3X40.607Y27.109I-0.650J0.000F600.0
N11270G3X39.957Y26.459I0.000J-0.650
N11280G3X40.607Y25.809I0.650J0.000
N11290G3X41.257Y26.459I0.000J0.650
N11300G01Z-2.200F30.0
N11310G3X40.607Y27.109I-0.650J0.000F600.0
N11320G3X39.957Y26.459I0.000J-0.650
N11330G3X40.607Y25.809I0.650J0.000
N11340G3X41.257Y26.459I0.000J0.650
N11350G01Z-2.250F30.0
N11360G3X40.607Y27.109I-0.650J0.000F600.0
N11370G3X39.957Y26.459I0.000J-0.650
N11380G3X40.607Y25.809I0.650J0.000
N11390G3X41.257Y26.459I0.000J0.650
N11400G01Z-2.300F30.0
N11410G3X40.607Y27.109I-0.650J0.000F600.0
N11420G3X39.957Y26.459I0.000J-0.650
N11430G3X40.607Y25.809I0.650J0.000
N11440G3X41.257Y26.459I0.000J0.650
N11450G01Z-2.350F30.0
N11460G3X40.607Y27.109I-0.650J0.000F600.0
N11470G3X39.957Y26.459I0.000J-0.650
N11480G3X40.607Y25.809I0.650J0.000
N11490G3X41.257Y26.459I0.000J0.650
N11500G01Z-2.400F30.0
N11510G3X40.607Y27.109I-0.650J0.000F600.0
N11520G3X39.957Y26.459I0.000J-0.650
N11530G3X40.607Y25.809I0.650J0.000
N11540G3X41.257Y26.459I0.000J0.650
N11550G01Z-2.450F30.0
N11560G3X40.607Y27.109I-0.650J0.000F600.0
N11570G3X39.957Y26.459I0.000J-0.650
N11580G3X40.607Y25.809I0.650J0.000
N11590G3X41.257Y26.459I0.000J0.650
N11600G01Z-2.500F30.0
N11610G3X40.607Y27.109I-0.650J0.000F600.0
N11620G3X39.957Y26.459I0.000J-0.650
N11630G3X40.607Y25.809I0.650J0.000
N11640G3X41.257Y26.459I0.000J0.650
N11650G01Z-2.550F30.0
N11660G3X40.607Y27.109I-0.650J0.000F600.0
N11670G3X39.957Y26.459I0.000J-0.650
N11680G3X40.607Y25.809I0.650J0.000
N11690G3X41.257Y26.459I0.000J0.650
N11700G01Z-2.600F30.0
N11710G3X40.607Y27.109I-0.650J0.000F600.0
N11720G3X39.957Y26.459I0.000J-0.650
N11730G3X40.607Y25.809I0.650J0.000
N11740G3X41.257Y26.459I0.000J0.650
N11750G01Z-2.650F30.0
N11760G3X40.607Y27.109I-0.650J0.000F600.0
N11770G3X39.957Y26.459I0.000J-0.650
N11780G3X40.607Y25.809I0.650J0.000
N11790G3X41.257Y26.459I0.000J0.650
N11800G01Z-2.700F30.0
N11810G3X40.607Y27.109I-0.650J0.000F600.0
N11820G3X39.957Y26.459I0.000J-0.650
N11830G3X40.607Y25.809I0.650J0.000
N11840G3X41.257Y26.459I0.000J0.650
N11850G01Z-2.750F30.0
N11860G3X40.607Y27.109I-0.650J0.000F600.0
N11870G3X39.957Y26.459I0.000J-0.650
N11880G3X40.607Y25.809I0.650J0.000
N11890G3X41.257Y26.459I0.000J0.650
N11900G01Z-2.800F30.0
N11910G3X40.607Y27.109I-0.650J0.000F600.0
N11920G3X39.957Y26.459I0.000J-0.650
N11930G3X40.607Y25.809I0.650J0.000
N11940G3X41.257Y26.459I0.000J0.650
N11950G01Z-2.850F30.0
N11960G3X40.607Y27.109I-0.650J0.000F600.0
N11970G3X39.957Y26.459I0.000J-0.650
N11980G3X40.607Y25.809I0.650J0.000
N11990G3X41.257Y26.459I0.000J0.650
N12000G01Z-2.900F30.0
N12010G3X40.607Y27.109I-0.650J0.000F600.0
N12020G3X39.957Y26.459I0.000J-0.650
N12030G3X40.607Y25.809I0.650J0.000
N12040G3X41.257Y26.459I0.000J0.650
N12050G01Z-2.950F30.0
N12060G3X40.607Y27.109I-0.650J0.000F600.0
N12070G3X39.957Y26.459I0.000J-0.650
N12080G3X40.607Y25.809I0.650J0.000
N12090G3X41.257Y26.459I0.000J0.650
N12100G01Z-3.000F30.0
N12110G3X40.607Y27.109I-0.650J0.000F600.0
N12120G3X39.957Y26.459I0.000J-0.650
N12130G3X40.607Y25.809I0.650J0.000
N12140G3X41.257Y26.459I0.000J0.650
N12150G00Z6.000
N12160G00X43.667Y37.419
N12170G01Z-0.050F30.0
N12180G01X43.567Y37.519F600.0
N12190X43.467Y37.419
N12200X43.567Y37.319
N12210X43.667Y37.419
N12220G01Z-0.100F30.0
N12230G01X43.567Y37.519F600.0
N12240X43.467Y37.419
N12250X43.567Y37.319
N12260X43.667Y37.419
N12270G01Z-0.150F30.0
N12280G01X43.567Y37.519F600.0
N12290X43.467Y37.419
N12300X43.567Y37.319
N12310X43.667Y37.419
N12320G01Z-0.200F30.0
N12330G01X43.567Y37.519F600.0
N12340X43.467Y37.419
N12350X43.567Y37.319
N12360X43.667Y37.419
N12370G01Z-0.250F30.0
N12380G01X43.567Y37.519F600.0
N12390X43.467Y37.419
N12400X43.567Y37.319
N12410X43.667Y37.419
N12420G01Z-0.300F30.0
N12430G01X43.567Y37.519F600.0
N12440X43.467Y37.419
N12450X43.567Y37.319
N12460X43.667Y37.419
N12470G01Z-0.350F30.0
N12480G01X43.567Y37.519F600.0
N12490X43.467Y37.419
N12500X43.567Y37.319
N12510X43.667Y37.419
N12520G01Z-0.400F30.0
N12530G01X43.567Y37.519F600.0
N12540X43.467Y37.419
N12550X43.567Y37.319
N12560X43.667Y37.419
N12570G01Z-0.450F30.0
N12580G01X43.567Y37.519F600.0
N12590X43.467Y37.419
N12600X43.567Y37.319
N12610X43.667Y37.419
N12620G01Z-0.500F30.0
N12630G01X43.567Y37.519F600.0
N12640X43.467Y37.419
N12650X43.567Y37.319
N12660X43.667Y37.419
N12670G01Z-0.550F30.0
N12680G01X43.567Y37.519F600.0
N12690X43.467Y37.419
N12700X43.567Y37.319
N12710X43.667Y37.419
N12720G01Z-0.600F30.0
N12730G01X43.567Y37.519F600.0
N12740X43.467Y37.419
N12750X43.567Y37.319
N12760X43.667Y37.419
N12770G01Z-0.650F30.0
N12780G01X43.567Y37.519F600.0
N12790X43.467Y37.419
N12800X43.567Y37.319
N12810X43.667Y37.419
N12820G01Z-0.700F30.0
N12830G01X43.567Y37.519F600.0
N12840X43.467Y37.419
N12850X43.567Y37.319
N12860X43.667Y37.419
N12870G01Z-0.750F30.0
N12880G01X43.567Y37.519F600.0
N12890X43.467Y37.419
N12900X43.567Y37.319
N12910X43.667Y37.419
N12920G01Z-0.800F30.0
N12930G01X43.567Y37.519F600.0
N12940X43.467Y37.419
N12950X43.567Y37.319
N12960X43.667Y37.419
N12970G01Z-0.850F30.0
N12980G01X43.567Y37.519F600.0
N12990X43.467Y37.419
N13000X43.567Y37.319
N13010X43.667Y37.419
N13020G01Z-0.900F30.0
N13030G01X43.567Y37.519F600.0
N13040X43.467Y37.419
N13050X43.567Y37.319
N13060X43.667Y37.419
N13070G01Z-0.950F30.0
N13080G01X43.567Y37.519F600.0
N13090X43.467Y37.419
N13100X43.567Y37.319
N13110X43.667Y37.419
N13120G01Z-1.000F30.0
N13130G01X43.567Y37.519F600.0
N13140X43.467Y37.419
N13150X43.567Y37.319
N13160X43.667Y37.419
N13170G01Z-1.050F30.0
N13180G01X43.567Y37.519F600.0
N13190X43.467Y37.419
N13200X43.567Y37.319
N13210X43.667Y37.419
N13220G01Z-1.100F30.0
N13230G01X43.567Y37.519F600.0
N13240X43.467Y37.419
N13250X43.567Y37.319
N13260X43.667Y37.419
N13270G01Z-1.150F30.0
N13280G01X43.567Y37.519F600.0
N13290X43.467Y37.419
N13300X43.567Y37.319
N13310X43.667Y37.419
N13320G01Z-1.200F30.0
N13330G01X43.567Y37.519F600.0
N13340X43.467Y37.419
N13350X43.567Y37.319
N13360X43.667Y37.419
N13370G01Z-1.250F30.0
N13380G01X43.567Y37.519F600.0
N13390X43.467Y37.419
N13400X43.567Y37.319
N13410X43.667Y37.419
N13420G01Z-1.300F30.0
N13430G01X43.567Y37.519F600.0
N13440X43.467Y37.419
N13450X43.567Y37.319
N13460X43.667Y37.419
N13470G01Z-1.350F30.0
N13480G01X43.567Y37.519F600.0
N13490X43.467Y37.419
N13500X43.567Y37.319
N13510X43.667Y37.419
N13520G01Z-1.400F30.0
N13530G01X43.567Y37.519F600.0
N13540X43.467Y37.419
N13550X43.567Y37.319
N13560X43.667Y37.419
N13570G01Z-1.450F30.0
N13580G01X43.567Y37.519F600.0
N13590X43.467Y37.419
N13600X43.567Y37.319
N13610X43.667Y37.419
N13620G01Z-1.500F30.0
N13630G01X43.567Y37.519F600.0
N13640X43.467Y37.419
N13650X43.567Y37.319
N13660X43.667Y37.419
N13670G01Z-1.550F30.0
N13680G01X43.567Y37.519F600.0
N13690X43.467Y37.419
N13700X43.567Y37.319
N13710X43.667Y37.419
N13720G01Z-1.600F30.0
N13730G01X43.567Y37.519F600.0
N13740X43.467Y37.419
N13750X43.567Y37.319
N13760X43.667Y37.419
N13770G01Z-1.650F30.0
N13780G01X43.567Y37.519F600.0
N13790X43.467Y37.419
N13800X43.567Y37.319
N13810X43.667Y37.419
N13820G01Z-1.700F30.0
N13830G01X43.567Y37.519F600.0
N13840X43.467Y37.419
N13850X43.567Y37.319
N13860X43.667Y37.419
N13870G01Z-1.750F30.0
N13880G01X43.567Y37.519F600.0
N13890X43.467Y37.419
N13900X43.567Y37.319
N13910X43.667Y37.419
N13920G01Z-1.800F30.0
N13930G01X43.567Y37.519F600.0
N13940X43.467Y37.419
N13950X43.567Y37.319
N13960X43.667Y37.419
N13970G01Z-1.850F30.0
N13980G01X43.567Y37.519F600.0
N13990X43.467Y37.419
N14000X43.567Y37.319
N14010X43.667Y37.419
N14020G01Z-1.900F30.0
N14030G01X43.567Y37.519F600.0
N14040X43.467Y37.419
N14050X43.567Y37.319
N14060X43.667Y37.419
N14070G01Z-1.950F30.0
N14080G01X43.567Y37.519F600.0
N14090X43.467Y37.419
N14100X43.567Y37.319
N14110X43.667Y37.419
N14120G01Z-2.000F30.0
N14130G01X43.567Y37.519F600.0
N14140X43.467Y37.419
N14150X43.567Y37.319
N14160X43.667Y37.419
N14170G01Z-2.050F30.0
N14180G01X43.567Y37.519F600.0
N14190X43.467Y37.419
N14200X43.567Y37.319
N14210X43.667Y37.419
N14220G01Z-2.100F30.0
N14230G01X43.567Y37.519F600.0
N14240X43.467Y37.419
N14250X43.567Y37.319
N14260X43.667Y37.419
N14270G01Z-2.150F30.0
N14280G01X43.567Y37.519F600.0
N14290X43.467Y37.419
N14300X43.567Y37.319
N14310X43.667Y37.419
N14320G01Z-2.200F30.0
N14330G01X43.567Y37.519F600.0
N14340X43.467Y37.419
N14350X43.567Y37.319
N14360X43.667Y37.419
N14370G01Z-2.250F30.0
N14380G01X43.567Y37.519F600.0
N14390X43.467Y37.419
N14400X43.567Y37.319
N14410X43.667Y37.419
N14420G01Z-2.300F30.0
N14430G01X43.567Y37.519F600.0
N14440X43.467Y37.419
N14450X43.567Y37.319
N14460X43.667Y37.419
N14470G01Z-2.350F30.0
N14480G01X43.567Y37.519F600.0
N14490X43.467Y37.419
N14500X43.567Y37.319
N14510X43.667Y37.419
N14520G01Z-2.400F30.0
N14530G01X43.567Y37.519F600.0
N14540X43.467Y37.419
N14550X43.567Y37.319
N14560X43.667Y37.419
N14570G01Z-2.450F30.0
N14580G01X43.567Y37.519F600.0
N14590X43.467Y37.419
N14600X43.567Y37.319
N14610X43.667Y37.419
N14620G01Z-2.500F30.0
N14630G01X43.567Y37.519F600.0
N14640X43.467Y37.419
N14650X43.567Y37.319
N14660X43.667Y37.419
N14670G01Z-2.550F30.0
N14680G01X43.567Y37.519F600.0
N14690X43.467Y37.419
N14700X43.567Y37.319
N14710X43.667Y37.419
N14720G01Z-2.600F30.0
N14730G01X43.567Y37.519F600.0
N14740X43.467Y37.419
N14750X43.567Y37.319
N14760X43.667Y37.419
N14770G01Z-2.650F30.0
N14780G01X43.567Y37.519F600.0
N14790X43.467Y37.419
N14800X43.567Y37.319
N14810X43.667Y37.419
N14820G01Z-2.700F30.0
N14830G01X43.567Y37.519F600.0
N14840X43.467Y37.419
N14850X43.567Y37.319
N14860X43.667Y37.419
N14870G01Z-2.750F30.0
N14880G01X43.567Y37.519F600.0
N14890X43.467Y37.419
N14900X43.567Y37.319
N14910X43.667Y37.419
N14920G01Z-2.800F30.0
N14930G01X43.567Y37.519F600.0
N14940X43.467Y37.419
N14950X43.567Y37.319
N14960X43.667Y37.419
N14970G01Z-2.850F30.0
N14980G01X43.567Y37.519F600.0
N14990X43.467Y37.419
N15000X43.567Y37.319
N15010X43.667Y37.419
N15020G01Z-2.900F30.0
N15030G01X43.567Y37.519F600.0
N15040X43.467Y37.419
N15050X43.567Y37.319
N15060X43.667Y37.419
N15070G01Z-2.950F30.0
N15080G01X43.567Y37.519F600.0
N15090X43.467Y37.419
N15100X43.567Y37.319
N15110X43.667Y37.419
N15120G01Z-3.000F30.0
N15130G01X43.567Y37.519F600.0
N15140X43.467Y37.419
N15150X43.567Y37.319
N15160X43.667Y37.419
N15170G00Z6.000
N15180G00X33.257Y34.459
N15190G01Z-0.050F30.0
N15200G3X32.607Y35.109I-0.650J0.000F600.0
N15210G3X31.957Y34.459I0.000J-0.650
N15220G3X32.607Y33.809I0.650J0.000
N15230G3X33.257Y34.459I0.000J0.650
N15240G01Z-0.100F30.0
N15250G3X32.607Y35.109I-0.650J0.000F600.0
N15260G3X31.957Y34.459I0.000J-0.650
N15270G3X32.607Y33.809I0.650J0.000
N15280G3X33.257Y34.459I0.000J0.650
N15290G01Z-0.150F30.0
N15300G3X32.607Y35.109I-0.650J0.000F600.0
N15310G3X31.957Y34.459I0.000J-0.650
N15320G3X32.607Y33.809I0.650J0.000
N15330G3X33.257Y34.459I0.000J0.650
N15340G01Z-0.200F30.0
N15350G3X32.607Y35.109I-0.650J0.000F600.0
N15360G3X31.957Y34.459I0.000J-0.650
N15370G3X32.607Y33.809I0.650J0.000
N15380G3X33.257Y34.459I0.000J0.650
N15390G01Z-0.250F30.0
N15400G3X32.607Y35.109I-0.650J0.000F600.0
N15410G3X31.957Y34.459I0.000J-0.650
N15420G3X32.607Y33.809I0.650J0.000
N15430G3X33.257Y34.459I0.000J0.650
N15440G01Z-0.300F30.0
N15450G3X32.607Y35.109I-0.650J0.000F600.0
N15460G3X31.957Y34.459I0.000J-0.650
N15470G3X32.607Y33.809I0.650J0.000
N15480G3X33.257Y34.459I0.000J0.650
N15490G01Z-0.350F30.0
N15500G3X32.607Y35.109I-0.650J0.000F600.0
N15510G3X31.957Y34.459I0.000J-0.650
N15520G3X32.607Y33.809I0.650J0.000
N15530G3X33.257Y34.459I0.000J0.650
N15540G01Z-0.400F30.0
N15550G3X32.607Y35.109I-0.650J0.000F600.0
N15560G3X31.957Y34.459I0.000J-0.650
N15570G3X32.607Y33.809I0.650J0.000
N15580G3X33.257Y34.459I0.000J0.650
N15590G01Z-0.450F30.0
N15600G3X32.607Y35.109I-0.650J0.000F600.0
N15610G3X31.957Y34.459I0.000J-0.650
N15620G3X32.607Y33.809I0.650J0.000
N15630G3X33.257Y34.459I0.000J0.650
N15640G01Z-0.500F30.0
N15650G3X32.607Y35.109I-0.650J0.000F600.0
N15660G3X31.957Y34.459I0.000J-0.650
N15670G3X32.607Y33.809I0.650J0.000
N15680G3X33.257Y34.459I0.000J0.650
N15690G01Z-0.550F30.0
N15700G3X32.607Y35.109I-0.650J0.000F600.0
N15710G3X31.957Y34.459I0.000J-0.650
N15720G3X32.607Y33.809I0.650J0.000
N15730G3X33.257Y34.459I0.000J0.650
N15740G01Z-0.600F30.0
N15750G3X32.607Y35.109I-0.650J0.000F600.0
N15760G3X31.957Y34.459I0.000J-0.650
N15770G3X32.607Y33.809I0.650J0.000
N15780G3X33.257Y34.459I0.000J0.650
N15790G01Z-0.650F30.0
N15800G3X32.607Y35.109I-0.650J0.000F600.0
N15810G3X31.957Y34.459I0.000J-0.650
N15820G3X32.607Y33.809I0.650J0.000
N15830G3X33.257Y34.459I0.000J0.650
N15840G01Z-0.700F30.0
N15850G3X32.607Y35.109I-0.650J0.000F600.0
N15860G3X31.957Y34.459I0.000J-0.650
N15870G3X32.607Y33.809I0.650J0.000
N15880G3X33.257Y34.459I0.000J0.650
N15890G01Z-0.750F30.0
N15900G3X32.607Y35.109I-0.650J0.000F600.0
N15910G3X31.957Y34.459I0.000J-0.650
N15920G3X32.607Y33.809I0.650J0.000
N15930G3X33.257Y34.459I0.000J0.650
N15940G01Z-0.800F30.0
N15950G3X32.607Y35.109I-0.650J0.000F600.0
N15960G3X31.957Y34.459I0.000J-0.650
N15970G3X32.607Y33.809I0.650J0.000
N15980G3X33.257Y34.459I0.000J0.650
N15990G01Z-0.850F30.0
N16000G3X32.607Y35.109I-0.650J0.000F600.0
N16010G3X31.957Y34.459I0.000J-0.650
N16020G3X32.607Y33.809I0.650J0.000
N16030G3X33.257Y34.459I0.000J0.650
N16040G01Z-0.900F30.0
N16050G3X32.607Y35.109I-0.650J0.000F600.0
N16060G3X31.957Y34.459I0.000J-0.650
N16070G3X32.607Y33.809I0.650J0.000
N16080G3X33.257Y34.459I0.000J0.650
N16090G01Z-0.950F30.0
N16100G3X32.607Y35.109I-0.650J0.000F600.0
N16110G3X31.957Y34.459I0.000J-0.650
N16120G3X32.607Y33.809I0.650J0.000
N16130G3X33.257Y34.459I0.000J0.650
N16140G01Z-1.000F30.0
N16150G3X32.607Y35.109I-0.650J0.000F600.0
N16160G3X31.957Y34.459I0.000J-0.650
N16170G3X32.607Y33.809I0.650J0.000
N16180G3X33.257Y34.459I0.000J0.650
N16190G01Z-1.050F30.0
N16200G3X32.607Y35.109I-0.650J0.000F600.0
N16210G3X31.957Y34.459I0.000J-0.650
N16220G3X32.607Y33.809I0.650J0.000
N16230G3X33.257Y34.459I0.000J0.650
N16240G01Z-1.100F30.0
N16250G3X32.607Y35.109I-0.650J0.000F600.0
N16260G3X31.957Y34.459I0.000J-0.650
N16270G3X32.607Y33.809I0.650J0.000
N16280G3X33.257Y34.459I0.000J0.650
N16290G01Z-1.150F30.0
N16300G3X32.607Y35.109I-0.650J0.000F600.0
N16310G3X31.957Y34.459I0.000J-0.650
N16320G3X32.607Y33.809I0.650J0.000
N16330G3X33.257Y34.459I0.000J0.650
N16340G01Z-1.200F30.0
N16350G3X32.607Y35.109I-0.650J0.000F600.0
N16360G3X31.957Y34.459I0.000J-0.650
N16370G3X32.607Y33.809I0.650J0.000
N16380G3X33.257Y34.459I0.000J0.650
N16390G01Z-1.250F30.0
N16400G3X32.607Y35.109I-0.650J0.000F600.0
N16410G3X31.957Y34.459I0.000J-0.650
N16420G3X32.607Y33.809I0.650J0.000
N16430G3X33.257Y34.459I0.000J0.650
N16440G01Z-1.300F30.0
N16450G3X32.607Y35.109I-0.650J0.000F600.0
N16460G3X31.957Y34.459I0.000J-0.650
N16470G3X32.607Y33.809I0.650J0.000
N16480G3X33.257Y34.459I0.000J0.650
N16490G01Z-1.350F30.0
N16500G3X32.607Y35.109I-0.650J0.000F600.0
N16510G3X31.957Y34.459I0.000J-0.650
N16520G3X32.607Y33.809I0.650J0.000
N16530G3X33.257Y34.459I0.000J0.650
N16540G01Z-1.400F30.0
N16550G3X32.607Y35.109I-0.650J0.000F600.0
N16560G3X31.957Y34.459I0.000J-0.650
N16570G3X32.607Y33.809I0.650J0.000
N16580G3X33.257Y34.459I0.000J0.650
N16590G01Z-1.450F30.0
N16600G3X32.607Y35.109I-0.650J0.000F600.0
N16610G3X31.957Y34.459I0.000J-0.650
N16620G3X32.607Y33.809I0.650J0.000
N16630G3X33.257Y34.459I0.000J0.650
N16640G01Z-1.500F30.0
N16650G3X32.607Y35.109I-0.650J0.000F600.0
N16660G3X31.957Y34.459I0.000J-0.650
N16670G3X32.607Y33.809I0.650J0.000
N16680G3X33.257Y34.459I0.000J0.650
N16690G01Z-1.550F30.0
N16700G3X32.607Y35.109I-0.650J0.000F600.0
N16710G3X31.957Y34.459I0.000J-0.650
N16720G3X32.607Y33.809I0.650J0.000
N16730G3X33.257Y34.459I0.000J0.650
N16740G01Z-1.600F30.0
N16750G3X32.607Y35.109I-0.650J0.000F600.0
N16760G3X31.957Y34.459I0.000J-0.650
N16770G3X32.607Y33.809I0.650J0.000
N16780G3X33.257Y34.459I0.000J0.650
N16790G01Z-1.650F30.0
N16800G3X32.607Y35.109I-0.650J0.000F600.0
N16810G3X31.957Y34.459I0.000J-0.650
N16820G3X32.607Y33.809I0.650J0.000
N16830G3X33.257Y34.459I0.000J0.650
N16840G01Z-1.700F30.0
N16850G3X32.607Y35.109I-0.650J0.000F600.0
N16860G3X31.957Y34.459I0.000J-0.650
N16870G3X32.607Y33.809I0.650J0.000
N16880G3X33.257Y34.459I0.000J0.650
N16890G01Z-1.750F30.0
N16900G3X32.607Y35.109I-0.650J0.000F600.0
N16910G3X31.957Y34.459I0.000J-0.650
N16920G3X32.607Y33.809I0.650J0.000
N16930G3X33.257Y34.459I0.000J0.650
N16940G01Z-1.800F30.0
N16950G3X32.607Y35.109I-0.650J0.000F600.0
N16960G3X31.957Y34.459I0.000J-0.650
N16970G3X32.607Y33.809I0.650J0.000
N16980G3X33.257Y34.459I0.000J0.650
N16990G01Z-1.850F30.0
N17000G3X32.607Y35.109I-0.650J0.000F600.0
N17010G3X31.957Y34.459I0.000J-0.650
N17020G3X32.607Y33.809I0.650J0.000
N17030G3X33.257Y34.459I0.000J0.650
N17040G01Z-1.900F30.0
N17050G3X32.607Y35.109I-0.650J0.000F600.0
N17060G3X31.957Y34.459I0.000J-0.650
N17070G3X32.607Y33.809I0.650J0.000
N17080G3X33.257Y34.459I0.000J0.650
N17090G01Z-1.950F30.0
N17100G3X32.607Y35.109I-0.650J0.000F600.0
N17110G3X31.957Y34.459I0.000J-0.650
N17120G3X32.607Y33.809I0.650J0.000
N17130G3X33.257Y34.459I0.000J0.650
N17140G01Z-2.000F30.0
N17150G3X32.607Y35.109I-0.650J0.000F600.0
N17160G3X31.957Y34.459I0.000J-0.650
N17170G3X32.607Y33.809I0.650J0.000
N17180G3X33.257Y34.459I0.000J0.650
N17190G01Z-2.050F30.0
N17200G3X32.607Y35.109I-0.650J0.000F600.0
N17210G3X31.957Y34.459I0.000J-0.650
N17220G3X32.607Y33.809I0.650J0.000
N17230G3X33.257Y34.459I0.000J0.650
N17240G01Z-2.100F30.0
N17250G3X32.607Y35.109I-0.650J0.000F600.0
N17260G3X31.957Y34.459I0.000J-0.650
N17270G3X32.607Y33.809I0.650J0.000
N17280G3X33.257Y34.459I0.000J0.650
N17290G01Z-2.150F30.0
N17300G3X32.607Y35.109I-0.650J0.000F600.0
N17310G3X31.957Y34.459I0.000J-0.650
N17320G3X32.607Y33.809I0.650J0.000
N17330G3X33.257Y34.459I0.000J0.650
N17340G01Z-2.200F30.0
N17350G3X32.607Y35.109I-0.650J0.000F600.0
N17360G3X31.957Y34.459I0.000J-0.650
N17370G3X32.607Y33.809I0.650J0.000
N17380G3X33.257Y34.459I0.000J0.650
N17390G01Z-2.250F30.0
N17400G3X32.607Y35.109I-0.650J0.000F600.0
N17410G3X31.957Y34.459I0.000J-0.650
N17420G3X32.607Y33.809I0.650J0.000
N17430G3X33.257Y34.459I0.000J0.650
N17440G01Z-2.300F30.0
N17450G3X32.607Y35.109I-0.650J0.000F600.0
N17460G3X31.957Y34.459I0.000J-0.650
N17470G3X32.607Y33.809I0.650J0.000
N17480G3X33.257Y34.459I0.000J0.650
N17490G01Z-2.350F30.0
N17500G3X32.607Y35.109I-0.650J0.000F600.0
N17510G3X31.957Y34.459I0.000J-0.650
N17520G3X32.607Y33.809I0.650J0.000
N17530G3X33.257Y34.459I0.000J0.650
N17540G01Z-2.400F30.0
N17550G3X32.607Y35.109I-0.650J0.000F600.0
N17560G3X31.957Y34.459I0.000J-0.650
N17570G3X32.607Y33.809I0.650J0.000
N17580G3X33.257Y34.459I0.000J0.650
N17590G01Z-2.450F30.0
N17600G3X32.607Y35.109I-0.650J0.000F600.0
N17610G3X31.957Y34.459I0.000J-0.650
N17620G3X32.607Y33.809I0.650J0.000
N17630G3X33.257Y34.459I0.000J0.650
N17640G01Z-2.500F30.0
N17650G3X32.607Y35.109I-0.650J0.000F600.0
N17660G3X31.957Y34.459I0.000J-0.650
N17670G3X32.607Y33.809I0.650J0.000
N17680G3X33.257Y34.459I0.000J0.650
N17690G01Z-2.550F30.0
N17700G3X32.607Y35.109I-0.650J0.000F600.0
N17710G3X31.957Y34.459I0.000J-0.650
N17720G3X32.607Y33.809I0.650J0.000
N17730G3X33.257Y34.459I0.000J0.650
N17740G01Z-2.600F30.0
N17750G3X32.607Y35.109I-0.650J0.000F600.0
N17760G3X31.957Y34.459I0.000J-0.650
N17770G3X32.607Y33.809I0.650J0.000
N17780G3X33.257Y34.459I0.000J0.650
N17790G01Z-2.650F30.0
N17800G3X32.607Y35.109I-0.650J0.000F600.0
N17810G3X31.957Y34.459I0.000J-0.650
N17820G3X32.607Y33.809I0.650J0.000
N17830G3X33.257Y34.459I0.000J0.650
N17840G01Z-2.700F30.0
N17850G3X32.607Y35.109I-0.650J0.000F600.0
N17860G3X31.957Y34.459I0.000J-0.650
N17870G3X32.607Y33.809I0.650J0.000
N17880G3X33.257Y34.459I0.000J0.650
N17890G01Z-2.750F30.0
N17900G3X32.607Y35.109I-0.650J0.000F600.0
N17910G3X31.957Y34.459I0.000J-0.650
N17920G3X32.607Y33.809I0.650J0.000
N17930G3X33.257Y34.459I0.000J0.650
N17940G01Z-2.800F30.0
N17950G3X32.607Y35.109I-0.650J0.000F600.0
N17960G3X31.957Y34.459I0.000J-0.650
N17970G3X32.607Y33.809I0.650J0.000
N17980G3X33.257Y34.459I0.000J0.650
N17990G01Z-2.850F30.0
N18000G3X32.607Y35.109I-0.650J0.000F600.0
N18010G3X31.957Y34.459I0.000J-0.650
N18020G3X32.607Y33.809I0.650J0.000
N18030G3X33.257Y34.459I0.000J0.650
N18040G01Z-2.900F30.0
N18050G3X32.607Y35.109I-0.650J0.000F600.0
N18060G3X31.957Y34.459I0.000J-0.650
N18070G3X32.607Y33.809I0.650J0.000
N18080G3X33.257Y34.459I0.000J0.650
N18090G01Z-2.950F30.0
N18100G3X32.607Y35.109I-0.650J0.000F600.0
N18110G3X31.957Y34.459I0.000J-0.650
N18120G3X32.607Y33.809I0.650J0.000
N18130G3X33.257Y34.459I0.000J0.650
N18140G01Z-3.000F30.0
N18150G3X32.607Y35.109I-0.650J0.000F600.0
N18160G3X31.957Y34.459I0.000J-0.650
N18170G3X32.607Y33.809I0.650J0.000
N18180G3X33.257Y34.459I0.000J0.650
N18190G00Z6.000
N18200G00X21.734Y37.406
N18210G01Z-0.050F30.0
N18220G01X21.634Y37.506F600.0
N18230X21.534Y37.406
N18240X21.634Y37.306
N18250X21.734Y37.406
N18260G01Z-0.100F30.0
N18270G01X21.634Y37.506F600.0
N18280X21.534Y37.406
N18290X21.634Y37.306
N18300X21.734Y37.406
N18310G01Z-0.150F30.0
N18320G01X21.634Y37.506F600.0
N18330X21.534Y37.406
N18340X21.634Y37.306
N18350X21.734Y37.406
N18360G01Z-0.200F30.0
N18370G01X21.634Y37.506F600.0
N18380X21.534Y37.406
N18390X21.634Y37.306
N18400X21.734Y37.406
N18410G01Z-0.250F30.0
N18420G01X21.634Y37.506F600.0
N18430X21.534Y37.406
N18440X21.634Y37.306
N18450X21.734Y37.406
N18460G01Z-0.300F30.0
N18470G01X21.634Y37.506F600.0
N18480X21.534Y37.406
N18490X21.634Y37.306
N18500X21.734Y37.406
N18510G01Z-0.350F30.0
N18520G01X21.634Y37.506F600.0
N18530X21.534Y37.406
N18540X21.634Y37.306
N18550X21.734Y37.406
N18560G01Z-0.400F30.0
N18570G01X21.634Y37.506F600.0
N18580X21.534Y37.406
N18590X21.634Y37.306
N18600X21.734Y37.406
N18610G01Z-0.450F30.0
N18620G01X21.634Y37.506F600.0
N18630X21.534Y37.406
N18640X21.634Y37.306
N18650X21.734Y37.406
N18660G01Z-0.500F30.0
N18670G01X21.634Y37.506F600.0
N18680X21.534Y37.406
N18690X21.634Y37.306
N18700X21.734Y37.406
N18710G01Z-0.550F30.0
N18720G01X21.634Y37.506F600.0
N18730X21.534Y37.406
N18740X21.634Y37.306
N18750X21.734Y37.406
N18760G01Z-0.600F30.0
N18770G01X21.634Y37.506F600.0
N18780X21.534Y37.406
N18790X21.634Y37.306
N18800X21.734Y37.406
N18810G01Z-0.650F30.0
N18820G01X21.634Y37.506F600.0
N18830X21.534Y37.406
N18840X21.634Y37.306
N18850X21.734Y37.406
N18860G01Z-0.700F30.0
N18870G01X21.634Y37.506F600.0
N18880X21.534Y37.406
N18890X21.634Y37.306
N18900X21.734Y37.406
N18910G01Z-0.750F30.0
N18920G01X21.634Y37.506F600.0
N18930X21.534Y37.406
N18940X21.634Y37.306
N18950X21.734Y37.406
N18960G01Z-0.800F30.0
N18970G01X21.634Y37.506F600.0
N18980X21.534Y37.406
N18990X21.634Y37.306
N19000X21.734Y37.406
N19010G01Z-0.850F30.0
N19020G01X21.634Y37.506F600.0
N19030X21.534Y37.406
N19040X21.634Y37.306
N19050X21.734Y37.406
N19060G01Z-0.900F30.0
N19070G01X21.634Y37.506F600.0
N19080X21.534Y37.406
N19090X21.634Y37.306
N19100X21.734Y37.406
N19110G01Z-0.950F30.0
N19120G01X21.634Y37.506F600.0
N19130X21.534Y37.406
N19140X21.634Y37.306
N19150X21.734Y37.406
N19160G01Z-1.000F30.0
N19170G01X21.634Y37.506F600.0
N19180X21.534Y37.406
N19190X21.634Y37.306
N19200X21.734Y37.406
N19210G01Z-1.050F30.0
N19220G01X21.634Y37.506F600.0
N19230X21.534Y37.406
N19240X21.634Y37.306
N19250X21.734Y37.406
N19260G01Z-1.100F30.0
N19270G01X21.634Y37.506F600.0
N19280X21.534Y37.406
N19290X21.634Y37.306
N19300X21.734Y37.406
N19310G01Z-1.150F30.0
N19320G01X21.634Y37.506F600.0
N19330X21.534Y37.406
N19340X21.634Y37.306
N19350X21.734Y37.406
N19360G01Z-1.200F30.0
N19370G01X21.634Y37.506F600.0
N19380X21.534Y37.406
N19390X21.634Y37.306
N19400X21.734Y37.406
N19410G01Z-1.250F30.0
N19420G01X21.634Y37.506F600.0
N19430X21.534Y37.406
N19440X21.634Y37.306
N19450X21.734Y37.406
N19460G01Z-1.300F30.0
N19470G01X21.634Y37.506F600.0
N19480X21.534Y37.406
N19490X21.634Y37.306
N19500X21.734Y37.406
N19510G01Z-1.350F30.0
N19520G01X21.634Y37.506F600.0
N19530X21.534Y37.406
N19540X21.634Y37.306
N19550X21.734Y37.406
N19560G01Z-1.400F30.0
N19570G01X21.634Y37.506F600.0
N19580X21.534Y37.406
N19590X21.634Y37.306
N19600X21.734Y37.406
N19610G01Z-1.450F30.0
N19620G01X21.634Y37.506F600.0
N19630X21.534Y37.406
N19640X21.634Y37.306
N19650X21.734Y37.406
N19660G01Z-1.500F30.0
N19670G01X21.634Y37.506F600.0
N19680X21.534Y37.406
N19690X21.634Y37.306
N19700X21.734Y37.406
N19710G01Z-1.550F30.0
N19720G01X21.634Y37.506F600.0
N19730X21.534Y37.406
N19740X21.634Y37.306
N19750X21.734Y37.406
N19760G01Z-1.600F30.0
N19770G01X21.634Y37.506F600.0
N19780X21.534Y37.406
N19790X21.634Y37.306
N19800X21.734Y37.406
N19810G01Z-1.650F30.0
N19820G01X21.634Y37.506F600.0
N19830X21.534Y37.406
N19840X21.634Y37.306
N19850X21.734Y37.406
N19860G01Z-1.700F30.0
N19870G01X21.634Y37.506F600.0
N19880X21.534Y37.406
N19890X21.634Y37.306
N19900X21.734Y37.406
N19910G01Z-1.750F30.0
N19920G01X21.634Y37.506F600.0
N19930X21.534Y37.406
N19940X21.634Y37.306
N19950X21.734Y37.406
N19960G01Z-1.800F30.0
N19970G01X21.634Y37.506F600.0
N19980X21.534Y37.406
N19990X21.634Y37.306
N20000X21.734Y37.406
N20010G01Z-1.850F30.0
N20020G01X21.634Y37.506F600.0
N20030X21.534Y37.406
N20040X21.634Y37.306
N20050X21.734Y37.406
N20060G01Z-1.900F30.0
N20070G01X21.634Y37.506F600.0
N20080X21.534Y37.406
N20090X21.634Y37.306
N20100X21.734Y37.406
N20110G01Z-1.950F30.0
N20120G01X21.634Y37.506F600.0
N20130X21.534Y37.406
N20140X21.634Y37.306
N20150X21.734Y37.406
N20160G01Z-2.000F30.0
N20170G01X21.634Y37.506F600.0
N20180X21.534Y37.406
N20190X21.634Y37.306
N20200X21.734Y37.406
N20210G01Z-2.050F30.0
N20220G01X21.634Y37.506F600.0
N20230X21.534Y37.406
N20240X21.634Y37.306
N20250X21.734Y37.406
N20260G01Z-2.100F30.0
N20270G01X21.634Y37.506F600.0
N20280X21.534Y37.406
N20290X21.634Y37.306
N20300X21.734Y37.406
N20310G01Z-2.150F30.0
N20320G01X21.634Y37.506F600.0
N20330X21.534Y37.406
N20340X21.634Y37.306
N20350X21.734Y37.406
N20360G01Z-2.200F30.0
N20370G01X21.634Y37.506F600.0
N20380X21.534Y37.406
N20390X21.634Y37.306
N20400X21.734Y37.406
N20410G01Z-2.250F30.0
N20420G01X21.634Y37.506F600.0
N20430X21.534Y37.406
N20440X21.634Y37.306
N20450X21.734Y37.406
N20460G01Z-2.300F30.0
N20470G01X21.634Y37.506F600.0
N20480X21.534Y37.406
N20490X21.634Y37.306
N20500X21.734Y37.406
N20510G01Z-2.350F30.0
N20520G01X21.634Y37.506F600.0
N20530X21.534Y37.406
N20540X21.634Y37.306
N20550X21.734Y37.406
N20560G01Z-2.400F30.0
N20570G01X21.634Y37.506F600.0
N20580X21.534Y37.406
N20590X21.634Y37.306
N20600X21.734Y37.406
N20610G01Z-2.450F30.0
N20620G01X21.634Y37.506F600.0
N20630X21.534Y37.406
N20640X21.634Y37.306
N20650X21.734Y37.406
N20660G01Z-2.500F30.0
N20670G01X21.634Y37.506F600.0
N20680X21.534Y37.406
N20690X21.634Y37.306
N20700X21.734Y37.406
N20710G01Z-2.550F30.0
N20720G01X21.634Y37.506F600.0
N20730X21.534Y37.406
N20740X21.634Y37.306
N20750X21.734Y37.406
N20760G01Z-2.600F30.0
N20770G01X21.634Y37.506F600.0
N20780X21.534Y37.406
N20790X21.634Y37.306
N20800X21.734Y37.406
N20810G01Z-2.650F30.0
N20820G01X21.634Y37.506F600.0
N20830X21.534Y37.406
N20840X21.634Y37.306
N20850X21.734Y37.406
N20860G01Z-2.700F30.0
N20870G01X21.634Y37.506F600.0
N20880X21.534Y37.406
N20890X21.634Y37.306
N20900X21.734Y37.406
N20910G01Z-2.750F30.0
N20920G01X21.634Y37.506F600.0
N20930X21.534Y37.406
N20940X21.634Y37.306
N20950X21.734Y37.406
N20960G01Z-2.800F30.0
N20970G01X21.634Y37.506F600.0
N20980X21.534Y37.406
N20990X21.634Y37.306
N21000X21.734Y37.406
N21010G01Z-2.850F30.0
N21020G01X21.634Y37.506F600.0
N21030X21.534Y37.406
N21040X21.634Y37.306
N21050X21.734Y37.406
N21060G01Z-2.900F30.0
N21070G01X21.634Y37.506F600.0
N21080X21.534Y37.406
N21090X21.634Y37.306
N21100X21.734Y37.406
N21110G01Z-2.950F30.0
N21120G01X21.634Y37.506F600.0
N21130X21.534Y37.406
N21140X21.634Y37.306
N21150X21.734Y37.406
N21160G01Z-3.000F30.0
N21170G01X21.634Y37.506F600.0
N21180X21.534Y37.406
N21190X21.634Y37.306
N21200X21.734Y37.406
N21210G00Z6.000
N21220G00X22.715Y60.210
N21230G01Z-0.050F30.0
N21240G01X22.615Y60.310F600.0
N21250X22.515Y60.210
N21260X22.615Y60.110
N21270X22.715Y60.210
N21280G01Z-0.100F30.0
N21290G01X22.615Y60.310F600.0
N21300X22.515Y60.210
N21310X22.615Y60.110
N21320X22.715Y60.210
N21330G01Z-0.150F30.0
N21340G01X22.615Y60.310F600.0
N21350X22.515Y60.210
N21360X22.615Y60.110
N21370X22.715Y60.210
N21380G01Z-0.200F30.0
N21390G01X22.615Y60.310F600.0
N21400X22.515Y60.210
N21410X22.615Y60.110
N21420X22.715Y60.210
N21430G01Z-0.250F30.0
N21440G01X22.615Y60.310F600.0
N21450X22.515Y60.210
N21460X22.615Y60.110
N21470X22.715Y60.210
N21480G01Z-0.300F30.0
N21490G01X22.615Y60.310F600.0
N21500X22.515Y60.210
N21510X22.615Y60.110
N21520X22.715Y60.210
N21530G01Z-0.350F30.0
N21540G01X22.615Y60.310F600.0
N21550X22.515Y60.210
N21560X22.615Y60.110
N21570X22.715Y60.210
N21580G01Z-0.400F30.0
N21590G01X22.615Y60.310F600.0
N21600X22.515Y60.210
N21610X22.615Y60.110
N21620X22.715Y60.210
N21630G01Z-0.450F30.0
N21640G01X22.615Y60.310F600.0
N21650X22.515Y60.210
N21660X22.615Y60.110
N21670X22.715Y60.210
N21680G01Z-0.500F30.0
N21690G01X22.615Y60.310F600.0
N21700X22.515Y60.210
N21710X22.615Y60.110
N21720X22.715Y60.210
N21730G01Z-0.550F30.0
N21740G01X22.615Y60.310F600.0
N21750X22.515Y60.210
N21760X22.615Y60.110
N21770X22.715Y60.210
N21780G01Z-0.600F30.0
N21790G01X22.615Y60.310F600.0
N21800X22.515Y60.210
N21810X22.615Y60.110
N21820X22.715Y60.210
N21830G01Z-0.650F30.0
N21840G01X22.615Y60.310F600.0
N21850X22.515Y60.210
N21860X22.615Y60.110
N21870X22.715Y60.210
N21880G01Z-0.700F30.0
N21890G01X22.615Y60.310F600.0
N21900X22.515Y60.210
N21910X22.615Y60.110
N21920X22.715Y60.210
N21930G01Z-0.750F30.0
N21940G01X22.615Y60.310F600.0
N21950X22.515Y60.210
N21960X22.615Y60.110
N21970X22.715Y60.210
N21980G01Z-0.800F30.0
N21990G01X22.615Y60.310F600.0
N22000X22.515Y60.210
N22010X22.615Y60.110
N22020X22.715Y60.210
N22030G01Z-0.850F30.0
N22040G01X22.615Y60.310F600.0
N22050X22.515Y60.210
N22060X22.615Y60.110
N22070X22.715Y60.210
N22080G01Z-0.900F30.0
N22090G01X22.615Y60.310F600.0
N22100X22.515Y60.210
N22110X22.615Y60.110
N22120X22.715Y60.210
N22130G01Z-0.950F30.0
N22140G01X22.615Y60.310F600.0
N22150X22.515Y60.210
N22160X22.615Y60.110
N22170X22.715Y60.210
N22180G01Z-1.000F30.0
N22190G01X22.615Y60.310F600.0
N22200X22.515Y60.210
N22210X22.615Y60.110
N22220X22.715Y60.210
N22230G01Z-1.050F30.0
N22240G01X22.615Y60.310F600.0
N22250X22.515Y60.210
N22260X22.615Y60.110
N22270X22.715Y60.210
N22280G01Z-1.100F30.0
N22290G01X22.615Y60.310F600.0
N22300X22.515Y60.210
N22310X22.615Y60.110
N22320X22.715Y60.210
N22330G01Z-1.150F30.0
N22340G01X22.615Y60.310F600.0
N22350X22.515Y60.210
N22360X22.615Y60.110
N22370X22.715Y60.210
N22380G01Z-1.200F30.0
N22390G01X22.615Y60.310F600.0
N22400X22.515Y60.210
N22410X22.615Y60.110
N22420X22.715Y60.210
N22430G01Z-1.250F30.0
N22440G01X22.615Y60.310F600.0
N22450X22.515Y60.210
N22460X22.615Y60.110
N22470X22.715Y60.210
N22480G01Z-1.300F30.0
N22490G01X22.615Y60.310F600.0
N22500X22.515Y60.210
N22510X22.615Y60.110
N22520X22.715Y60.210
N22530G01Z-1.350F30.0
N22540G01X22.615Y60.310F600.0
N22550X22.515Y60.210
N22560X22.615Y60.110
N22570X22.715Y60.210
N22580G01Z-1.400F30.0
N22590G01X22.615Y60.310F600.0
N22600X22.515Y60.210
N22610X22.615Y60.110
N22620X22.715Y60.210
N22630G01Z-1.450F30.0
N22640G01X22.615Y60.310F600.0
N22650X22.515Y60.210
N22660X22.615Y60.110
N22670X22.715Y60.210
N22680G01Z-1.500F30.0
N22690G01X22.615Y60.310F600.0
N22700X22.515Y60.210
N22710X22.615Y60.110
N22720X22.715Y60.210
N22730G01Z-1.550F30.0
N22740G01X22.615Y60.310F600.0
N22750X22.515Y60.210
N22760X22.615Y60.110
N22770X22.715Y60.210
N22780G01Z-1.600F30.0
N22790G01X22.615Y60.310F600.0
N22800X22.515Y60.210
N22810X22.615Y60.110
N22820X22.715Y60.210
N22830G01Z-1.650F30.0
N22840G01X22.615Y60.310F600.0
N22850X22.515Y60.210
N22860X22.615Y60.110
N22870X22.715Y60.210
N22880G01Z-1.700F30.0
N22890G01X22.615Y60.310F600.0
N22900X22.515Y60.210
N22910X22.615Y60.110
N22920X22.715Y60.210
N22930G01Z-1.750F30.0
N22940G01X22.615Y60.310F600.0
N22950X22.515Y60.210
N22960X22.615Y60.110
N22970X22.715Y60.210
N22980G01Z-1.800F30.0
N22990G01X22.615Y60.310F600.0
N23000X22.515Y60.210
N23010X22.615Y60.110
N23020X22.715Y60.210
N23030G01Z-1.850F30.0
N23040G01X22.615Y60.310F600.0
N23050X22.515Y60.210
N23060X22.615Y60.110
N23070X22.715Y60.210
N23080G01Z-1.900F30.0
N23090G01X22.615Y60.310F600.0
N23100X22.515Y60.210
N23110X22.615Y60.110
N23120X22.715Y60.210
N23130G01Z-1.950F30.0
N23140G01X22.615Y60.310F600.0
N23150X22.515Y60.210
N23160X22.615Y60.110
N23170X22.715Y60.210
N23180G01Z-2.000F30.0
N23190G01X22.615Y60.310F600.0
N23200X22.515Y60.210
N23210X22.615Y60.110
N23220X22.715Y60.210
N23230G01Z-2.050F30.0
N23240G01X22.615Y60.310F600.0
N23250X22.515Y60.210
N23260X22.615Y60.110
N23270X22.715Y60.210
N23280G01Z-2.100F30.0
N23290G01X22.615Y60.310F600.0
N23300X22.515Y60.210
N23310X22.615Y60.110
N23320X22.715Y60.210
N23330G01Z-2.150F30.0
N23340G01X22.615Y60.310F600.0
N23350X22.515Y60.210
N23360X22.615Y60.110
N23370X22.715Y60.210
N23380G01Z-2.200F30.0
N23390G01X22.615Y60.310F600.0
N23400X22.515Y60.210
N23410X22.615Y60.110
N23420X22.715Y60.210
N23430G01Z-2.250F30.0
N23440G01X22.615Y60.310F600.0
N23450X22.515Y60.210
N23460X22.615Y60.110
N23470X22.715Y60.210
N23480G01Z-2.300F30.0
N23490G01X22.615Y60.310F600.0
N23500X22.515Y60.210
N23510X22.615Y60.110
N23520X22.715Y60.210
N23530G01Z-2.350F30.0
N23540G01X22.615Y60.310F600.0
N23550X22.515Y60.210
N23560X22.615Y60.110
N23570X22.715Y60.210
N23580G01Z-2.400F30.0
N23590G01X22.615Y60.310F600.0
N23600X22.515Y60.210
N23610X22.615Y60.110
N23620X22.715Y60.210
N23630G01Z-2.450F30.0
N23640G01X22.615Y60.310F600.0
N23650X22.515Y60.210
N23660X22.615Y60.110
N23670X22.715Y60.210
N23680G01Z-2.500F30.0
N23690G01X22.615Y60.310F600.0
N23700X22.515Y60.210
N23710X22.615Y60.110
N23720X22.715Y60.210
N23730G01Z-2.550F30.0
N23740G01X22.615Y60.310F600.0
N23750X22.515Y60.210
N23760X22.615Y60.110
N23770X22.715Y60.210
N23780G01Z-2.600F30.0
N23790G01X22.615Y60.310F600.0
N23800X22.515Y60.210
N23810X22.615Y60.110
N23820X22.715Y60.210
N23830G01Z-2.650F30.0
N23840G01X22.615Y60.310F600.0
N23850X22.515Y60.210
N23860X22.615Y60.110
N23870X22.715Y60.210
N23880G01Z-2.700F30.0
N23890G01X22.615Y60.310F600.0
N23900X22.515Y60.210
N23910X22.615Y60.110
N23920X22.715Y60.210
N23930G01Z-2.750F30.0
N23940G01X22.615Y60.310F600.0
N23950X22.515Y60.210
N23960X22.615Y60.110
N23970X22.715Y60.210
N23980G01Z-2.800F30.0
N23990G01X22.615Y60.310F600.0
N24000X22.515Y60.210
N24010X22.615Y60.110
N24020X22.715Y60.210
N24030G01Z-2.850F30.0
N24040G01X22.615Y60.310F600.0
N24050X22.515Y60.210
N24060X22.615Y60.110
N24070X22.715Y60.210
N24080G01Z-2.900F30.0
N24090G01X22.615Y60.310F600.0
N24100X22.515Y60.210
N24110X22.615Y60.110
N24120X22.715Y60.210
N24130G01Z-2.950F30.0
N24140G01X22.615Y60.310F600.0
N24150X22.515Y60.210
N24160X22.615Y60.110
N24170X22.715Y60.210
N24180G01Z-3.000F30.0
N24190G01X22.615Y60.310F600.0
N24200X22.515Y60.210
N24210X22.615Y60.110
N24220X22.715Y60.210
N24230G00Z6.000
N24240G00X34.225Y63.170
N24250G01Z-0.050F30.0
N24260G3X33.575Y63.820I-0.650J0.000F600.0
N24270G3X32.925Y63.170I0.000J-0.650
N24280G3X33.575Y62.520I0.650J0.000
N24290G3X34.225Y63.170I0.000J0.650
N24300G01Z-0.100F30.0
N24310G3X33.575Y63.820I-0.650J0.000F600.0
N24320G3X32.925Y63.170I0.000J-0.650
N24330G3X33.575Y62.520I0.650J0.000
N24340G3X34.225Y63.170I0.000J0.650
N24350G01Z-0.150F30.0
N24360G3X33.575Y63.820I-0.650J0.000F600.0
N24370G3X32.925Y63.170I0.000J-0.650
N24380G3X33.575Y62.520I0.650J0.000
N24390G3X34.225Y63.170I0.000J0.650
N24400G01Z-0.200F30.0
N24410G3X33.575Y63.820I-0.650J0.000F600.0
N24420G3X32.925Y63.170I0.000J-0.650
N24430G3X33.575Y62.520I0.650J0.000
N24440G3X34.225Y63.170I0.000J0.650
N24450G01Z-0.250F30.0
N24460G3X33.575Y63.820I-0.650J0.000F600.0
N24470G3X32.925Y63.170I0.000J-0.650
N24480G3X33.575Y62.520I0.650J0.000
N24490G3X34.225Y63.170I0.000J0.650
N24500G01Z-0.300F30.0
N24510G3X33.575Y63.820I-0.650J0.000F600.0
N24520G3X32.925Y63.170I0.000J-0.650
N24530G3X33.575Y62.520I0.650J0.000
N24540G3X34.225Y63.170I0.000J0.650
N24550G01Z-0.350F30.0
N24560G3X33.575Y63.820I-0.650J0.000F600.0
N24570G3X32.925Y63.170I0.000J-0.650
N24580G3X33.575Y62.520I0.650J0.000
N24590G3X34.225Y63.170I0.000J0.650
N24600G01Z-0.400F30.0
N24610G3X33.575Y63.820I-0.650J0.000F600.0
N24620G3X32.925Y63.170I0.000J-0.650
N24630G3X33.575Y62.520I0.650J0.000
N24640G3X34.225Y63.170I0.000J0.650
N24650G01Z-0.450F30.0
N24660G3X33.575Y63.820I-0.650J0.000F600.0
N24670G3X32.925Y63.170I0.000J-0.650
N24680G3X33.575Y62.520I0.650J0.000
N24690G3X34.225Y63.170I0.000J0.650
N24700G01Z-0.500F30.0
N24710G3X33.575Y63.820I-0.650J0.000F600.0
N24720G3X32.925Y63.170I0.000J-0.650
N24730G3X33.575Y62.520I0.650J0.000
N24740G3X34.225Y63.170I0.000J0.650
N24750G01Z-0.550F30.0
N24760G3X33.575Y63.820I-0.650J0.000F600.0
N24770G3X32.925Y63.170I0.000J-0.650
N24780G3X33.575Y62.520I0.650J0.000
N24790G3X34.225Y63.170I0.000J0.650
N24800G01Z-0.600F30.0
N24810G3X33.575Y63.820I-0.650J0.000F600.0
N24820G3X32.925Y63.170I0.000J-0.650
N24830G3X33.575Y62.520I0.650J0.000
N24840G3X34.225Y63.170I0.000J0.650
N24850G01Z-0.650F30.0
N24860G3X33.575Y63.820I-0.650J0.000F600.0
N24870G3X32.925Y63.170I0.000J-0.650
N24880G3X33.575Y62.520I0.650J0.000
N24890G3X34.225Y63.170I0.000J0.650
N24900G01Z-0.700F30.0
N24910G3X33.575Y63.820I-0.650J0.000F600.0
N24920G3X32.925Y63.170I0.000J-0.650
N24930G3X33.575Y62.520I0.650J0.000
N24940G3X34.225Y63.170I0.000J0.650
N24950G01Z-0.750F30.0
N24960G3X33.575Y63.820I-0.650J0.000F600.0
N24970G3X32.925Y63.170I0.000J-0.650
N24980G3X33.575Y62.520I0.650J0.000
N24990G3X34.225Y63.170I0.000J0.650
N25000G01Z-0.800F30.0
N25010G3X33.575Y63.820I-0.650J0.000F600.0
N25020G3X32.925Y63.170I0.000J-0.650
N25030G3X33.575Y62.520I0.650J0.000
N25040G3X34.225Y63.170I0.000J0.650
N25050G01Z-0.850F30.0
N25060G3X33.575Y63.820I-0.650J0.000F600.0
N25070G3X32.925Y63.170I0.000J-0.650
N25080G3X33.575Y62.520I0.650J0.000
N25090G3X34.225Y63.170I0.000J0.650
N25100G01Z-0.900F30.0
N25110G3X33.575Y63.820I-0.650J0.000F600.0
N25120G3X32.925Y63.170I0.000J-0.650
N25130G3X33.575Y62.520I0.650J0.000
N25140G3X34.225Y63.170I0.000J0.650
N25150G01Z-0.950F30.0
N25160G3X33.575Y63.820I-0.650J0.000F600.0
N25170G3X32.925Y63.170I0.000J-0.650
N25180G3X33.575Y62.520I0.650J0.000
N25190G3X34.225Y63.170I0.000J0.650
N25200G01Z-1.000F30.0
N25210G3X33.575Y63.820I-0.650J0.000F600.0
N25220G3X32.925Y63.170I0.000J-0.650
N25230G3X33.575Y62.520I0.650J0.000
N25240G3X34.225Y63.170I0.000J0.650
N25250G01Z-1.050F30.0
N25260G3X33.575Y63.820I-0.650J0.000F600.0
N25270G3X32.925Y63.170I0.000J-0.650
N25280G3X33.575Y62.520I0.650J0.000
N25290G3X34.225Y63.170I0.000J0.650
N25300G01Z-1.100F30.0
N25310G3X33.575Y63.820I-0.650J0.000F600.0
N25320G3X32.925Y63.170I0.000J-0.650
N25330G3X33.575Y62.520I0.650J0.000
N25340G3X34.225Y63.170I0.000J0.650
N25350G01Z-1.150F30.0
N25360G3X33.575Y63.820I-0.650J0.000F600.0
N25370G3X32.925Y63.170I0.000J-0.650
N25380G3X33.575Y62.520I0.650J0.000
N25390G3X34.225Y63.170I0.000J0.650
N25400G01Z-1.200F30.0
N25410G3X33.575Y63.820I-0.650J0.000F600.0
N25420G3X32.925Y63.170I0.000J-0.650
N25430G3X33.575Y62.520I0.650J0.000
N25440G3X34.225Y63.170I0.000J0.650
N25450G01Z-1.250F30.0
N25460G3X33.575Y63.820I-0.650J0.000F600.0
N25470G3X32.925Y63.170I0.000J-0.650
N25480G3X33.575Y62.520I0.650J0.000
N25490G3X34.225Y63.170I0.000J0.650
N25500G01Z-1.300F30.0
N25510G3X33.575Y63.820I-0.650J0.000F600.0
N25520G3X32.925Y63.170I0.000J-0.650
N25530G3X33.575Y62.520I0.650J0.000
N25540G3X34.225Y63.170I0.000J0.650
N25550G01Z-1.350F30.0
N25560G3X33.575Y63.820I-0.650J0.000F600.0
N25570G3X32.925Y63.170I0.000J-0.650
N25580G3X33.575Y62.520I0.650J0.000
N25590G3X34.225Y63.170I0.000J0.650
N25600G01Z-1.400F30.0
N25610G3X33.575Y63.820I-0.650J0.000F600.0
N25620G3X32.925Y63.170I0.000J-0.650
N25630G3X33.575Y62.520I0.650J0.000
N25640G3X34.225Y63.170I0.000J0.650
N25650G01Z-1.450F30.0
N25660G3X33.575Y63.820I-0.650J0.000F600.0
N25670G3X32.925Y63.170I0.000J-0.650
N25680G3X33.575Y62.520I0.650J0.000
N25690G3X34.225Y63.170I0.000J0.650
N25700G01Z-1.500F30.0
N25710G3X33.575Y63.820I-0.650J0.000F600.0
N25720G3X32.925Y63.170I0.000J-0.650
N25730G3X33.575Y62.520I0.650J0.000
N25740G3X34.225Y63.170I0.000J0.650
N25750G01Z-1.550F30.0
N25760G3X33.575Y63.820I-0.650J0.000F600.0
N25770G3X32.925Y63.170I0.000J-0.650
N25780G3X33.575Y62.520I0.650J0.000
N25790G3X34.225Y63.170I0.000J0.650
N25800G01Z-1.600F30.0
N25810G3X33.575Y63.820I-0.650J0.000F600.0
N25820G3X32.925Y63.170I0.000J-0.650
N25830G3X33.575Y62.520I0.650J0.000
N25840G3X34.225Y63.170I0.000J0.650
N25850G01Z-1.650F30.0
N25860G3X33.575Y63.820I-0.650J0.000F600.0
N25870G3X32.925Y63.170I0.000J-0.650
N25880G3X33.575Y62.520I0.650J0.000
N25890G3X34.225Y63.170I0.000J0.650
N25900G01Z-1.700F30.0
N25910G3X33.575Y63.820I-0.650J0.000F600.0
N25920G3X32.925Y63.170I0.000J-0.650
N25930G3X33.575Y62.520I0.650J0.000
N25940G3X34.225Y63.170I0.000J0.650
N25950G01Z-1.750F30.0
N25960G3X33.575Y63.820I-0.650J0.000F600.0
N25970G3X32.925Y63.170I0.000J-0.650
N25980G3X33.575Y62.520I0.650J0.000
N25990G3X34.225Y63.170I0.000J0.650
N26000G01Z-1.800F30.0
N26010G3X33.575Y63.820I-0.650J0.000F600.0
N26020G3X32.925Y63.170I0.000J-0.650
N26030G3X33.575Y62.520I0.650J0.000
N26040G3X34.225Y63.170I0.000J0.650
N26050G01Z-1.850F30.0
N26060G3X33.575Y63.820I-0.650J0.000F600.0
N26070G3X32.925Y63.170I0.000J-0.650
N26080G3X33.575Y62.520I0.650J0.000
N26090G3X34.225Y63.170I0.000J0.650
N26100G01Z-1.900F30.0
N26110G3X33.575Y63.820I-0.650J0.000F600.0
N26120G3X32.925Y63.170I0.000J-0.650
N26130G3X33.575Y62.520I0.650J0.000
N26140G3X34.225Y63.170I0.000J0.650
N26150G01Z-1.950F30.0
N26160G3X33.575Y63.820I-0.650J0.000F600.0
N26170G3X32.925Y63.170I0.000J-0.650
N26180G3X33.575Y62.520I0.650J0.000
N26190G3X34.225Y63.170I0.000J0.650
N26200G01Z-2.000F30.0
N26210G3X33.575Y63.820I-0.650J0.000F600.0
N26220G3X32.925Y63.170I0.000J-0.650
N26230G3X33.575Y62.520I0.650J0.000
N26240G3X34.225Y63.170I0.000J0.650
N26250G01Z-2.050F30.0
N26260G3X33.575Y63.820I-0.650J0.000F600.0
N26270G3X32.925Y63.170I0.000J-0.650
N26280G3X33.575Y62.520I0.650J0.000
N26290G3X34.225Y63.170I0.000J0.650
N26300G01Z-2.100F30.0
N26310G3X33.575Y63.820I-0.650J0.000F600.0
N26320G3X32.925Y63.170I0.000J-0.650
N26330G3X33.575Y62.520I0.650J0.000
N26340G3X34.225Y63.170I0.000J0.650
N26350G01Z-2.150F30.0
N26360G3X33.575Y63.820I-0.650J0.000F600.0
N26370G3X32.925Y63.170I0.000J-0.650
N26380G3X33.575Y62.520I0.650J0.000
N26390G3X34.225Y63.170I0.000J0.650
N26400G01Z-2.200F30.0
N26410G3X33.575Y63.820I-0.650J0.000F600.0
N26420G3X32.925Y63.170I0.000J-0.650
N26430G3X33.575Y62.520I0.650J0.000
N26440G3X34.225Y63.170I0.000J0.650
N26450G01Z-2.250F30.0
N26460G3X33.575Y63.820I-0.650J0.000F600.0
N26470G3X32.925Y63.170I0.000J-0.650
N26480G3X33.575Y62.520I0.650J0.000
N26490G3X34.225Y63.170I0.000J0.650
N26500G01Z-2.300F30.0
N26510G3X33.575Y63.820I-0.650J0.000F600.0
N26520G3X32.925Y63.170I0.000J-0.650
N26530G3X33.575Y62.520I0.650J0.000
N26540G3X34.225Y63.170I0.000J0.650
N26550G01Z-2.350F30.0
N26560G3X33.575Y63.820I-0.650J0.000F600.0
N26570G3X32.925Y63.170I0.000J-0.650
N26580G3X33.575Y62.520I0.650J0.000
N26590G3X34.225Y63.170I0.000J0.650
N26600G01Z-2.400F30.0
N26610G3X33.575Y63.820I-0.650J0.000F600.0
N26620G3X32.925Y63.170I0.000J-0.650
N26630G3X33.575Y62.520I0.650J0.000
N26640G3X34.225Y63.170I0.000J0.650
N26650G01Z-2.450F30.0
N26660G3X33.575Y63.820I-0.650J0.000F600.0
N26670G3X32.925Y63.170I0.000J-0.650
N26680G3X33.575Y62.520I0.650J0.000
N26690G3X34.225Y63.170I0.000J0.650
N26700G01Z-2.500F30.0
N26710G3X33.575Y63.820I-0.650J0.000F600.0
N26720G3X32.925Y63.170I0.000J-0.650
N26730G3X33.575Y62.520I0.650J0.000
N26740G3X34.225Y63.170I0.000J0.650
N26750G01Z-2.550F30.0
N26760G3X33.575Y63.820I-0.650J0.000F600.0
N26770G3X32.925Y63.170I0.000J-0.650
N26780G3X33.575Y62.520I0.650J0.000
N26790G3X34.225Y63.170I0.000J0.650
N26800G01Z-2.600F30.0
N26810G3X33.575Y63.820I-0.650J0.000F600.0
N26820G3X32.925Y63.170I0.000J-0.650
N26830G3X33.575Y62.520I0.650J0.000
N26840G3X34.225Y63.170I0.000J0.650
N26850G01Z-2.650F30.0
N26860G3X33.575Y63.820I-0.650J0.000F600.0
N26870G3X32.925Y63.170I0.000J-0.650
N26880G3X33.575Y62.520I0.650J0.000
N26890G3X34.225Y63.170I0.000J0.650
N26900G01Z-2.700F30.0
N26910G3X33.575Y63.820I-0.650J0.000F600.0
N26920G3X32.925Y63.170I0.000J-0.650
N26930G3X33.575Y62.520I0.650J0.000
N26940G3X34.225Y63.170I0.000J0.650
N26950G01Z-2.750F30.0
N26960G3X33.575Y63.820I-0.650J0.000F600.0
N26970G3X32.925Y63.170I0.000J-0.650
N26980G3X33.575Y62.520I0.650J0.000
N26990G3X34.225Y63.170I0.000J0.650
N27000G01Z-2.800F30.0
N27010G3X33.575Y63.820I-0.650J0.000F600.0
N27020G3X32.925Y63.170I0.000J-0.650
N27030G3X33.575Y62.520I0.650J0.000
N27040G3X34.225Y63.170I0.000J0.650
N27050G01Z-2.850F30.0
N27060G3X33.575Y63.820I-0.650J0.000F600.0
N27070G3X32.925Y63.170I0.000J-0.650
N27080G3X33.575Y62.520I0.650J0.000
N27090G3X34.225Y63.170I0.000J0.650
N27100G01Z-2.900F30.0
N27110G3X33.575Y63.820I-0.650J0.000F600.0
N27120G3X32.925Y63.170I0.000J-0.650
N27130G3X33.575Y62.520I0.650J0.000
N27140G3X34.225Y63.170I0.000J0.650
N27150G01Z-2.950F30.0
N27160G3X33.575Y63.820I-0.650J0.000F600.0
N27170G3X32.925Y63.170I0.000J-0.650
N27180G3X33.575Y62.520I0.650J0.000
N27190G3X34.225Y63.170I0.000J0.650
N27200G01Z-3.000F30.0
N27210G3X33.575Y63.820I-0.650J0.000F600.0
N27220G3X32.925Y63.170I0.000J-0.650
N27230G3X33.575Y62.520I0.650J0.000
N27240G3X34.225Y63.170I0.000J0.650
N27250G00Z6.000
N27260G00X36.225Y71.170
N27270G01Z-0.050F30.0
N27280G3X33.575Y73.820I-2.650J0.000F600.0
N27290G3X30.925Y71.170I0.000J-2.650
N27300G3X33.575Y68.520I2.650J0.000
N27310G3X36.225Y71.170I0.000J2.650
N27320G01Z-0.100F30.0
N27330G3X33.575Y73.820I-2.650J0.000F600.0
N27340G3X30.925Y71.170I0.000J-2.650
N27350G3X33.575Y68.520I2.650J0.000
N27360G3X36.225Y71.170I0.000J2.650
N27370G01Z-0.150F30.0
N27380G3X33.575Y73.820I-2.650J0.000F600.0
N27390G3X30.925Y71.170I0.000J-2.650
N27400G3X33.575Y68.520I2.650J0.000
N27410G3X36.225Y71.170I0.000J2.650
N27420G01Z-0.200F30.0
N27430G3X33.575Y73.820I-2.650J0.000F600.0
N27440G3X30.925Y71.170I0.000J-2.650
N27450G3X33.575Y68.520I2.650J0.000
N27460G3X36.225Y71.170I0.000J2.650
N27470G01Z-0.250F30.0
N27480G3X33.575Y73.820I-2.650J0.000F600.0
N27490G3X30.925Y71.170I0.000J-2.650
N27500G3X33.575Y68.520I2.650J0.000
N27510G3X36.225Y71.170I0.000J2.650
N27520G01Z-0.300F30.0
N27530G3X33.575Y73.820I-2.650J0.000F600.0
N27540G3X30.925Y71.170I0.000J-2.650
N27550G3X33.575Y68.520I2.650J0.000
N27560G3X36.225Y71.170I0.000J2.650
N27570G01Z-0.350F30.0
N27580G3X33.575Y73.820I-2.650J0.000F600.0
N27590G3X30.925Y71.170I0.000J-2.650
N27600G3X33.575Y68.520I2.650J0.000
N27610G3X36.225Y71.170I0.000J2.650
N27620G01Z-0.400F30.0
N27630G3X33.575Y73.820I-2.650J0.000F600.0
N27640G3X30.925Y71.170I0.000J-2.650
N27650G3X33.575Y68.520I2.650J0.000
N27660G3X36.225Y71.170I0.000J2.650
N27670G01Z-0.450F30.0
N27680G3X33.575Y73.820I-2.650J0.000F600.0
N27690G3X30.925Y71.170I0.000J-2.650
N27700G3X33.575Y68.520I2.650J0.000
N27710G3X36.225Y71.170I0.000J2.650
N27720G01Z-0.500F30.0
N27730G3X33.575Y73.820I-2.650J0.000F600.0
N27740G3X30.925Y71.170I0.000J-2.650
N27750G3X33.575Y68.520I2.650J0.000
N27760G3X36.225Y71.170I0.000J2.650
N27770G01Z-0.550F30.0
N27780G3X33.575Y73.820I-2.650J0.000F600.0
N27790G3X30.925Y71.170I0.000J-2.650
N27800G3X33.575Y68.520I2.650J0.000
N27810G3X36.225Y71.170I0.000J2.650
N27820G01Z-0.600F30.0
N27830G3X33.575Y73.820I-2.650J0.000F600.0
N27840G3X30.925Y71.170I0.000J-2.650
N27850G3X33.575Y68.520I2.650J0.000
N27860G3X36.225Y71.170I0.000J2.650
N27870G01Z-0.650F30.0
N27880G3X33.575Y73.820I-2.650J0.000F600.0
N27890G3X30.925Y71.170I0.000J-2.650
N27900G3X33.575Y68.520I2.650J0.000
N27910G3X36.225Y71.170I0.000J2.650
N27920G01Z-0.700F30.0
N27930G3X33.575Y73.820I-2.650J0.000F600.0
N27940G3X30.925Y71.170I0.000J-2.650
N27950G3X33.575Y68.520I2.650J0.000
N27960G3X36.225Y71.170I0.000J2.650
N27970G01Z-0.750F30.0
N27980G3X33.575Y73.820I-2.650J0.000F600.0
N27990G3X30.925Y71.170I0.000J-2.650
N28000G3X33.575Y68.520I2.650J0.000
N28010G3X36.225Y71.170I0.000J2.650
N28020G01Z-0.800F30.0
N28030G3X33.575Y73.820I-2.650J0.000F600.0
N28040G3X30.925Y71.170I0.000J-2.650
N28050G3X33.575Y68.520I2.650J0.000
N28060G3X36.225Y71.170I0.000J2.650
N28070G01Z-0.850F30.0
N28080G3X33.575Y73.820I-2.650J0.000F600.0
N28090G3X30.925Y71.170I0.000J-2.650
N28100G3X33.575Y68.520I2.650J0.000
N28110G3X36.225Y71.170I0.000J2.650
N28120G01Z-0.900F30.0
N28130G3X33.575Y73.820I-2.650J0.000F600.0
N28140G3X30.925Y71.170I0.000J-2.650
N28150G3X33.575Y68.520I2.650J0.000
N28160G3X36.225Y71.170I0.000J2.650
N28170G01Z-0.950F30.0
N28180G3X33.575Y73.820I-2.650J0.000F600.0
N28190G3X30.925Y71.170I0.000J-2.650
N28200G3X33.575Y68.520I2.650J0.000
N28210G3X36.225Y71.170I0.000J2.650
N28220G01Z-1.000F30.0
N28230G3X33.575Y73.820I-2.650J0.000F600.0
N28240G3X30.925Y71.170I0.000J-2.650
N28250G3X33.575Y68.520I2.650J0.000
N28260G3X36.225Y71.170I0.000J2.650
N28270G01Z-1.050F30.0
N28280G3X33.575Y73.820I-2.650J0.000F600.0
N28290G3X30.925Y71.170I0.000J-2.650
N28300G3X33.575Y68.520I2.650J0.000
N28310G3X36.225Y71.170I0.000J2.650
N28320G01Z-1.100F30.0
N28330G3X33.575Y73.820I-2.650J0.000F600.0
N28340G3X30.925Y71.170I0.000J-2.650
N28350G3X33.575Y68.520I2.650J0.000
N28360G3X36.225Y71.170I0.000J2.650
N28370G01Z-1.150F30.0
N28380G3X33.575Y73.820I-2.650J0.000F600.0
N28390G3X30.925Y71.170I0.000J-2.650
N28400G3X33.575Y68.520I2.650J0.000
N28410G3X36.225Y71.170I0.000J2.650
N28420G01Z-1.200F30.0
N28430G3X33.575Y73.820I-2.650J0.000F600.0
N28440G3X30.925Y71.170I0.000J-2.650
N28450G3X33.575Y68.520I2.650J0.000
N28460G3X36.225Y71.170I0.000J2.650
N28470G01Z-1.250F30.0
N28480G3X33.575Y73.820I-2.650J0.000F600.0
N28490G3X30.925Y71.170I0.000J-2.650
N28500G3X33.575Y68.520I2.650J0.000
N28510G3X36.225Y71.170I0.000J2.650
N28520G01Z-1.300F30.0
N28530G3X33.575Y73.820I-2.650J0.000F600.0
N28540G3X30.925Y71.170I0.000J-2.650
N28550G3X33.575Y68.520I2.650J0.000
N28560G3X36.225Y71.170I0.000J2.650
N28570G01Z-1.350F30.0
N28580G3X33.575Y73.820I-2.650J0.000F600.0
N28590G3X30.925Y71.170I0.000J-2.650
N28600G3X33.575Y68.520I2.650J0.000
N28610G3X36.225Y71.170I0.000J2.650
N28620G01Z-1.400F30.0
N28630G3X33.575Y73.820I-2.650J0.000F600.0
N28640G3X30.925Y71.170I0.000J-2.650
N28650G3X33.575Y68.520I2.650J0.000
N28660G3X36.225Y71.170I0.000J2.650
N28670G01Z-1.450F30.0
N28680G3X33.575Y73.820I-2.650J0.000F600.0
N28690G3X30.925Y71.170I0.000J-2.650
N28700G3X33.575Y68.520I2.650J0.000
N28710G3X36.225Y71.170I0.000J2.650
N28720G01Z-1.500F30.0
N28730G3X33.575Y73.820I-2.650J0.000F600.0
N28740G3X30.925Y71.170I0.000J-2.650
N28750G3X33.575Y68.520I2.650J0.000
N28760G3X36.225Y71.170I0.000J2.650
N28770G01Z-1.550F30.0
N28780G3X33.575Y73.820I-2.650J0.000F600.0
N28790G3X30.925Y71.170I0.000J-2.650
N28800G3X33.575Y68.520I2.650J0.000
N28810G3X36.225Y71.170I0.000J2.650
N28820G01Z-1.600F30.0
N28830G3X33.575Y73.820I-2.650J0.000F600.0
N28840G3X30.925Y71.170I0.000J-2.650
N28850G3X33.575Y68.520I2.650J0.000
N28860G3X36.225Y71.170I0.000J2.650
N28870G01Z-1.650F30.0
N28880G3X33.575Y73.820I-2.650J0.000F600.0
N28890G3X30.925Y71.170I0.000J-2.650
N28900G3X33.575Y68.520I2.650J0.000
N28910G3X36.225Y71.170I0.000J2.650
N28920G01Z-1.700F30.0
N28930G3X33.575Y73.820I-2.650J0.000F600.0
N28940G3X30.925Y71.170I0.000J-2.650
N28950G3X33.575Y68.520I2.650J0.000
N28960G3X36.225Y71.170I0.000J2.650
N28970G01Z-1.750F30.0
N28980G3X33.575Y73.820I-2.650J0.000F600.0
N28990G3X30.925Y71.170I0.000J-2.650
N29000G3X33.575Y68.520I2.650J0.000
N29010G3X36.225Y71.170I0.000J2.650
N29020G01Z-1.800F30.0
N29030G3X33.575Y73.820I-2.650J0.000F600.0
N29040G3X30.925Y71.170I0.000J-2.650
N29050G3X33.575Y68.520I2.650J0.000
N29060G3X36.225Y71.170I0.000J2.650
N29070G01Z-1.850F30.0
N29080G3X33.575Y73.820I-2.650J0.000F600.0
N29090G3X30.925Y71.170I0.000J-2.650
N29100G3X33.575Y68.520I2.650J0.000
N29110G3X36.225Y71.170I0.000J2.650
N29120G01Z-1.900F30.0
N29130G3X33.575Y73.820I-2.650J0.000F600.0
N29140G3X30.925Y71.170I0.000J-2.650
N29150G3X33.575Y68.520I2.650J0.000
N29160G3X36.225Y71.170I0.000J2.650
N29170G01Z-1.950F30.0
N29180G3X33.575Y73.820I-2.650J0.000F600.0
N29190G3X30.925Y71.170I0.000J-2.650
N29200G3X33.575Y68.520I2.650J0.000
N29210G3X36.225Y71.170I0.000J2.650
N29220G01Z-2.000F30.0
N29230G3X33.575Y73.820I-2.650J0.000F600.0
N29240G3X30.925Y71.170I0.000J-2.650
N29250G3X33.575Y68.520I2.650J0.000
N29260G3X36.225Y71.170I0.000J2.650
N29270G01Z-2.050F30.0
N29280G3X33.575Y73.820I-2.650J0.000F600.0
N29290G3X30.925Y71.170I0.000J-2.650
N29300G3X33.575Y68.520I2.650J0.000
N29310G3X36.225Y71.170I0.000J2.650
N29320G01Z-2.100F30.0
N29330G3X33.575Y73.820I-2.650J0.000F600.0
N29340G3X30.925Y71.170I0.000J-2.650
N29350G3X33.575Y68.520I2.650J0.000
N29360G3X36.225Y71.170I0.000J2.650
N29370G01Z-2.150F30.0
N29380G3X33.575Y73.820I-2.650J0.000F600.0
N29390G3X30.925Y71.170I0.000J-2.650
N29400G3X33.575Y68.520I2.650J0.000
N29410G3X36.225Y71.170I0.000J2.650
N29420G01Z-2.200F30.0
N29430G3X33.575Y73.820I-2.650J0.000F600.0
N29440G3X30.925Y71.170I0.000J-2.650
N29450G3X33.575Y68.520I2.650J0.000
N29460G3X36.225Y71.170I0.000J2.650
N29470G01Z-2.250F30.0
N29480G3X33.575Y73.820I-2.650J0.000F600.0
N29490G3X30.925Y71.170I0.000J-2.650
N29500G3X33.575Y68.520I2.650J0.000
N29510G3X36.225Y71.170I0.000J2.650
N29520G01Z-2.300F30.0
N29530G3X33.575Y73.820I-2.650J0.000F600.0
N29540G3X30.925Y71.170I0.000J-2.650
N29550G3X33.575Y68.520I2.650J0.000
N29560G3X36.225Y71.170I0.000J2.650
N29570G01Z-2.350F30.0
N29580G3X33.575Y73.820I-2.650J0.000F600.0
N29590G3X30.925Y71.170I0.000J-2.650
N29600G3X33.575Y68.520I2.650J0.000
N29610G3X36.225Y71.170I0.000J2.650
N29620G01Z-2.400F30.0
N29630G3X33.575Y73.820I-2.650J0.000F600.0
N29640G3X30.925Y71.170I0.000J-2.650
N29650G3X33.575Y68.520I2.650J0.000
N29660G3X36.225Y71.170I0.000J2.650
N29670G01Z-2.450F30.0
N29680G3X33.575Y73.820I-2.650J0.000F600.0
N29690G3X30.925Y71.170I0.000J-2.650
N29700G3X33.575Y68.520I2.650J0.000
N29710G3X36.225Y71.170I0.000J2.650
N29720G01Z-2.500F30.0
N29730G3X33.575Y73.820I-2.650J0.000F600.0
N29740G3X30.925Y71.170I0.000J-2.650
N29750G3X33.575Y68.520I2.650J0.000
N29760G3X36.225Y71.170I0.000J2.650
N29770G01Z-2.550F30.0
N29780G3X33.575Y73.820I-2.650J0.000F600.0
N29790G3X30.925Y71.170I0.000J-2.650
N29800G3X33.575Y68.520I2.650J0.000
N29810G3X36.225Y71.170I0.000J2.650
N29820G01Z-2.600F30.0
N29830G3X33.575Y73.820I-2.650J0.000F600.0
N29840G3X30.925Y71.170I0.000J-2.650
N29850G3X33.575Y68.520I2.650J0.000
N29860G3X36.225Y71.170I0.000J2.650
N29870G01Z-2.650F30.0
N29880G3X33.575Y73.820I-2.650J0.000F600.0
N29890G3X30.925Y71.170I0.000J-2.650
N29900G3X33.575Y68.520I2.650J0.000
N29910G3X36.225Y71.170I0.000J2.650
N29920G01Z-2.700F30.0
N29930G3X33.575Y73.820I-2.650J0.000F600.0
N29940G3X30.925Y71.170I0.000J-2.650
N29950G3X33.575Y68.520I2.650J0.000
N29960G3X36.225Y71.170I0.000J2.650
N29970G01Z-2.750F30.0
N29980G3X33.575Y73.820I-2.650J0.000F600.0
N29990G3X30.925Y71.170I0.000J-2.650
N30000G3X33.575Y68.520I2.650J0.000
N30010G3X36.225Y71.170I0.000J2.650
N30020G01Z-2.800F30.0
N30030G3X33.575Y73.820I-2.650J0.000F600.0
N30040G3X30.925Y71.170I0.000J-2.650
N30050G3X33.575Y68.520I2.650J0.000
N30060G3X36.225Y71.170I0.000J2.650
N30070G01Z-2.850F30.0
N30080G3X33.575Y73.820I-2.650J0.000F600.0
N30090G3X30.925Y71.170I0.000J-2.650
N30100G3X33.575Y68.520I2.650J0.000
N30110G3X36.225Y71.170I0.000J2.650
N30120G01Z-2.900F30.0
N30130G3X33.575Y73.820I-2.650J0.000F600.0
N30140G3X30.925Y71.170I0.000J-2.650
N30150G3X33.575Y68.520I2.650J0.000
N30160G3X36.225Y71.170I0.000J2.650
N30170G01Z-2.950F30.0
N30180G3X33.575Y73.820I-2.650J0.000F600.0
N30190G3X30.925Y71.170I0.000J-2.650
N30200G3X33.575Y68.520I2.650J0.000
N30210G3X36.225Y71.170I0.000J2.650
N30220G01Z-3.000F30.0
N30230G3X33.575Y73.820I-2.650J0.000F600.0
N30240G3X30.925Y71.170I0.000J-2.650
N30250G3X33.575Y68.520I2.650J0.000
N30260G3X36.225Y71.170I0.000J2.650
N30270G00Z6.000
N30280G00X42.225
N30290G01Z-0.050F30.0
N30300G3X41.575Y71.820I-0.650J0.000F600.0
N30310G3X40.925Y71.170I0.000J-0.650
N30320G3X41.575Y70.520I0.650J0.000
N30330G3X42.225Y71.170I0.000J0.650
N30340G01Z-0.100F30.0
N30350G3X41.575Y71.820I-0.650J0.000F600.0
N30360G3X40.925Y71.170I0.000J-0.650
N30370G3X41.575Y70.520I0.650J0.000
N30380G3X42.225Y71.170I0.000J0.650
N30390G01Z-0.150F30.0
N30400G3X41.575Y71.820I-0.650J0.000F600.0
N30410G3X40.925Y71.170I0.000J-0.650
N30420G3X41.575Y70.520I0.650J0.000
N30430G3X42.225Y71.170I0.000J0.650
N30440G01Z-0.200F30.0
N30450G3X41.575Y71.820I-0.650J0.000F600.0
N30460G3X40.925Y71.170I0.000J-0.650
N30470G3X41.575Y70.520I0.650J0.000
N30480G3X42.225Y71.170I0.000J0.650
N30490G01Z-0.250F30.0
N30500G3X41.575Y71.820I-0.650J0.000F600.0
N30510G3X40.925Y71.170I0.000J-0.650
N30520G3X41.575Y70.520I0.650J0.000
N30530G3X42.225Y71.170I0.000J0.650
N30540G01Z-0.300F30.0
N30550G3X41.575Y71.820I-0.650J0.000F600.0
N30560G3X40.925Y71.170I0.000J-0.650
N30570G3X41.575Y70.520I0.650J0.000
N30580G3X42.225Y71.170I0.000J0.650
N30590G01Z-0.350F30.0
N30600G3X41.575Y71.820I-0.650J0.000F600.0
N30610G3X40.925Y71.170I0.000J-0.650
N30620G3X41.575Y70.520I0.650J0.000
N30630G3X42.225Y71.170I0.000J0.650
N30640G01Z-0.400F30.0
N30650G3X41.575Y71.820I-0.650J0.000F600.0
N30660G3X40.925Y71.170I0.000J-0.650
N30670G3X41.575Y70.520I0.650J0.000
N30680G3X42.225Y71.170I0.000J0.650
N30690G01Z-0.450F30.0
N30700G3X41.575Y71.820I-0.650J0.000F600.0
N30710G3X40.925Y71.170I0.000J-0.650
N30720G3X41.575Y70.520I0.650J0.000
N30730G3X42.225Y71.170I0.000J0.650
N30740G01Z-0.500F30.0
N30750G3X41.575Y71.820I-0.650J0.000F600.0
N30760G3X40.925Y71.170I0.000J-0.650
N30770G3X41.575Y70.520I0.650J0.000
N30780G3X42.225Y71.170I0.000J0.650
N30790G01Z-0.550F30.0
N30800G3X41.575Y71.820I-0.650J0.000F600.0
N30810G3X40.925Y71.170I0.000J-0.650
N30820G3X41.575Y70.520I0.650J0.000
N30830G3X42.225Y71.170I0.000J0.650
N30840G01Z-0.600F30.0
N30850G3X41.575Y71.820I-0.650J0.000F600.0
N30860G3X40.925Y71.170I0.000J-0.650
N30870G3X41.575Y70.520I0.650J0.000
N30880G3X42.225Y71.170I0.000J0.650
N30890G01Z-0.650F30.0
N30900G3X41.575Y71.820I-0.650J0.000F600.0
N30910G3X40.925Y71.170I0.000J-0.650
N30920G3X41.575Y70.520I0.650J0.000
N30930G3X42.225Y71.170I0.000J0.650
N30940G01Z-0.700F30.0
N30950G3X41.575Y71.820I-0.650J0.000F600.0
N30960G3X40.925Y71.170I0.000J-0.650
N30970G3X41.575Y70.520I0.650J0.000
N30980G3X42.225Y71.170I0.000J0.650
N30990G01Z-0.750F30.0
N31000G3X41.575Y71.820I-0.650J0.000F600.0
N31010G3X40.925Y71.170I0.000J-0.650
N31020G3X41.575Y70.520I0.650J0.000
N31030G3X42.225Y71.170I0.000J0.650
N31040G01Z-0.800F30.0
N31050G3X41.575Y71.820I-0.650J0.000F600.0
N31060G3X40.925Y71.170I0.000J-0.650
N31070G3X41.575Y70.520I0.650J0.000
N31080G3X42.225Y71.170I0.000J0.650
N31090G01Z-0.850F30.0
N31100G3X41.575Y71.820I-0.650J0.000F600.0
N31110G3X40.925Y71.170I0.000J-0.650
N31120G3X41.575Y70.520I0.650J0.000
N31130G3X42.225Y71.170I0.000J0.650
N31140G01Z-0.900F30.0
N31150G3X41.575Y71.820I-0.650J0.000F600.0
N31160G3X40.925Y71.170I0.000J-0.650
N31170G3X41.575Y70.520I0.650J0.000
N31180G3X42.225Y71.170I0.000J0.650
N31190G01Z-0.950F30.0
N31200G3X41.575Y71.820I-0.650J0.000F600.0
N31210G3X40.925Y71.170I0.000J-0.650
N31220G3X41.575Y70.520I0.650J0.000
N31230G3X42.225Y71.170I0.000J0.650
N31240G01Z-1.000F30.0
N31250G3X41.575Y71.820I-0.650J0.000F600.0
N31260G3X40.925Y71.170I0.000J-0.650
N31270G3X41.575Y70.520I0.650J0.000
N31280G3X42.225Y71.170I0.000J0.650
N31290G01Z-1.050F30.0
N31300G3X41.575Y71.820I-0.650J0.000F600.0
N31310G3X40.925Y71.170I0.000J-0.650
N31320G3X41.575Y70.520I0.650J0.000
N31330G3X42.225Y71.170I0.000J0.650
N31340G01Z-1.100F30.0
N31350G3X41.575Y71.820I-0.650J0.000F600.0
N31360G3X40.925Y71.170I0.000J-0.650
N31370G3X41.575Y70.520I0.650J0.000
N31380G3X42.225Y71.170I0.000J0.650
N31390G01Z-1.150F30.0
N31400G3X41.575Y71.820I-0.650J0.000F600.0
N31410G3X40.925Y71.170I0.000J-0.650
N31420G3X41.575Y70.520I0.650J0.000
N31430G3X42.225Y71.170I0.000J0.650
N31440G01Z-1.200F30.0
N31450G3X41.575Y71.820I-0.650J0.000F600.0
N31460G3X40.925Y71.170I0.000J-0.650
N31470G3X41.575Y70.520I0.650J0.000
N31480G3X42.225Y71.170I0.000J0.650
N31490G01Z-1.250F30.0
N31500G3X41.575Y71.820I-0.650J0.000F600.0
N31510G3X40.925Y71.170I0.000J-0.650
N31520G3X41.575Y70.520I0.650J0.000
N31530G3X42.225Y71.170I0.000J0.650
N31540G01Z-1.300F30.0
N31550G3X41.575Y71.820I-0.650J0.000F600.0
N31560G3X40.925Y71.170I0.000J-0.650
N31570G3X41.575Y70.520I0.650J0.000
N31580G3X42.225Y71.170I0.000J0.650
N31590G01Z-1.350F30.0
N31600G3X41.575Y71.820I-0.650J0.000F600.0
N31610G3X40.925Y71.170I0.000J-0.650
N31620G3X41.575Y70.520I0.650J0.000
N31630G3X42.225Y71.170I0.000J0.650
N31640G01Z-1.400F30.0
N31650G3X41.575Y71.820I-0.650J0.000F600.0
N31660G3X40.925Y71.170I0.000J-0.650
N31670G3X41.575Y70.520I0.650J0.000
N31680G3X42.225Y71.170I0.000J0.650
N31690G01Z-1.450F30.0
N31700G3X41.575Y71.820I-0.650J0.000F600.0
N31710G3X40.925Y71.170I0.000J-0.650
N31720G3X41.575Y70.520I0.650J0.000
N31730G3X42.225Y71.170I0.000J0.650
N31740G01Z-1.500F30.0
N31750G3X41.575Y71.820I-0.650J0.000F600.0
N31760G3X40.925Y71.170I0.000J-0.650
N31770G3X41.575Y70.520I0.650J0.000
N31780G3X42.225Y71.170I0.000J0.650
N31790G01Z-1.550F30.0
N31800G3X41.575Y71.820I-0.650J0.000F600.0
N31810G3X40.925Y71.170I0.000J-0.650
N31820G3X41.575Y70.520I0.650J0.000
N31830G3X42.225Y71.170I0.000J0.650
N31840G01Z-1.600F30.0
N31850G3X41.575Y71.820I-0.650J0.000F600.0
N31860G3X40.925Y71.170I0.000J-0.650
N31870G3X41.575Y70.520I0.650J0.000
N31880G3X42.225Y71.170I0.000J0.650
N31890G01Z-1.650F30.0
N31900G3X41.575Y71.820I-0.650J0.000F600.0
N31910G3X40.925Y71.170I0.000J-0.650
N31920G3X41.575Y70.520I0.650J0.000
N31930G3X42.225Y71.170I0.000J0.650
N31940G01Z-1.700F30.0
N31950G3X41.575Y71.820I-0.650J0.000F600.0
N31960G3X40.925Y71.170I0.000J-0.650
N31970G3X41.575Y70.520I0.650J0.000
N31980G3X42.225Y71.170I0.000J0.650
N31990G01Z-1.750F30.0
N32000G3X41.575Y71.820I-0.650J0.000F600.0
N32010G3X40.925Y71.170I0.000J-0.650
N32020G3X41.575Y70.520I0.650J0.000
N32030G3X42.225Y71.170I0.000J0.650
N32040G01Z-1.800F30.0
N32050G3X41.575Y71.820I-0.650J0.000F600.0
N32060G3X40.925Y71.170I0.000J-0.650
N32070G3X41.575Y70.520I0.650J0.000
N32080G3X42.225Y71.170I0.000J0.650
N32090G01Z-1.850F30.0
N32100G3X41.575Y71.820I-0.650J0.000F600.0
N32110G3X40.925Y71.170I0.000J-0.650
N32120G3X41.575Y70.520I0.650J0.000
N32130G3X42.225Y71.170I0.000J0.650
N32140G01Z-1.900F30.0
N32150G3X41.575Y71.820I-0.650J0.000F600.0
N32160G3X40.925Y71.170I0.000J-0.650
N32170G3X41.575Y70.520I0.650J0.000
N32180G3X42.225Y71.170I0.000J0.650
N32190G01Z-1.950F30.0
N32200G3X41.575Y71.820I-0.650J0.000F600.0
N32210G3X40.925Y71.170I0.000J-0.650
N32220G3X41.575Y70.520I0.650J0.000
N32230G3X42.225Y71.170I0.000J0.650
N32240G01Z-2.000F30.0
N32250G3X41.575Y71.820I-0.650J0.000F600.0
N32260G3X40.925Y71.170I0.000J-0.650
N32270G3X41.575Y70.520I0.650J0.000
N32280G3X42.225Y71.170I0.000J0.650
N32290G01Z-2.050F30.0
N32300G3X41.575Y71.820I-0.650J0.000F600.0
N32310G3X40.925Y71.170I0.000J-0.650
N32320G3X41.575Y70.520I0.650J0.000
N32330G3X42.225Y71.170I0.000J0.650
N32340G01Z-2.100F30.0
N32350G3X41.575Y71.820I-0.650J0.000F600.0
N32360G3X40.925Y71.170I0.000J-0.650
N32370G3X41.575Y70.520I0.650J0.000
N32380G3X42.225Y71.170I0.000J0.650
N32390G01Z-2.150F30.0
N32400G3X41.575Y71.820I-0.650J0.000F600.0
N32410G3X40.925Y71.170I0.000J-0.650
N32420G3X41.575Y70.520I0.650J0.000
N32430G3X42.225Y71.170I0.000J0.650
N32440G01Z-2.200F30.0
N32450G3X41.575Y71.820I-0.650J0.000F600.0
N32460G3X40.925Y71.170I0.000J-0.650
N32470G3X41.575Y70.520I0.650J0.000
N32480G3X42.225Y71.170I0.000J0.650
N32490G01Z-2.250F30.0
N32500G3X41.575Y71.820I-0.650J0.000F600.0
N32510G3X40.925Y71.170I0.000J-0.650
N32520G3X41.575Y70.520I0.650J0.000
N32530G3X42.225Y71.170I0.000J0.650
N32540G01Z-2.300F30.0
N32550G3X41.575Y71.820I-0.650J0.000F600.0
N32560G3X40.925Y71.170I0.000J-0.650
N32570G3X41.575Y70.520I0.650J0.000
N32580G3X42.225Y71.170I0.000J0.650
N32590G01Z-2.350F30.0
N32600G3X41.575Y71.820I-0.650J0.000F600.0
N32610G3X40.925Y71.170I0.000J-0.650
N32620G3X41.575Y70.520I0.650J0.000
N32630G3X42.225Y71.170I0.000J0.650
N32640G01Z-2.400F30.0
N32650G3X41.575Y71.820I-0.650J0.000F600.0
N32660G3X40.925Y71.170I0.000J-0.650
N32670G3X41.575Y70.520I0.650J0.000
N32680G3X42.225Y71.170I0.000J0.650
N32690G01Z-2.450F30.0
N32700G3X41.575Y71.820I-0.650J0.000F600.0
N32710G3X40.925Y71.170I0.000J-0.650
N32720G3X41.575Y70.520I0.650J0.000
N32730G3X42.225Y71.170I0.000J0.650
N32740G01Z-2.500F30.0
N32750G3X41.575Y71.820I-0.650J0.000F600.0
N32760G3X40.925Y71.170I0.000J-0.650
N32770G3X41.575Y70.520I0.650J0.000
N32780G3X42.225Y71.170I0.000J0.650
N32790G01Z-2.550F30.0
N32800G3X41.575Y71.820I-0.650J0.000F600.0
N32810G3X40.925Y71.170I0.000J-0.650
N32820G3X41.575Y70.520I0.650J0.000
N32830G3X42.225Y71.170I0.000J0.650
N32840G01Z-2.600F30.0
N32850G3X41.575Y71.820I-0.650J0.000F600.0
N32860G3X40.925Y71.170I0.000J-0.650
N32870G3X41.575Y70.520I0.650J0.000
N32880G3X42.225Y71.170I0.000J0.650
N32890G01Z-2.650F30.0
N32900G3X41.575Y71.820I-0.650J0.000F600.0
N32910G3X40.925Y71.170I0.000J-0.650
N32920G3X41.575Y70.520I0.650J0.000
N32930G3X42.225Y71.170I0.000J0.650
N32940G01Z-2.700F30.0
N32950G3X41.575Y71.820I-0.650J0.000F600.0
N32960G3X40.925Y71.170I0.000J-0.650
N32970G3X41.575Y70.520I0.650J0.000
N32980G3X42.225Y71.170I0.000J0.650
N32990G01Z-2.750F30.0
N33000G3X41.575Y71.820I-0.650J0.000F600.0
N33010G3X40.925Y71.170I0.000J-0.650
N33020G3X41.575Y70.520I0.650J0.000
N33030G3X42.225Y71.170I0.000J0.650
N33040G01Z-2.800F30.0
N33050G3X41.575Y71.820I-0.650J0.000F600.0
N33060G3X40.925Y71.170I0.000J-0.650
N33070G3X41.575Y70.520I0.650J0.000
N33080G3X42.225Y71.170I0.000J0.650
N33090G01Z-2.850F30.0
N33100G3X41.575Y71.820I-0.650J0.000F600.0
N33110G3X40.925Y71.170I0.000J-0.650
N33120G3X41.575Y70.520I0.650J0.000
N33130G3X42.225Y71.170I0.000J0.650
N33140G01Z-2.900F30.0
N33150G3X41.575Y71.820I-0.650J0.000F600.0
N33160G3X40.925Y71.170I0.000J-0.650
N33170G3X41.575Y70.520I0.650J0.000
N33180G3X42.225Y71.170I0.000J0.650
N33190G01Z-2.950F30.0
N33200G3X41.575Y71.820I-0.650J0.000F600.0
N33210G3X40.925Y71.170I0.000J-0.650
N33220G3X41.575Y70.520I0.650J0.000
N33230G3X42.225Y71.170I0.000J0.650
N33240G01Z-3.000F30.0
N33250G3X41.575Y71.820I-0.650J0.000F600.0
N33260G3X40.925Y71.170I0.000J-0.650
N33270G3X41.575Y70.520I0.650J0.000
N33280G3X42.225Y71.170I0.000J0.650
N33290G00Z6.000
N33300G00X44.635Y82.130
N33310G01Z-0.050F30.0
N33320G01X44.535Y82.230F600.0
N33330X44.435Y82.130
N33340X44.535Y82.030
N33350X44.635Y82.130
N33360G01Z-0.100F30.0
N33370G01X44.535Y82.230F600.0
N33380X44.435Y82.130
N33390X44.535Y82.030
N33400X44.635Y82.130
N33410G01Z-0.150F30.0
N33420G01X44.535Y82.230F600.0
N33430X44.435Y82.130
N33440X44.535Y82.030
N33450X44.635Y82.130
N33460G01Z-0.200F30.0
N33470G01X44.535Y82.230F600.0
N33480X44.435Y82.130
N33490X44.535Y82.030
N33500X44.635Y82.130
N33510G01Z-0.250F30.0
N33520G01X44.535Y82.230F600.0
N33530X44.435Y82.130
N33540X44.535Y82.030
N33550X44.635Y82.130
N33560G01Z-0.300F30.0
N33570G01X44.535Y82.230F600.0
N33580X44.435Y82.130
N33590X44.535Y82.030
N33600X44.635Y82.130
N33610G01Z-0.350F30.0
N33620G01X44.535Y82.230F600.0
N33630X44.435Y82.130
N33640X44.535Y82.030
N33650X44.635Y82.130
N33660G01Z-0.400F30.0
N33670G01X44.535Y82.230F600.0
N33680X44.435Y82.130
N33690X44.535Y82.030
N33700X44.635Y82.130
N33710G01Z-0.450F30.0
N33720G01X44.535Y82.230F600.0
N33730X44.435Y82.130
N33740X44.535Y82.030
N33750X44.635Y82.130
N33760G01Z-0.500F30.0
N33770G01X44.535Y82.230F600.0
N33780X44.435Y82.130
N33790X44.535Y82.030
N33800X44.635Y82.130
N33810G01Z-0.550F30.0
N33820G01X44.535Y82.230F600.0
N33830X44.435Y82.130
N33840X44.535Y82.030
N33850X44.635Y82.130
N33860G01Z-0.600F30.0
N33870G01X44.535Y82.230F600.0
N33880X44.435Y82.130
N33890X44.535Y82.030
N33900X44.635Y82.130
N33910G01Z-0.650F30.0
N33920G01X44.535Y82.230F600.0
N33930X44.435Y82.130
N33940X44.535Y82.030
N33950X44.635Y82.130
