( 3mm_inside )
( USBCNC Postprocessor )
N20G00G21G17G90G40G49
N30G80
N40G00G43Z20.000H5
N50S8000M03
N60G94
N70X0.000Y0.000F600.0
N80G00X15.779Y14.532Z6.000
N90G01Z-0.050F30.0
N100G3X15.679Y14.632I-0.100J0.000F600.0
N110G3X15.579Y14.532I0.000J-0.100
N120G3X15.679Y14.432I0.100J0.000
N130G3X15.779Y14.532I0.000J0.100
N140G01Z-0.100F30.0
N150G3X15.679Y14.632I-0.100J0.000F600.0
N160G3X15.579Y14.532I0.000J-0.100
N170G3X15.679Y14.432I0.100J0.000
N180G3X15.779Y14.532I0.000J0.100
N190G01Z-0.150F30.0
N200G3X15.679Y14.632I-0.100J0.000F600.0
N210G3X15.579Y14.532I0.000J-0.100
N220G3X15.679Y14.432I0.100J0.000
N230G3X15.779Y14.532I0.000J0.100
N240G01Z-0.200F30.0
N250G3X15.679Y14.632I-0.100J0.000F600.0
N260G3X15.579Y14.532I0.000J-0.100
N270G3X15.679Y14.432I0.100J0.000
N280G3X15.779Y14.532I0.000J0.100
N290G01Z-0.250F30.0
N300G3X15.679Y14.632I-0.100J0.000F600.0
N310G3X15.579Y14.532I0.000J-0.100
N320G3X15.679Y14.432I0.100J0.000
N330G3X15.779Y14.532I0.000J0.100
N340G01Z-0.300F30.0
N350G3X15.679Y14.632I-0.100J0.000F600.0
N360G3X15.579Y14.532I0.000J-0.100
N370G3X15.679Y14.432I0.100J0.000
N380G3X15.779Y14.532I0.000J0.100
N390G01Z-0.350F30.0
N400G3X15.679Y14.632I-0.100J0.000F600.0
N410G3X15.579Y14.532I0.000J-0.100
N420G3X15.679Y14.432I0.100J0.000
N430G3X15.779Y14.532I0.000J0.100
N440G01Z-0.400F30.0
N450G3X15.679Y14.632I-0.100J0.000F600.0
N460G3X15.579Y14.532I0.000J-0.100
N470G3X15.679Y14.432I0.100J0.000
N480G3X15.779Y14.532I0.000J0.100
N490G01Z-0.450F30.0
N500G3X15.679Y14.632I-0.100J0.000F600.0
N510G3X15.579Y14.532I0.000J-0.100
N520G3X15.679Y14.432I0.100J0.000
N530G3X15.779Y14.532I0.000J0.100
N540G01Z-0.500F30.0
N550G3X15.679Y14.632I-0.100J0.000F600.0
N560G3X15.579Y14.532I0.000J-0.100
N570G3X15.679Y14.432I0.100J0.000
N580G3X15.779Y14.532I0.000J0.100
N590G01Z-0.550F30.0
N600G3X15.679Y14.632I-0.100J0.000F600.0
N610G3X15.579Y14.532I0.000J-0.100
N620G3X15.679Y14.432I0.100J0.000
N630G3X15.779Y14.532I0.000J0.100
N640G01Z-0.600F30.0
N650G3X15.679Y14.632I-0.100J0.000F600.0
N660G3X15.579Y14.532I0.000J-0.100
N670G3X15.679Y14.432I0.100J0.000
N680G3X15.779Y14.532I0.000J0.100
N690G01Z-0.650F30.0
N700G3X15.679Y14.632I-0.100J0.000F600.0
N710G3X15.579Y14.532I0.000J-0.100
N720G3X15.679Y14.432I0.100J0.000
N730G3X15.779Y14.532I0.000J0.100
N740G01Z-0.700F30.0
N750G3X15.679Y14.632I-0.100J0.000F600.0
N760G3X15.579Y14.532I0.000J-0.100
N770G3X15.679Y14.432I0.100J0.000
N780G3X15.779Y14.532I0.000J0.100
N790G01Z-0.750F30.0
N800G3X15.679Y14.632I-0.100J0.000F600.0
N810G3X15.579Y14.532I0.000J-0.100
N820G3X15.679Y14.432I0.100J0.000
N830G3X15.779Y14.532I0.000J0.100
N840G01Z-0.800F30.0
N850G3X15.679Y14.632I-0.100J0.000F600.0
N860G3X15.579Y14.532I0.000J-0.100
N870G3X15.679Y14.432I0.100J0.000
N880G3X15.779Y14.532I0.000J0.100
N890G01Z-0.850F30.0
N900G3X15.679Y14.632I-0.100J0.000F600.0
N910G3X15.579Y14.532I0.000J-0.100
N920G3X15.679Y14.432I0.100J0.000
N930G3X15.779Y14.532I0.000J0.100
N940G01Z-0.900F30.0
N950G3X15.679Y14.632I-0.100J0.000F600.0
N960G3X15.579Y14.532I0.000J-0.100
N970G3X15.679Y14.432I0.100J0.000
N980G3X15.779Y14.532I0.000J0.100
N990G01Z-0.950F30.0
N1000G3X15.679Y14.632I-0.100J0.000F600.0
N1010G3X15.579Y14.532I0.000J-0.100
N1020G3X15.679Y14.432I0.100J0.000
N1030G3X15.779Y14.532I0.000J0.100
N1040G01Z-1.000F30.0
N1050G3X15.679Y14.632I-0.100J0.000F600.0
N1060G3X15.579Y14.532I0.000J-0.100
N1070G3X15.679Y14.432I0.100J0.000
N1080G3X15.779Y14.532I0.000J0.100
N1090G01Z-1.050F30.0
N1100G3X15.679Y14.632I-0.100J0.000F600.0
N1110G3X15.579Y14.532I0.000J-0.100
N1120G3X15.679Y14.432I0.100J0.000
N1130G3X15.779Y14.532I0.000J0.100
N1140G01Z-1.100F30.0
N1150G3X15.679Y14.632I-0.100J0.000F600.0
N1160G3X15.579Y14.532I0.000J-0.100
N1170G3X15.679Y14.432I0.100J0.000
N1180G3X15.779Y14.532I0.000J0.100
N1190G01Z-1.150F30.0
N1200G3X15.679Y14.632I-0.100J0.000F600.0
N1210G3X15.579Y14.532I0.000J-0.100
N1220G3X15.679Y14.432I0.100J0.000
N1230G3X15.779Y14.532I0.000J0.100
N1240G01Z-1.200F30.0
N1250G3X15.679Y14.632I-0.100J0.000F600.0
N1260G3X15.579Y14.532I0.000J-0.100
N1270G3X15.679Y14.432I0.100J0.000
N1280G3X15.779Y14.532I0.000J0.100
N1290G01Z-1.250F30.0
N1300G3X15.679Y14.632I-0.100J0.000F600.0
N1310G3X15.579Y14.532I0.000J-0.100
N1320G3X15.679Y14.432I0.100J0.000
N1330G3X15.779Y14.532I0.000J0.100
N1340G01Z-1.300F30.0
N1350G3X15.679Y14.632I-0.100J0.000F600.0
N1360G3X15.579Y14.532I0.000J-0.100
N1370G3X15.679Y14.432I0.100J0.000
N1380G3X15.779Y14.532I0.000J0.100
N1390G01Z-1.350F30.0
N1400G3X15.679Y14.632I-0.100J0.000F600.0
N1410G3X15.579Y14.532I0.000J-0.100
N1420G3X15.679Y14.432I0.100J0.000
N1430G3X15.779Y14.532I0.000J0.100
N1440G01Z-1.400F30.0
N1450G3X15.679Y14.632I-0.100J0.000F600.0
N1460G3X15.579Y14.532I0.000J-0.100
N1470G3X15.679Y14.432I0.100J0.000
N1480G3X15.779Y14.532I0.000J0.100
N1490G01Z-1.450F30.0
N1500G3X15.679Y14.632I-0.100J0.000F600.0
N1510G3X15.579Y14.532I0.000J-0.100
N1520G3X15.679Y14.432I0.100J0.000
N1530G3X15.779Y14.532I0.000J0.100
N1540G01Z-1.500F30.0
N1550G3X15.679Y14.632I-0.100J0.000F600.0
N1560G3X15.579Y14.532I0.000J-0.100
N1570G3X15.679Y14.432I0.100J0.000
N1580G3X15.779Y14.532I0.000J0.100
N1590G01Z-1.550F30.0
N1600G3X15.679Y14.632I-0.100J0.000F600.0
N1610G3X15.579Y14.532I0.000J-0.100
N1620G3X15.679Y14.432I0.100J0.000
N1630G3X15.779Y14.532I0.000J0.100
N1640G01Z-1.600F30.0
N1650G3X15.679Y14.632I-0.100J0.000F600.0
N1660G3X15.579Y14.532I0.000J-0.100
N1670G3X15.679Y14.432I0.100J0.000
N1680G3X15.779Y14.532I0.000J0.100
N1690G01Z-1.650F30.0
N1700G3X15.679Y14.632I-0.100J0.000F600.0
N1710G3X15.579Y14.532I0.000J-0.100
N1720G3X15.679Y14.432I0.100J0.000
N1730G3X15.779Y14.532I0.000J0.100
N1740G01Z-1.700F30.0
N1750G3X15.679Y14.632I-0.100J0.000F600.0
N1760G3X15.579Y14.532I0.000J-0.100
N1770G3X15.679Y14.432I0.100J0.000
N1780G3X15.779Y14.532I0.000J0.100
N1790G01Z-1.750F30.0
N1800G3X15.679Y14.632I-0.100J0.000F600.0
N1810G3X15.579Y14.532I0.000J-0.100
N1820G3X15.679Y14.432I0.100J0.000
N1830G3X15.779Y14.532I0.000J0.100
N1840G01Z-1.800F30.0
N1850G3X15.679Y14.632I-0.100J0.000F600.0
N1860G3X15.579Y14.532I0.000J-0.100
N1870G3X15.679Y14.432I0.100J0.000
N1880G3X15.779Y14.532I0.000J0.100
N1890G01Z-1.850F30.0
N1900G3X15.679Y14.632I-0.100J0.000F600.0
N1910G3X15.579Y14.532I0.000J-0.100
N1920G3X15.679Y14.432I0.100J0.000
N1930G3X15.779Y14.532I0.000J0.100
N1940G01Z-1.900F30.0
N1950G3X15.679Y14.632I-0.100J0.000F600.0
N1960G3X15.579Y14.532I0.000J-0.100
N1970G3X15.679Y14.432I0.100J0.000
N1980G3X15.779Y14.532I0.000J0.100
N1990G01Z-1.950F30.0
N2000G3X15.679Y14.632I-0.100J0.000F600.0
N2010G3X15.579Y14.532I0.000J-0.100
N2020G3X15.679Y14.432I0.100J0.000
N2030G3X15.779Y14.532I0.000J0.100
N2040G01Z-2.000F30.0
N2050G3X15.679Y14.632I-0.100J0.000F600.0
N2060G3X15.579Y14.532I0.000J-0.100
N2070G3X15.679Y14.432I0.100J0.000
N2080G3X15.779Y14.532I0.000J0.100
N2090G01Z-2.050F30.0
N2100G3X15.679Y14.632I-0.100J0.000F600.0
N2110G3X15.579Y14.532I0.000J-0.100
N2120G3X15.679Y14.432I0.100J0.000
N2130G3X15.779Y14.532I0.000J0.100
N2140G01Z-2.100F30.0
N2150G3X15.679Y14.632I-0.100J0.000F600.0
N2160G3X15.579Y14.532I0.000J-0.100
N2170G3X15.679Y14.432I0.100J0.000
N2180G3X15.779Y14.532I0.000J0.100
N2190G01Z-2.150F30.0
N2200G3X15.679Y14.632I-0.100J0.000F600.0
N2210G3X15.579Y14.532I0.000J-0.100
N2220G3X15.679Y14.432I0.100J0.000
N2230G3X15.779Y14.532I0.000J0.100
N2240G01Z-2.200F30.0
N2250G3X15.679Y14.632I-0.100J0.000F600.0
N2260G3X15.579Y14.532I0.000J-0.100
N2270G3X15.679Y14.432I0.100J0.000
N2280G3X15.779Y14.532I0.000J0.100
N2290G01Z-2.250F30.0
N2300G3X15.679Y14.632I-0.100J0.000F600.0
N2310G3X15.579Y14.532I0.000J-0.100
N2320G3X15.679Y14.432I0.100J0.000
N2330G3X15.779Y14.532I0.000J0.100
N2340G01Z-2.300F30.0
N2350G3X15.679Y14.632I-0.100J0.000F600.0
N2360G3X15.579Y14.532I0.000J-0.100
N2370G3X15.679Y14.432I0.100J0.000
N2380G3X15.779Y14.532I0.000J0.100
N2390G01Z-2.350F30.0
N2400G3X15.679Y14.632I-0.100J0.000F600.0
N2410G3X15.579Y14.532I0.000J-0.100
N2420G3X15.679Y14.432I0.100J0.000
N2430G3X15.779Y14.532I0.000J0.100
N2440G01Z-2.400F30.0
N2450G3X15.679Y14.632I-0.100J0.000F600.0
N2460G3X15.579Y14.532I0.000J-0.100
N2470G3X15.679Y14.432I0.100J0.000
N2480G3X15.779Y14.532I0.000J0.100
N2490G01Z-2.450F30.0
N2500G3X15.679Y14.632I-0.100J0.000F600.0
N2510G3X15.579Y14.532I0.000J-0.100
N2520G3X15.679Y14.432I0.100J0.000
N2530G3X15.779Y14.532I0.000J0.100
N2540G01Z-2.500F30.0
N2550G3X15.679Y14.632I-0.100J0.000F600.0
N2560G3X15.579Y14.532I0.000J-0.100
N2570G3X15.679Y14.432I0.100J0.000
N2580G3X15.779Y14.532I0.000J0.100
N2590G01Z-2.550F30.0
N2600G3X15.679Y14.632I-0.100J0.000F600.0
N2610G3X15.579Y14.532I0.000J-0.100
N2620G3X15.679Y14.432I0.100J0.000
N2630G3X15.779Y14.532I0.000J0.100
N2640G01Z-2.600F30.0
N2650G3X15.679Y14.632I-0.100J0.000F600.0
N2660G3X15.579Y14.532I0.000J-0.100
N2670G3X15.679Y14.432I0.100J0.000
N2680G3X15.779Y14.532I0.000J0.100
N2690G01Z-2.650F30.0
N2700G3X15.679Y14.632I-0.100J0.000F600.0
N2710G3X15.579Y14.532I0.000J-0.100
N2720G3X15.679Y14.432I0.100J0.000
N2730G3X15.779Y14.532I0.000J0.100
N2740G01Z-2.700F30.0
N2750G3X15.679Y14.632I-0.100J0.000F600.0
N2760G3X15.579Y14.532I0.000J-0.100
N2770G3X15.679Y14.432I0.100J0.000
N2780G3X15.779Y14.532I0.000J0.100
N2790G01Z-2.750F30.0
N2800G3X15.679Y14.632I-0.100J0.000F600.0
N2810G3X15.579Y14.532I0.000J-0.100
N2820G3X15.679Y14.432I0.100J0.000
N2830G3X15.779Y14.532I0.000J0.100
N2840G01Z-2.800F30.0
N2850G3X15.679Y14.632I-0.100J0.000F600.0
N2860G3X15.579Y14.532I0.000J-0.100
N2870G3X15.679Y14.432I0.100J0.000
N2880G3X15.779Y14.532I0.000J0.100
N2890G01Z-2.850F30.0
N2900G3X15.679Y14.632I-0.100J0.000F600.0
N2910G3X15.579Y14.532I0.000J-0.100
N2920G3X15.679Y14.432I0.100J0.000
N2930G3X15.779Y14.532I0.000J0.100
N2940G01Z-2.900F30.0
N2950G3X15.679Y14.632I-0.100J0.000F600.0
N2960G3X15.579Y14.532I0.000J-0.100
N2970G3X15.679Y14.432I0.100J0.000
N2980G3X15.779Y14.532I0.000J0.100
N2990G01Z-2.950F30.0
N3000G3X15.679Y14.632I-0.100J0.000F600.0
N3010G3X15.579Y14.532I0.000J-0.100
N3020G3X15.679Y14.432I0.100J0.000
N3030G3X15.779Y14.532I0.000J0.100
N3040G01Z-3.000F30.0
N3050G3X15.679Y14.632I-0.100J0.000F600.0
N3060G3X15.579Y14.532I0.000J-0.100
N3070G3X15.679Y14.432I0.100J0.000
N3080G3X15.779Y14.532I0.000J0.100
N3090G00Z6.000
N3100G00X23.779
N3110G01Z-0.050F30.0
N3120G3X23.679Y14.632I-0.100J0.000F600.0
N3130G3X23.579Y14.532I0.000J-0.100
N3140G3X23.679Y14.432I0.100J0.000
N3150G3X23.779Y14.532I0.000J0.100
N3160G01Z-0.100F30.0
N3170G3X23.679Y14.632I-0.100J0.000F600.0
N3180G3X23.579Y14.532I0.000J-0.100
N3190G3X23.679Y14.432I0.100J0.000
N3200G3X23.779Y14.532I0.000J0.100
N3210G01Z-0.150F30.0
N3220G3X23.679Y14.632I-0.100J0.000F600.0
N3230G3X23.579Y14.532I0.000J-0.100
N3240G3X23.679Y14.432I0.100J0.000
N3250G3X23.779Y14.532I0.000J0.100
N3260G01Z-0.200F30.0
N3270G3X23.679Y14.632I-0.100J0.000F600.0
N3280G3X23.579Y14.532I0.000J-0.100
N3290G3X23.679Y14.432I0.100J0.000
N3300G3X23.779Y14.532I0.000J0.100
N3310G01Z-0.250F30.0
N3320G3X23.679Y14.632I-0.100J0.000F600.0
N3330G3X23.579Y14.532I0.000J-0.100
N3340G3X23.679Y14.432I0.100J0.000
N3350G3X23.779Y14.532I0.000J0.100
N3360G01Z-0.300F30.0
N3370G3X23.679Y14.632I-0.100J0.000F600.0
N3380G3X23.579Y14.532I0.000J-0.100
N3390G3X23.679Y14.432I0.100J0.000
N3400G3X23.779Y14.532I0.000J0.100
N3410G01Z-0.350F30.0
N3420G3X23.679Y14.632I-0.100J0.000F600.0
N3430G3X23.579Y14.532I0.000J-0.100
N3440G3X23.679Y14.432I0.100J0.000
N3450G3X23.779Y14.532I0.000J0.100
N3460G01Z-0.400F30.0
N3470G3X23.679Y14.632I-0.100J0.000F600.0
N3480G3X23.579Y14.532I0.000J-0.100
N3490G3X23.679Y14.432I0.100J0.000
N3500G3X23.779Y14.532I0.000J0.100
N3510G01Z-0.450F30.0
N3520G3X23.679Y14.632I-0.100J0.000F600.0
N3530G3X23.579Y14.532I0.000J-0.100
N3540G3X23.679Y14.432I0.100J0.000
N3550G3X23.779Y14.532I0.000J0.100
N3560G01Z-0.500F30.0
N3570G3X23.679Y14.632I-0.100J0.000F600.0
N3580G3X23.579Y14.532I0.000J-0.100
N3590G3X23.679Y14.432I0.100J0.000
N3600G3X23.779Y14.532I0.000J0.100
N3610G01Z-0.550F30.0
N3620G3X23.679Y14.632I-0.100J0.000F600.0
N3630G3X23.579Y14.532I0.000J-0.100
N3640G3X23.679Y14.432I0.100J0.000
N3650G3X23.779Y14.532I0.000J0.100
N3660G01Z-0.600F30.0
N3670G3X23.679Y14.632I-0.100J0.000F600.0
N3680G3X23.579Y14.532I0.000J-0.100
N3690G3X23.679Y14.432I0.100J0.000
N3700G3X23.779Y14.532I0.000J0.100
N3710G01Z-0.650F30.0
N3720G3X23.679Y14.632I-0.100J0.000F600.0
N3730G3X23.579Y14.532I0.000J-0.100
N3740G3X23.679Y14.432I0.100J0.000
N3750G3X23.779Y14.532I0.000J0.100
N3760G01Z-0.700F30.0
N3770G3X23.679Y14.632I-0.100J0.000F600.0
N3780G3X23.579Y14.532I0.000J-0.100
N3790G3X23.679Y14.432I0.100J0.000
N3800G3X23.779Y14.532I0.000J0.100
N3810G01Z-0.750F30.0
N3820G3X23.679Y14.632I-0.100J0.000F600.0
N3830G3X23.579Y14.532I0.000J-0.100
N3840G3X23.679Y14.432I0.100J0.000
N3850G3X23.779Y14.532I0.000J0.100
N3860G01Z-0.800F30.0
N3870G3X23.679Y14.632I-0.100J0.000F600.0
N3880G3X23.579Y14.532I0.000J-0.100
N3890G3X23.679Y14.432I0.100J0.000
N3900G3X23.779Y14.532I0.000J0.100
N3910G01Z-0.850F30.0
N3920G3X23.679Y14.632I-0.100J0.000F600.0
N3930G3X23.579Y14.532I0.000J-0.100
N3940G3X23.679Y14.432I0.100J0.000
N3950G3X23.779Y14.532I0.000J0.100
N3960G01Z-0.900F30.0
N3970G3X23.679Y14.632I-0.100J0.000F600.0
N3980G3X23.579Y14.532I0.000J-0.100
N3990G3X23.679Y14.432I0.100J0.000
N4000G3X23.779Y14.532I0.000J0.100
N4010G01Z-0.950F30.0
N4020G3X23.679Y14.632I-0.100J0.000F600.0
N4030G3X23.579Y14.532I0.000J-0.100
N4040G3X23.679Y14.432I0.100J0.000
N4050G3X23.779Y14.532I0.000J0.100
N4060G01Z-1.000F30.0
N4070G3X23.679Y14.632I-0.100J0.000F600.0
N4080G3X23.579Y14.532I0.000J-0.100
N4090G3X23.679Y14.432I0.100J0.000
N4100G3X23.779Y14.532I0.000J0.100
N4110G01Z-1.050F30.0
N4120G3X23.679Y14.632I-0.100J0.000F600.0
N4130G3X23.579Y14.532I0.000J-0.100
N4140G3X23.679Y14.432I0.100J0.000
N4150G3X23.779Y14.532I0.000J0.100
N4160G01Z-1.100F30.0
N4170G3X23.679Y14.632I-0.100J0.000F600.0
N4180G3X23.579Y14.532I0.000J-0.100
N4190G3X23.679Y14.432I0.100J0.000
N4200G3X23.779Y14.532I0.000J0.100
N4210G01Z-1.150F30.0
N4220G3X23.679Y14.632I-0.100J0.000F600.0
N4230G3X23.579Y14.532I0.000J-0.100
N4240G3X23.679Y14.432I0.100J0.000
N4250G3X23.779Y14.532I0.000J0.100
N4260G01Z-1.200F30.0
N4270G3X23.679Y14.632I-0.100J0.000F600.0
N4280G3X23.579Y14.532I0.000J-0.100
N4290G3X23.679Y14.432I0.100J0.000
N4300G3X23.779Y14.532I0.000J0.100
N4310G01Z-1.250F30.0
N4320G3X23.679Y14.632I-0.100J0.000F600.0
N4330G3X23.579Y14.532I0.000J-0.100
N4340G3X23.679Y14.432I0.100J0.000
N4350G3X23.779Y14.532I0.000J0.100
N4360G01Z-1.300F30.0
N4370G3X23.679Y14.632I-0.100J0.000F600.0
N4380G3X23.579Y14.532I0.000J-0.100
N4390G3X23.679Y14.432I0.100J0.000
N4400G3X23.779Y14.532I0.000J0.100
N4410G01Z-1.350F30.0
N4420G3X23.679Y14.632I-0.100J0.000F600.0
N4430G3X23.579Y14.532I0.000J-0.100
N4440G3X23.679Y14.432I0.100J0.000
N4450G3X23.779Y14.532I0.000J0.100
N4460G01Z-1.400F30.0
N4470G3X23.679Y14.632I-0.100J0.000F600.0
N4480G3X23.579Y14.532I0.000J-0.100
N4490G3X23.679Y14.432I0.100J0.000
N4500G3X23.779Y14.532I0.000J0.100
N4510G01Z-1.450F30.0
N4520G3X23.679Y14.632I-0.100J0.000F600.0
N4530G3X23.579Y14.532I0.000J-0.100
N4540G3X23.679Y14.432I0.100J0.000
N4550G3X23.779Y14.532I0.000J0.100
N4560G01Z-1.500F30.0
N4570G3X23.679Y14.632I-0.100J0.000F600.0
N4580G3X23.579Y14.532I0.000J-0.100
N4590G3X23.679Y14.432I0.100J0.000
N4600G3X23.779Y14.532I0.000J0.100
N4610G01Z-1.550F30.0
N4620G3X23.679Y14.632I-0.100J0.000F600.0
N4630G3X23.579Y14.532I0.000J-0.100
N4640G3X23.679Y14.432I0.100J0.000
N4650G3X23.779Y14.532I0.000J0.100
N4660G01Z-1.600F30.0
N4670G3X23.679Y14.632I-0.100J0.000F600.0
N4680G3X23.579Y14.532I0.000J-0.100
N4690G3X23.679Y14.432I0.100J0.000
N4700G3X23.779Y14.532I0.000J0.100
N4710G01Z-1.650F30.0
N4720G3X23.679Y14.632I-0.100J0.000F600.0
N4730G3X23.579Y14.532I0.000J-0.100
N4740G3X23.679Y14.432I0.100J0.000
N4750G3X23.779Y14.532I0.000J0.100
N4760G01Z-1.700F30.0
N4770G3X23.679Y14.632I-0.100J0.000F600.0
N4780G3X23.579Y14.532I0.000J-0.100
N4790G3X23.679Y14.432I0.100J0.000
N4800G3X23.779Y14.532I0.000J0.100
N4810G01Z-1.750F30.0
N4820G3X23.679Y14.632I-0.100J0.000F600.0
N4830G3X23.579Y14.532I0.000J-0.100
N4840G3X23.679Y14.432I0.100J0.000
N4850G3X23.779Y14.532I0.000J0.100
N4860G01Z-1.800F30.0
N4870G3X23.679Y14.632I-0.100J0.000F600.0
N4880G3X23.579Y14.532I0.000J-0.100
N4890G3X23.679Y14.432I0.100J0.000
N4900G3X23.779Y14.532I0.000J0.100
N4910G01Z-1.850F30.0
N4920G3X23.679Y14.632I-0.100J0.000F600.0
N4930G3X23.579Y14.532I0.000J-0.100
N4940G3X23.679Y14.432I0.100J0.000
N4950G3X23.779Y14.532I0.000J0.100
N4960G01Z-1.900F30.0
N4970G3X23.679Y14.632I-0.100J0.000F600.0
N4980G3X23.579Y14.532I0.000J-0.100
N4990G3X23.679Y14.432I0.100J0.000
N5000G3X23.779Y14.532I0.000J0.100
N5010G01Z-1.950F30.0
N5020G3X23.679Y14.632I-0.100J0.000F600.0
N5030G3X23.579Y14.532I0.000J-0.100
N5040G3X23.679Y14.432I0.100J0.000
N5050G3X23.779Y14.532I0.000J0.100
N5060G01Z-2.000F30.0
N5070G3X23.679Y14.632I-0.100J0.000F600.0
N5080G3X23.579Y14.532I0.000J-0.100
N5090G3X23.679Y14.432I0.100J0.000
N5100G3X23.779Y14.532I0.000J0.100
N5110G01Z-2.050F30.0
N5120G3X23.679Y14.632I-0.100J0.000F600.0
N5130G3X23.579Y14.532I0.000J-0.100
N5140G3X23.679Y14.432I0.100J0.000
N5150G3X23.779Y14.532I0.000J0.100
N5160G01Z-2.100F30.0
N5170G3X23.679Y14.632I-0.100J0.000F600.0
N5180G3X23.579Y14.532I0.000J-0.100
N5190G3X23.679Y14.432I0.100J0.000
N5200G3X23.779Y14.532I0.000J0.100
N5210G01Z-2.150F30.0
N5220G3X23.679Y14.632I-0.100J0.000F600.0
N5230G3X23.579Y14.532I0.000J-0.100
N5240G3X23.679Y14.432I0.100J0.000
N5250G3X23.779Y14.532I0.000J0.100
N5260G01Z-2.200F30.0
N5270G3X23.679Y14.632I-0.100J0.000F600.0
N5280G3X23.579Y14.532I0.000J-0.100
N5290G3X23.679Y14.432I0.100J0.000
N5300G3X23.779Y14.532I0.000J0.100
N5310G01Z-2.250F30.0
N5320G3X23.679Y14.632I-0.100J0.000F600.0
N5330G3X23.579Y14.532I0.000J-0.100
N5340G3X23.679Y14.432I0.100J0.000
N5350G3X23.779Y14.532I0.000J0.100
N5360G01Z-2.300F30.0
N5370G3X23.679Y14.632I-0.100J0.000F600.0
N5380G3X23.579Y14.532I0.000J-0.100
N5390G3X23.679Y14.432I0.100J0.000
N5400G3X23.779Y14.532I0.000J0.100
N5410G01Z-2.350F30.0
N5420G3X23.679Y14.632I-0.100J0.000F600.0
N5430G3X23.579Y14.532I0.000J-0.100
N5440G3X23.679Y14.432I0.100J0.000
N5450G3X23.779Y14.532I0.000J0.100
N5460G01Z-2.400F30.0
N5470G3X23.679Y14.632I-0.100J0.000F600.0
N5480G3X23.579Y14.532I0.000J-0.100
N5490G3X23.679Y14.432I0.100J0.000
N5500G3X23.779Y14.532I0.000J0.100
N5510G01Z-2.450F30.0
N5520G3X23.679Y14.632I-0.100J0.000F600.0
N5530G3X23.579Y14.532I0.000J-0.100
N5540G3X23.679Y14.432I0.100J0.000
N5550G3X23.779Y14.532I0.000J0.100
N5560G01Z-2.500F30.0
N5570G3X23.679Y14.632I-0.100J0.000F600.0
N5580G3X23.579Y14.532I0.000J-0.100
N5590G3X23.679Y14.432I0.100J0.000
N5600G3X23.779Y14.532I0.000J0.100
N5610G01Z-2.550F30.0
N5620G3X23.679Y14.632I-0.100J0.000F600.0
N5630G3X23.579Y14.532I0.000J-0.100
N5640G3X23.679Y14.432I0.100J0.000
N5650G3X23.779Y14.532I0.000J0.100
N5660G01Z-2.600F30.0
N5670G3X23.679Y14.632I-0.100J0.000F600.0
N5680G3X23.579Y14.532I0.000J-0.100
N5690G3X23.679Y14.432I0.100J0.000
N5700G3X23.779Y14.532I0.000J0.100
N5710G01Z-2.650F30.0
N5720G3X23.679Y14.632I-0.100J0.000F600.0
N5730G3X23.579Y14.532I0.000J-0.100
N5740G3X23.679Y14.432I0.100J0.000
N5750G3X23.779Y14.532I0.000J0.100
N5760G01Z-2.700F30.0
N5770G3X23.679Y14.632I-0.100J0.000F600.0
N5780G3X23.579Y14.532I0.000J-0.100
N5790G3X23.679Y14.432I0.100J0.000
N5800G3X23.779Y14.532I0.000J0.100
N5810G01Z-2.750F30.0
N5820G3X23.679Y14.632I-0.100J0.000F600.0
N5830G3X23.579Y14.532I0.000J-0.100
N5840G3X23.679Y14.432I0.100J0.000
N5850G3X23.779Y14.532I0.000J0.100
N5860G01Z-2.800F30.0
N5870G3X23.679Y14.632I-0.100J0.000F600.0
N5880G3X23.579Y14.532I0.000J-0.100
N5890G3X23.679Y14.432I0.100J0.000
N5900G3X23.779Y14.532I0.000J0.100
N5910G01Z-2.850F30.0
N5920G3X23.679Y14.632I-0.100J0.000F600.0
N5930G3X23.579Y14.532I0.000J-0.100
N5940G3X23.679Y14.432I0.100J0.000
N5950G3X23.779Y14.532I0.000J0.100
N5960G01Z-2.900F30.0
N5970G3X23.679Y14.632I-0.100J0.000F600.0
N5980G3X23.579Y14.532I0.000J-0.100
N5990G3X23.679Y14.432I0.100J0.000
N6000G3X23.779Y14.532I0.000J0.100
N6010G01Z-2.950F30.0
N6020G3X23.679Y14.632I-0.100J0.000F600.0
N6030G3X23.579Y14.532I0.000J-0.100
N6040G3X23.679Y14.432I0.100J0.000
N6050G3X23.779Y14.532I0.000J0.100
N6060G01Z-3.000F30.0
N6070G3X23.679Y14.632I-0.100J0.000F600.0
N6080G3X23.579Y14.532I0.000J-0.100
N6090G3X23.679Y14.432I0.100J0.000
N6100G3X23.779Y14.532I0.000J0.100
N6110G00Z6.000
N6120G00X31.389Y67.032
N6130G01Z-0.050F30.0
N6140G3X29.520Y72.189I-8.050J0.000F600.0
N6150G01X29.188Y72.563
N6160X28.831Y72.918
N6170X28.451Y73.251
N6180X28.050Y73.560
N6190X27.630Y73.843
N6200X27.195Y74.098
N6210X26.746Y74.325
N6220X26.286Y74.523
N6230G3X23.339Y75.082I-2.947J-7.491
N6240G3X15.289Y67.032I0.000J-8.050
N6250G3X17.885Y61.111I8.050J0.000
N6260G01X18.261Y60.786
N6270X18.658Y60.483
N6280X19.074Y60.204
N6290X19.508Y59.952
N6300X19.957Y59.726
N6310X20.419Y59.530
N6320X20.889Y59.363
N6330X21.367Y59.227
N6340G3X23.339Y58.982I1.972J7.805
N6350G3X31.389Y67.032I0.000J8.050
N6360G01Z-0.100F30.0
N6370G3X29.520Y72.189I-8.050J0.000F600.0
N6380G01X29.188Y72.563
N6390X28.831Y72.918
N6400X28.451Y73.251
N6410X28.050Y73.560
N6420X27.630Y73.843
N6430X27.195Y74.098
N6440X26.746Y74.325
N6450X26.286Y74.523
N6460G3X23.339Y75.082I-2.947J-7.491
N6470G3X15.289Y67.032I0.000J-8.050
N6480G3X17.885Y61.111I8.050J0.000
N6490G01X18.261Y60.786
N6500X18.658Y60.483
N6510X19.074Y60.204
N6520X19.508Y59.952
N6530X19.957Y59.726
N6540X20.419Y59.530
N6550X20.889Y59.363
N6560X21.367Y59.227
N6570G3X23.339Y58.982I1.972J7.805
N6580G3X31.389Y67.032I0.000J8.050
N6590G01Z-0.150F30.0
N6600G3X29.520Y72.189I-8.050J0.000F600.0
N6610G01X29.188Y72.563
N6620X28.831Y72.918
N6630X28.451Y73.251
N6640X28.050Y73.560
N6650X27.630Y73.843
N6660X27.195Y74.098
N6670X26.746Y74.325
N6680X26.286Y74.523
N6690G3X23.339Y75.082I-2.947J-7.491
N6700G3X15.289Y67.032I0.000J-8.050
N6710G3X17.885Y61.111I8.050J0.000
N6720G01X18.261Y60.786
N6730X18.658Y60.483
N6740X19.074Y60.204
N6750X19.508Y59.952
N6760X19.957Y59.726
N6770X20.419Y59.530
N6780X20.889Y59.363
N6790X21.367Y59.227
N6800G3X23.339Y58.982I1.972J7.805
N6810G3X31.389Y67.032I0.000J8.050
N6820G01Z-0.200F30.0
N6830G3X29.520Y72.189I-8.050J0.000F600.0
N6840G01X29.188Y72.563
N6850X28.831Y72.918
N6860X28.451Y73.251
N6870X28.050Y73.560
N6880X27.630Y73.843
N6890X27.195Y74.098
N6900X26.746Y74.325
N6910X26.286Y74.523
N6920G3X23.339Y75.082I-2.947J-7.491
N6930G3X15.289Y67.032I0.000J-8.050
N6940G3X17.885Y61.111I8.050J0.000
N6950G01X18.261Y60.786
N6960X18.658Y60.483
N6970X19.074Y60.204
N6980X19.508Y59.952
N6990X19.957Y59.726
N7000X20.419Y59.530
N7010X20.889Y59.363
N7020X21.367Y59.227
N7030G3X23.339Y58.982I1.972J7.805
N7040G3X31.389Y67.032I0.000J8.050
N7050G01Z-0.250F30.0
N7060G3X29.520Y72.189I-8.050J0.000F600.0
N7070G01X29.188Y72.563
N7080X28.831Y72.918
N7090X28.451Y73.251
N7100X28.050Y73.560
N7110X27.630Y73.843
N7120X27.195Y74.098
N7130X26.746Y74.325
N7140X26.286Y74.523
N7150G3X23.339Y75.082I-2.947J-7.491
N7160G3X15.289Y67.032I0.000J-8.050
N7170G3X17.885Y61.111I8.050J0.000
N7180G01X18.261Y60.786
N7190X18.658Y60.483
N7200X19.074Y60.204
N7210X19.508Y59.952
N7220X19.957Y59.726
N7230X20.419Y59.530
N7240X20.889Y59.363
N7250X21.367Y59.227
N7260G3X23.339Y58.982I1.972J7.805
N7270G3X31.389Y67.032I0.000J8.050
N7280G01Z-0.300F30.0
N7290G3X29.520Y72.189I-8.050J0.000F600.0
N7300G01X29.188Y72.563
N7310X28.831Y72.918
N7320X28.451Y73.251
N7330X28.050Y73.560
N7340X27.630Y73.843
N7350X27.195Y74.098
N7360X26.746Y74.325
N7370X26.286Y74.523
N7380G3X23.339Y75.082I-2.947J-7.491
N7390G3X15.289Y67.032I0.000J-8.050
N7400G3X17.885Y61.111I8.050J0.000
N7410G01X18.261Y60.786
N7420X18.658Y60.483
N7430X19.074Y60.204
N7440X19.508Y59.952
N7450X19.957Y59.726
N7460X20.419Y59.530
N7470X20.889Y59.363
N7480X21.367Y59.227
N7490G3X23.339Y58.982I1.972J7.805
N7500G3X31.389Y67.032I0.000J8.050
N7510G01Z-0.350F30.0
N7520G3X29.520Y72.189I-8.050J0.000F600.0
N7530G01X29.188Y72.563
N7540X28.831Y72.918
N7550X28.451Y73.251
N7560X28.050Y73.560
N7570X27.630Y73.843
N7580X27.195Y74.098
N7590X26.746Y74.325
N7600X26.286Y74.523
N7610G3X23.339Y75.082I-2.947J-7.491
N7620G3X15.289Y67.032I0.000J-8.050
N7630G3X17.885Y61.111I8.050J0.000
N7640G01X18.261Y60.786
N7650X18.658Y60.483
N7660X19.074Y60.204
N7670X19.508Y59.952
N7680X19.957Y59.726
N7690X20.419Y59.530
N7700X20.889Y59.363
N7710X21.367Y59.227
N7720G3X23.339Y58.982I1.972J7.805
N7730G3X31.389Y67.032I0.000J8.050
N7740G01Z-0.400F30.0
N7750G3X29.520Y72.189I-8.050J0.000F600.0
N7760G01X29.188Y72.563
N7770X28.831Y72.918
N7780X28.451Y73.251
N7790X28.050Y73.560
N7800X27.630Y73.843
N7810X27.195Y74.098
N7820X26.746Y74.325
N7830X26.286Y74.523
N7840G3X23.339Y75.082I-2.947J-7.491
N7850G3X15.289Y67.032I0.000J-8.050
N7860G3X17.885Y61.111I8.050J0.000
N7870G01X18.261Y60.786
N7880X18.658Y60.483
N7890X19.074Y60.204
N7900X19.508Y59.952
N7910X19.957Y59.726
N7920X20.419Y59.530
N7930X20.889Y59.363
N7940X21.367Y59.227
N7950G3X23.339Y58.982I1.972J7.805
N7960G3X31.389Y67.032I0.000J8.050
N7970G01Z-0.450F30.0
N7980G3X29.520Y72.189I-8.050J0.000F600.0
N7990G01X29.188Y72.563
N8000X28.831Y72.918
N8010X28.451Y73.251
N8020X28.050Y73.560
N8030X27.630Y73.843
N8040X27.195Y74.098
N8050X26.746Y74.325
N8060X26.286Y74.523
N8070G3X23.339Y75.082I-2.947J-7.491
N8080G3X15.289Y67.032I0.000J-8.050
N8090G3X17.885Y61.111I8.050J0.000
N8100G01X18.261Y60.786
N8110X18.658Y60.483
N8120X19.074Y60.204
N8130X19.508Y59.952
N8140X19.957Y59.726
N8150X20.419Y59.530
N8160X20.889Y59.363
N8170X21.367Y59.227
N8180G3X23.339Y58.982I1.972J7.805
N8190G3X31.389Y67.032I0.000J8.050
N8200G01Z-0.500F30.0
N8210G3X29.520Y72.189I-8.050J0.000F600.0
N8220G01X29.188Y72.563
N8230X28.831Y72.918
N8240X28.451Y73.251
N8250X28.050Y73.560
N8260X27.630Y73.843
N8270X27.195Y74.098
N8280X26.746Y74.325
N8290X26.286Y74.523
N8300G3X23.339Y75.082I-2.947J-7.491
N8310G3X15.289Y67.032I0.000J-8.050
N8320G3X17.885Y61.111I8.050J0.000
N8330G01X18.261Y60.786
N8340X18.658Y60.483
N8350X19.074Y60.204
N8360X19.508Y59.952
N8370X19.957Y59.726
N8380X20.419Y59.530
N8390X20.889Y59.363
N8400X21.367Y59.227
N8410G3X23.339Y58.982I1.972J7.805
N8420G3X31.389Y67.032I0.000J8.050
N8430G01Z-0.550F30.0
N8440G3X29.520Y72.189I-8.050J0.000F600.0
N8450G01X29.188Y72.563
N8460X28.831Y72.918
N8470X28.451Y73.251
N8480X28.050Y73.560
N8490X27.630Y73.843
N8500X27.195Y74.098
N8510X26.746Y74.325
N8520X26.286Y74.523
N8530G3X23.339Y75.082I-2.947J-7.491
N8540G3X15.289Y67.032I0.000J-8.050
N8550G3X17.885Y61.111I8.050J0.000
N8560G01X18.261Y60.786
N8570X18.658Y60.483
N8580X19.074Y60.204
N8590X19.508Y59.952
N8600X19.957Y59.726
N8610X20.419Y59.530
N8620X20.889Y59.363
N8630X21.367Y59.227
N8640G3X23.339Y58.982I1.972J7.805
N8650G3X31.389Y67.032I0.000J8.050
N8660G01Z-0.600F30.0
N8670G3X29.520Y72.189I-8.050J0.000F600.0
N8680G01X29.188Y72.563
N8690X28.831Y72.918
N8700X28.451Y73.251
N8710X28.050Y73.560
N8720X27.630Y73.843
N8730X27.195Y74.098
N8740X26.746Y74.325
N8750X26.286Y74.523
N8760G3X23.339Y75.082I-2.947J-7.491
N8770G3X15.289Y67.032I0.000J-8.050
N8780G3X17.885Y61.111I8.050J0.000
N8790G01X18.261Y60.786
N8800X18.658Y60.483
N8810X19.074Y60.204
N8820X19.508Y59.952
N8830X19.957Y59.726
N8840X20.419Y59.530
N8850X20.889Y59.363
N8860X21.367Y59.227
N8870G3X23.339Y58.982I1.972J7.805
N8880G3X31.389Y67.032I0.000J8.050
N8890G01Z-0.650F30.0
N8900G3X29.520Y72.189I-8.050J0.000F600.0
N8910G01X29.188Y72.563
N8920X28.831Y72.918
N8930X28.451Y73.251
N8940X28.050Y73.560
N8950X27.630Y73.843
N8960X27.195Y74.098
N8970X26.746Y74.325
N8980X26.286Y74.523
N8990G3X23.339Y75.082I-2.947J-7.491
N9000G3X15.289Y67.032I0.000J-8.050
N9010G3X17.885Y61.111I8.050J0.000
N9020G01X18.261Y60.786
N9030X18.658Y60.483
N9040X19.074Y60.204
N9050X19.508Y59.952
N9060X19.957Y59.726
N9070X20.419Y59.530
N9080X20.889Y59.363
N9090X21.367Y59.227
N9100G3X23.339Y58.982I1.972J7.805
N9110G3X31.389Y67.032I0.000J8.050
N9120G01Z-0.700F30.0
N9130G3X29.520Y72.189I-8.050J0.000F600.0
N9140G01X29.188Y72.563
N9150X28.831Y72.918
N9160X28.451Y73.251
N9170X28.050Y73.560
N9180X27.630Y73.843
N9190X27.195Y74.098
N9200X26.746Y74.325
N9210X26.286Y74.523
N9220G3X23.339Y75.082I-2.947J-7.491
N9230G3X15.289Y67.032I0.000J-8.050
N9240G3X17.885Y61.111I8.050J0.000
N9250G01X18.261Y60.786
N9260X18.658Y60.483
N9270X19.074Y60.204
N9280X19.508Y59.952
N9290X19.957Y59.726
N9300X20.419Y59.530
N9310X20.889Y59.363
N9320X21.367Y59.227
N9330G3X23.339Y58.982I1.972J7.805
N9340G3X31.389Y67.032I0.000J8.050
N9350G01Z-0.750F30.0
N9360G3X29.520Y72.189I-8.050J0.000F600.0
N9370G01X29.188Y72.563
N9380X28.831Y72.918
N9390X28.451Y73.251
N9400X28.050Y73.560
N9410X27.630Y73.843
N9420X27.195Y74.098
N9430X26.746Y74.325
N9440X26.286Y74.523
N9450G3X23.339Y75.082I-2.947J-7.491
N9460G3X15.289Y67.032I0.000J-8.050
N9470G3X17.885Y61.111I8.050J0.000
N9480G01X18.261Y60.786
N9490X18.658Y60.483
N9500X19.074Y60.204
N9510X19.508Y59.952
N9520X19.957Y59.726
N9530X20.419Y59.530
N9540X20.889Y59.363
N9550X21.367Y59.227
N9560G3X23.339Y58.982I1.972J7.805
N9570G3X31.389Y67.032I0.000J8.050
N9580G01Z-0.800F30.0
N9590G3X29.520Y72.189I-8.050J0.000F600.0
N9600G01X29.188Y72.563
N9610X28.831Y72.918
N9620X28.451Y73.251
N9630X28.050Y73.560
N9640X27.630Y73.843
N9650X27.195Y74.098
N9660X26.746Y74.325
N9670X26.286Y74.523
N9680G3X23.339Y75.082I-2.947J-7.491
N9690G3X15.289Y67.032I0.000J-8.050
N9700G3X17.885Y61.111I8.050J0.000
N9710G01X18.261Y60.786
N9720X18.658Y60.483
N9730X19.074Y60.204
N9740X19.508Y59.952
N9750X19.957Y59.726
N9760X20.419Y59.530
N9770X20.889Y59.363
N9780X21.367Y59.227
N9790G3X23.339Y58.982I1.972J7.805
N9800G3X31.389Y67.032I0.000J8.050
N9810G01Z-0.850F30.0
N9820G3X29.520Y72.189I-8.050J0.000F600.0
N9830G01X29.188Y72.563
N9840X28.831Y72.918
N9850X28.451Y73.251
N9860X28.050Y73.560
N9870X27.630Y73.843
N9880X27.195Y74.098
N9890X26.746Y74.325
N9900X26.286Y74.523
N9910G3X23.339Y75.082I-2.947J-7.491
N9920G3X15.289Y67.032I0.000J-8.050
N9930G3X17.885Y61.111I8.050J0.000
N9940G01X18.261Y60.786
N9950X18.658Y60.483
N9960X19.074Y60.204
N9970X19.508Y59.952
N9980X19.957Y59.726
N9990X20.419Y59.530
N10000X20.889Y59.363
N10010X21.367Y59.227
N10020G3X23.339Y58.982I1.972J7.805
N10030G3X31.389Y67.032I0.000J8.050
N10040G01Z-0.900F30.0
N10050G3X29.520Y72.189I-8.050J0.000F600.0
N10060G01X29.188Y72.563
N10070X28.831Y72.918
N10080X28.451Y73.251
N10090X28.050Y73.560
N10100X27.630Y73.843
N10110X27.195Y74.098
N10120X26.746Y74.325
N10130X26.286Y74.523
N10140G3X23.339Y75.082I-2.947J-7.491
N10150G3X15.289Y67.032I0.000J-8.050
N10160G3X17.885Y61.111I8.050J0.000
N10170G01X18.261Y60.786
N10180X18.658Y60.483
N10190X19.074Y60.204
N10200X19.508Y59.952
N10210X19.957Y59.726
N10220X20.419Y59.530
N10230X20.889Y59.363
N10240X21.367Y59.227
N10250G3X23.339Y58.982I1.972J7.805
N10260G3X31.389Y67.032I0.000J8.050
N10270G01Z-0.950F30.0
N10280G3X29.520Y72.189I-8.050J0.000F600.0
N10290G01X29.188Y72.563
N10300X28.831Y72.918
N10310X28.451Y73.251
N10320X28.050Y73.560
N10330X27.630Y73.843
N10340X27.195Y74.098
N10350X26.746Y74.325
N10360X26.286Y74.523
N10370G3X23.339Y75.082I-2.947J-7.491
N10380G3X15.289Y67.032I0.000J-8.050
N10390G3X17.885Y61.111I8.050J0.000
N10400G01X18.261Y60.786
N10410X18.658Y60.483
N10420X19.074Y60.204
N10430X19.508Y59.952
N10440X19.957Y59.726
N10450X20.419Y59.530
N10460X20.889Y59.363
N10470X21.367Y59.227
N10480G3X23.339Y58.982I1.972J7.805
N10490G3X31.389Y67.032I0.000J8.050
N10500G01Z-1.000F30.0
N10510G3X29.520Y72.189I-8.050J0.000F600.0
N10520G01X29.188Y72.563
N10530X28.831Y72.918
N10540X28.451Y73.251
N10550X28.050Y73.560
N10560X27.630Y73.843
N10570X27.195Y74.098
N10580X26.746Y74.325
N10590X26.286Y74.523
N10600G3X23.339Y75.082I-2.947J-7.491
N10610G3X15.289Y67.032I0.000J-8.050
N10620G3X17.885Y61.111I8.050J0.000
N10630G01X18.261Y60.786
N10640X18.658Y60.483
N10650X19.074Y60.204
N10660X19.508Y59.952
N10670X19.957Y59.726
N10680X20.419Y59.530
N10690X20.889Y59.363
N10700X21.367Y59.227
N10710G3X23.339Y58.982I1.972J7.805
N10720G3X31.389Y67.032I0.000J8.050
N10730G01Z-1.050F30.0
N10740G3X29.520Y72.189I-8.050J0.000F600.0
N10750G01X29.188Y72.563
N10760X28.831Y72.918
N10770X28.451Y73.251
N10780X28.050Y73.560
N10790X27.630Y73.843
N10800X27.195Y74.098
N10810X26.746Y74.325
N10820X26.286Y74.523
N10830G3X23.339Y75.082I-2.947J-7.491
N10840G3X15.289Y67.032I0.000J-8.050
N10850G3X17.885Y61.111I8.050J0.000
N10860G01X18.261Y60.786
N10870X18.658Y60.483
N10880X19.074Y60.204
N10890X19.508Y59.952
N10900X19.957Y59.726
N10910X20.419Y59.530
N10920X20.889Y59.363
N10930X21.367Y59.227
N10940G3X23.339Y58.982I1.972J7.805
N10950G3X31.389Y67.032I0.000J8.050
N10960G01Z-1.100F30.0
N10970G3X29.520Y72.189I-8.050J0.000F600.0
N10980G01X29.188Y72.563
N10990X28.831Y72.918
N11000X28.451Y73.251
N11010X28.050Y73.560
N11020X27.630Y73.843
N11030X27.195Y74.098
N11040X26.746Y74.325
N11050X26.286Y74.523
N11060G3X23.339Y75.082I-2.947J-7.491
N11070G3X15.289Y67.032I0.000J-8.050
N11080G3X17.885Y61.111I8.050J0.000
N11090G01X18.261Y60.786
N11100X18.658Y60.483
N11110X19.074Y60.204
N11120X19.508Y59.952
N11130X19.957Y59.726
N11140X20.419Y59.530
N11150X20.889Y59.363
N11160X21.367Y59.227
N11170G3X23.339Y58.982I1.972J7.805
N11180G3X31.389Y67.032I0.000J8.050
N11190G01Z-1.150F30.0
N11200G3X29.520Y72.189I-8.050J0.000F600.0
N11210G01X29.188Y72.563
N11220X28.831Y72.918
N11230X28.451Y73.251
N11240X28.050Y73.560
N11250X27.630Y73.843
N11260X27.195Y74.098
N11270X26.746Y74.325
N11280X26.286Y74.523
N11290G3X23.339Y75.082I-2.947J-7.491
N11300G3X15.289Y67.032I0.000J-8.050
N11310G3X17.885Y61.111I8.050J0.000
N11320G01X18.261Y60.786
N11330X18.658Y60.483
N11340X19.074Y60.204
N11350X19.508Y59.952
N11360X19.957Y59.726
N11370X20.419Y59.530
N11380X20.889Y59.363
N11390X21.367Y59.227
N11400G3X23.339Y58.982I1.972J7.805
N11410G3X31.389Y67.032I0.000J8.050
N11420G01Z-1.200F30.0
N11430G3X29.520Y72.189I-8.050J0.000F600.0
N11440G01X29.188Y72.563
N11450X28.831Y72.918
N11460X28.451Y73.251
N11470X28.050Y73.560
N11480X27.630Y73.843
N11490X27.195Y74.098
N11500X26.746Y74.325
N11510X26.286Y74.523
N11520G3X23.339Y75.082I-2.947J-7.491
N11530G3X15.289Y67.032I0.000J-8.050
N11540G3X17.885Y61.111I8.050J0.000
N11550G01X18.261Y60.786
N11560X18.658Y60.483
N11570X19.074Y60.204
N11580X19.508Y59.952
N11590X19.957Y59.726
N11600X20.419Y59.530
N11610X20.889Y59.363
N11620X21.367Y59.227
N11630G3X23.339Y58.982I1.972J7.805
N11640G3X31.389Y67.032I0.000J8.050
N11650G01Z-1.250F30.0
N11660G3X29.520Y72.189I-8.050J0.000F600.0
N11670G01X29.188Y72.563
N11680X28.831Y72.918
N11690X28.451Y73.251
N11700X28.050Y73.560
N11710X27.630Y73.843
N11720X27.195Y74.098
N11730X26.746Y74.325
N11740X26.286Y74.523
N11750G3X23.339Y75.082I-2.947J-7.491
N11760G3X15.289Y67.032I0.000J-8.050
N11770G3X17.885Y61.111I8.050J0.000
N11780G01X18.261Y60.786
N11790X18.658Y60.483
N11800X19.074Y60.204
N11810X19.508Y59.952
N11820X19.957Y59.726
N11830X20.419Y59.530
N11840X20.889Y59.363
N11850X21.367Y59.227
N11860G3X23.339Y58.982I1.972J7.805
N11870G3X31.389Y67.032I0.000J8.050
N11880G01Z-1.300F30.0
N11890G3X29.520Y72.189I-8.050J0.000F600.0
N11900G01X29.188Y72.563
N11910X28.831Y72.918
N11920X28.451Y73.251
N11930X28.050Y73.560
N11940X27.630Y73.843
N11950X27.195Y74.098
N11960X26.746Y74.325
N11970X26.286Y74.523
N11980G3X23.339Y75.082I-2.947J-7.491
N11990G3X15.289Y67.032I0.000J-8.050
N12000G3X17.885Y61.111I8.050J0.000
N12010G01X18.261Y60.786
N12020X18.658Y60.483
N12030X19.074Y60.204
N12040X19.508Y59.952
N12050X19.957Y59.726
N12060X20.419Y59.530
N12070X20.889Y59.363
N12080X21.367Y59.227
N12090G3X23.339Y58.982I1.972J7.805
N12100G3X31.389Y67.032I0.000J8.050
N12110G01Z-1.350F30.0
N12120G3X29.520Y72.189I-8.050J0.000F600.0
N12130G01X29.188Y72.563
N12140X28.831Y72.918
N12150X28.451Y73.251
N12160X28.050Y73.560
N12170X27.630Y73.843
N12180X27.195Y74.098
N12190X26.746Y74.325
N12200X26.286Y74.523
N12210G3X23.339Y75.082I-2.947J-7.491
N12220G3X15.289Y67.032I0.000J-8.050
N12230G3X17.885Y61.111I8.050J0.000
N12240G01X18.261Y60.786
N12250X18.658Y60.483
N12260X19.074Y60.204
N12270X19.508Y59.952
N12280X19.957Y59.726
N12290X20.419Y59.530
N12300X20.889Y59.363
N12310X21.367Y59.227
N12320G3X23.339Y58.982I1.972J7.805
N12330G3X31.389Y67.032I0.000J8.050
N12340G01Z-1.400F30.0
N12350G3X29.520Y72.189I-8.050J0.000F600.0
N12360G01X29.188Y72.563
N12370X28.831Y72.918
N12380X28.451Y73.251
N12390X28.050Y73.560
N12400X27.630Y73.843
N12410X27.195Y74.098
N12420X26.746Y74.325
N12430X26.286Y74.523
N12440G3X23.339Y75.082I-2.947J-7.491
N12450G3X15.289Y67.032I0.000J-8.050
N12460G3X17.885Y61.111I8.050J0.000
N12470G01X18.261Y60.786
N12480X18.658Y60.483
N12490X19.074Y60.204
N12500X19.508Y59.952
N12510X19.957Y59.726
N12520X20.419Y59.530
N12530X20.889Y59.363
N12540X21.367Y59.227
N12550G3X23.339Y58.982I1.972J7.805
N12560G3X31.389Y67.032I0.000J8.050
N12570G01Z-1.450F30.0
N12580G3X29.520Y72.189I-8.050J0.000F600.0
N12590G01X29.188Y72.563
N12600X28.831Y72.918
N12610X28.451Y73.251
N12620X28.050Y73.560
N12630X27.630Y73.843
N12640X27.195Y74.098
N12650X26.746Y74.325
N12660X26.286Y74.523
N12670G3X23.339Y75.082I-2.947J-7.491
N12680G3X15.289Y67.032I0.000J-8.050
N12690G3X17.885Y61.111I8.050J0.000
N12700G01X18.261Y60.786
N12710X18.658Y60.483
N12720X19.074Y60.204
N12730X19.508Y59.952
N12740X19.957Y59.726
N12750X20.419Y59.530
N12760X20.889Y59.363
N12770X21.367Y59.227
N12780G3X23.339Y58.982I1.972J7.805
N12790G3X31.389Y67.032I0.000J8.050
N12800G01Z-1.500F30.0
N12810G3X29.520Y72.189I-8.050J0.000F600.0
N12820G01X29.188Y72.563
N12830X28.831Y72.918
N12840X28.451Y73.251
N12850X28.050Y73.560
N12860X27.630Y73.843
N12870X27.195Y74.098
N12880X26.746Y74.325
N12890X26.286Y74.523
N12900G3X23.339Y75.082I-2.947J-7.491
N12910G3X15.289Y67.032I0.000J-8.050
N12920G3X17.885Y61.111I8.050J0.000
N12930G01X18.261Y60.786
N12940X18.658Y60.483
N12950X19.074Y60.204
N12960X19.508Y59.952
N12970X19.957Y59.726
N12980X20.419Y59.530
N12990X20.889Y59.363
N13000X21.367Y59.227
N13010G3X23.339Y58.982I1.972J7.805
N13020G3X31.389Y67.032I0.000J8.050
N13030G01Z-1.550F30.0
N13040G3X29.520Y72.189I-8.050J0.000F600.0
N13050G01X29.188Y72.563
N13060X28.831Y72.918
N13070X28.451Y73.251
N13080X28.050Y73.560
N13090X27.630Y73.843
N13100X27.195Y74.098
N13110X26.746Y74.325
N13120X26.286Y74.523
N13130G3X23.339Y75.082I-2.947J-7.491
N13140G3X15.289Y67.032I0.000J-8.050
N13150G3X17.885Y61.111I8.050J0.000
N13160G01X18.261Y60.786
N13170X18.658Y60.483
N13180X19.074Y60.204
N13190X19.508Y59.952
N13200X19.957Y59.726
N13210X20.419Y59.530
N13220X20.889Y59.363
N13230X21.367Y59.227
N13240G3X23.339Y58.982I1.972J7.805
N13250G3X31.389Y67.032I0.000J8.050
N13260G01Z-1.600F30.0
N13270G3X29.520Y72.189I-8.050J0.000F600.0
N13280G01X29.188Y72.563
N13290X28.831Y72.918
N13300X28.451Y73.251
N13310X28.050Y73.560
N13320X27.630Y73.843
N13330X27.195Y74.098
N13340X26.746Y74.325
N13350X26.286Y74.523
N13360G3X23.339Y75.082I-2.947J-7.491
N13370G3X15.289Y67.032I0.000J-8.050
N13380G3X17.885Y61.111I8.050J0.000
N13390G01X18.261Y60.786
N13400X18.658Y60.483
N13410X19.074Y60.204
N13420X19.508Y59.952
N13430X19.957Y59.726
N13440X20.419Y59.530
N13450X20.889Y59.363
N13460X21.367Y59.227
N13470G3X23.339Y58.982I1.972J7.805
N13480G3X31.389Y67.032I0.000J8.050
N13490G01Z-1.650F30.0
N13500G3X29.520Y72.189I-8.050J0.000F600.0
N13510G01X29.188Y72.563
N13520X28.831Y72.918
N13530X28.451Y73.251
N13540X28.050Y73.560
N13550X27.630Y73.843
N13560X27.195Y74.098
N13570X26.746Y74.325
N13580X26.286Y74.523
N13590G3X23.339Y75.082I-2.947J-7.491
N13600G3X15.289Y67.032I0.000J-8.050
N13610G3X17.885Y61.111I8.050J0.000
N13620G01X18.261Y60.786
N13630X18.658Y60.483
N13640X19.074Y60.204
N13650X19.508Y59.952
N13660X19.957Y59.726
N13670X20.419Y59.530
N13680X20.889Y59.363
N13690X21.367Y59.227
N13700G3X23.339Y58.982I1.972J7.805
N13710G3X31.389Y67.032I0.000J8.050
N13720G01Z-1.700F30.0
N13730G3X29.520Y72.189I-8.050J0.000F600.0
N13740G01X29.188Y72.563
N13750X28.831Y72.918
N13760X28.451Y73.251
N13770X28.050Y73.560
N13780X27.630Y73.843
N13790X27.195Y74.098
N13800X26.746Y74.325
N13810X26.286Y74.523
N13820G3X23.339Y75.082I-2.947J-7.491
N13830G3X15.289Y67.032I0.000J-8.050
N13840G3X17.885Y61.111I8.050J0.000
N13850G01X18.261Y60.786
N13860X18.658Y60.483
N13870X19.074Y60.204
N13880X19.508Y59.952
N13890X19.957Y59.726
N13900X20.419Y59.530
N13910X20.889Y59.363
N13920X21.367Y59.227
N13930G3X23.339Y58.982I1.972J7.805
N13940G3X31.389Y67.032I0.000J8.050
N13950G01Z-1.750F30.0
N13960G3X29.520Y72.189I-8.050J0.000F600.0
N13970G01X29.188Y72.563
N13980X28.831Y72.918
N13990X28.451Y73.251
N14000X28.050Y73.560
N14010X27.630Y73.843
N14020X27.195Y74.098
N14030X26.746Y74.325
N14040X26.286Y74.523
N14050G3X23.339Y75.082I-2.947J-7.491
N14060G3X15.289Y67.032I0.000J-8.050
N14070G3X17.885Y61.111I8.050J0.000
N14080G01X18.261Y60.786
N14090X18.658Y60.483
N14100X19.074Y60.204
N14110X19.508Y59.952
N14120X19.957Y59.726
N14130X20.419Y59.530
N14140X20.889Y59.363
N14150X21.367Y59.227
N14160G3X23.339Y58.982I1.972J7.805
N14170G3X31.389Y67.032I0.000J8.050
N14180G01Z-1.800F30.0
N14190G3X29.520Y72.189I-8.050J0.000F600.0
N14200G01X29.188Y72.563
N14210X28.831Y72.918
N14220X28.451Y73.251
N14230X28.050Y73.560
N14240X27.630Y73.843
N14250X27.195Y74.098
N14260X26.746Y74.325
N14270X26.286Y74.523
N14280G3X23.339Y75.082I-2.947J-7.491
N14290G3X15.289Y67.032I0.000J-8.050
N14300G3X17.885Y61.111I8.050J0.000
N14310G01X18.261Y60.786
N14320X18.658Y60.483
N14330X19.074Y60.204
N14340X19.508Y59.952
N14350X19.957Y59.726
N14360X20.419Y59.530
N14370X20.889Y59.363
N14380X21.367Y59.227
N14390G3X23.339Y58.982I1.972J7.805
N14400G3X31.389Y67.032I0.000J8.050
N14410G01Z-1.850F30.0
N14420G3X29.520Y72.189I-8.050J0.000F600.0
N14430G01X29.188Y72.563
N14440X28.831Y72.918
N14450X28.451Y73.251
N14460X28.050Y73.560
N14470X27.630Y73.843
N14480X27.195Y74.098
N14490X26.746Y74.325
N14500X26.286Y74.523
N14510G3X23.339Y75.082I-2.947J-7.491
N14520G3X15.289Y67.032I0.000J-8.050
N14530G3X17.885Y61.111I8.050J0.000
N14540G01X18.261Y60.786
N14550X18.658Y60.483
N14560X19.074Y60.204
N14570X19.508Y59.952
N14580X19.957Y59.726
N14590X20.419Y59.530
N14600X20.889Y59.363
N14610X21.367Y59.227
N14620G3X23.339Y58.982I1.972J7.805
N14630G3X31.389Y67.032I0.000J8.050
N14640G01Z-1.900F30.0
N14650G3X29.520Y72.189I-8.050J0.000F600.0
N14660G01X29.188Y72.563
N14670X28.831Y72.918
N14680X28.451Y73.251
N14690X28.050Y73.560
N14700X27.630Y73.843
N14710X27.195Y74.098
N14720X26.746Y74.325
N14730X26.286Y74.523
N14740G3X23.339Y75.082I-2.947J-7.491
N14750G3X15.289Y67.032I0.000J-8.050
N14760G3X17.885Y61.111I8.050J0.000
N14770G01X18.261Y60.786
N14780X18.658Y60.483
N14790X19.074Y60.204
N14800X19.508Y59.952
N14810X19.957Y59.726
N14820X20.419Y59.530
N14830X20.889Y59.363
N14840X21.367Y59.227
N14850G3X23.339Y58.982I1.972J7.805
N14860G3X31.389Y67.032I0.000J8.050
N14870G01Z-1.950F30.0
N14880G3X29.520Y72.189I-8.050J0.000F600.0
N14890G01X29.188Y72.563
N14900X28.831Y72.918
N14910X28.451Y73.251
N14920X28.050Y73.560
N14930X27.630Y73.843
N14940X27.195Y74.098
N14950X26.746Y74.325
N14960X26.286Y74.523
N14970G3X23.339Y75.082I-2.947J-7.491
N14980G3X15.289Y67.032I0.000J-8.050
N14990G3X17.885Y61.111I8.050J0.000
N15000G01X18.261Y60.786
N15010X18.658Y60.483
N15020X19.074Y60.204
N15030X19.508Y59.952
N15040X19.957Y59.726
N15050X20.419Y59.530
N15060X20.889Y59.363
N15070X21.367Y59.227
N15080G3X23.339Y58.982I1.972J7.805
N15090G3X31.389Y67.032I0.000J8.050
N15100G01Z-2.000F30.0
N15110G3X29.520Y72.189I-8.050J0.000F600.0
N15120G01X29.188Y72.563
N15130X28.831Y72.918
N15140X28.451Y73.251
N15150X28.050Y73.560
N15160X27.630Y73.843
N15170X27.195Y74.098
N15180X26.746Y74.325
N15190X26.286Y74.523
N15200G3X23.339Y75.082I-2.947J-7.491
N15210G3X15.289Y67.032I0.000J-8.050
N15220G3X17.885Y61.111I8.050J0.000
N15230G01X18.261Y60.786
N15240X18.658Y60.483
N15250X19.074Y60.204
N15260X19.508Y59.952
N15270X19.957Y59.726
N15280X20.419Y59.530
N15290X20.889Y59.363
N15300X21.367Y59.227
N15310G3X23.339Y58.982I1.972J7.805
N15320G3X31.389Y67.032I0.000J8.050
N15330G01Z-2.050F30.0
N15340G3X29.520Y72.189I-8.050J0.000F600.0
N15350G01X29.188Y72.563
N15360X28.831Y72.918
N15370X28.451Y73.251
N15380X28.050Y73.560
N15390X27.630Y73.843
N15400X27.195Y74.098
N15410X26.746Y74.325
N15420X26.286Y74.523
N15430G3X23.339Y75.082I-2.947J-7.491
N15440G3X15.289Y67.032I0.000J-8.050
N15450G3X17.885Y61.111I8.050J0.000
N15460G01X18.261Y60.786
N15470X18.658Y60.483
N15480X19.074Y60.204
N15490X19.508Y59.952
N15500X19.957Y59.726
N15510X20.419Y59.530
N15520X20.889Y59.363
N15530X21.367Y59.227
N15540G3X23.339Y58.982I1.972J7.805
N15550G3X31.389Y67.032I0.000J8.050
N15560G01Z-2.100F30.0
N15570G3X29.520Y72.189I-8.050J0.000F600.0
N15580G01X29.188Y72.563
N15590X28.831Y72.918
N15600X28.451Y73.251
N15610X28.050Y73.560
N15620X27.630Y73.843
N15630X27.195Y74.098
N15640X26.746Y74.325
N15650X26.286Y74.523
N15660G3X23.339Y75.082I-2.947J-7.491
N15670G3X15.289Y67.032I0.000J-8.050
N15680G3X17.885Y61.111I8.050J0.000
N15690G01X18.261Y60.786
N15700X18.658Y60.483
N15710X19.074Y60.204
N15720X19.508Y59.952
N15730X19.957Y59.726
N15740X20.419Y59.530
N15750X20.889Y59.363
N15760X21.367Y59.227
N15770G3X23.339Y58.982I1.972J7.805
N15780G3X31.389Y67.032I0.000J8.050
N15790G01Z-2.150F30.0
N15800G3X29.520Y72.189I-8.050J0.000F600.0
N15810G01X29.188Y72.563
N15820X28.831Y72.918
N15830X28.451Y73.251
N15840X28.050Y73.560
N15850X27.630Y73.843
N15860X27.195Y74.098
N15870X26.746Y74.325
N15880X26.286Y74.523
N15890G3X23.339Y75.082I-2.947J-7.491
N15900G3X15.289Y67.032I0.000J-8.050
N15910G3X17.885Y61.111I8.050J0.000
N15920G01X18.261Y60.786
N15930X18.658Y60.483
N15940X19.074Y60.204
N15950X19.508Y59.952
N15960X19.957Y59.726
N15970X20.419Y59.530
N15980X20.889Y59.363
N15990X21.367Y59.227
N16000G3X23.339Y58.982I1.972J7.805
N16010G3X31.389Y67.032I0.000J8.050
N16020G01Z-2.200F30.0
N16030G3X29.520Y72.189I-8.050J0.000F600.0
N16040G01X29.188Y72.563
N16050X28.831Y72.918
N16060X28.451Y73.251
N16070X28.050Y73.560
N16080X27.630Y73.843
N16090X27.195Y74.098
N16100X26.746Y74.325
N16110X26.286Y74.523
N16120G3X23.339Y75.082I-2.947J-7.491
N16130G3X15.289Y67.032I0.000J-8.050
N16140G3X17.885Y61.111I8.050J0.000
N16150G01X18.261Y60.786
N16160X18.658Y60.483
N16170X19.074Y60.204
N16180X19.508Y59.952
N16190X19.957Y59.726
N16200X20.419Y59.530
N16210X20.889Y59.363
N16220X21.367Y59.227
N16230G3X23.339Y58.982I1.972J7.805
N16240G3X31.389Y67.032I0.000J8.050
N16250G01Z-2.250F30.0
N16260G3X29.520Y72.189I-8.050J0.000F600.0
N16270G01X29.188Y72.563
N16280X28.831Y72.918
N16290X28.451Y73.251
N16300X28.050Y73.560
N16310X27.630Y73.843
N16320X27.195Y74.098
N16330X26.746Y74.325
N16340X26.286Y74.523
N16350G3X23.339Y75.082I-2.947J-7.491
N16360G3X15.289Y67.032I0.000J-8.050
N16370G3X17.885Y61.111I8.050J0.000
N16380G01X18.261Y60.786
N16390X18.658Y60.483
N16400X19.074Y60.204
N16410X19.508Y59.952
N16420X19.957Y59.726
N16430X20.419Y59.530
N16440X20.889Y59.363
N16450X21.367Y59.227
N16460G3X23.339Y58.982I1.972J7.805
N16470G3X31.389Y67.032I0.000J8.050
N16480G01Z-2.300F30.0
N16490G3X29.520Y72.189I-8.050J0.000F600.0
N16500G01X29.188Y72.563
N16510X28.831Y72.918
N16520X28.451Y73.251
N16530X28.050Y73.560
N16540X27.630Y73.843
N16550X27.195Y74.098
N16560X26.746Y74.325
N16570X26.286Y74.523
N16580G3X23.339Y75.082I-2.947J-7.491
N16590G3X15.289Y67.032I0.000J-8.050
N16600G3X17.885Y61.111I8.050J0.000
N16610G01X18.261Y60.786
N16620X18.658Y60.483
N16630X19.074Y60.204
N16640X19.508Y59.952
N16650X19.957Y59.726
N16660X20.419Y59.530
N16670X20.889Y59.363
N16680X21.367Y59.227
N16690G3X23.339Y58.982I1.972J7.805
N16700G3X31.389Y67.032I0.000J8.050
N16710G01Z-2.350F30.0
N16720G3X29.520Y72.189I-8.050J0.000F600.0
N16730G01X29.188Y72.563
N16740X28.831Y72.918
N16750X28.451Y73.251
N16760X28.050Y73.560
N16770X27.630Y73.843
N16780X27.195Y74.098
N16790X26.746Y74.325
N16800X26.286Y74.523
N16810G3X23.339Y75.082I-2.947J-7.491
N16820G3X15.289Y67.032I0.000J-8.050
N16830G3X17.885Y61.111I8.050J0.000
N16840G01X18.261Y60.786
N16850X18.658Y60.483
N16860X19.074Y60.204
N16870X19.508Y59.952
N16880X19.957Y59.726
N16890X20.419Y59.530
N16900X20.889Y59.363
N16910X21.367Y59.227
N16920G3X23.339Y58.982I1.972J7.805
N16930G3X31.389Y67.032I0.000J8.050
N16940G01Z-2.400F30.0
N16950G3X29.520Y72.189I-8.050J0.000F600.0
N16960G01X29.188Y72.563
N16970X28.831Y72.918
N16980X28.451Y73.251
N16990X28.050Y73.560
N17000X27.630Y73.843
N17010X27.195Y74.098
N17020X26.746Y74.325
N17030X26.286Y74.523
N17040G3X23.339Y75.082I-2.947J-7.491
N17050G3X15.289Y67.032I0.000J-8.050
N17060G3X17.885Y61.111I8.050J0.000
N17070G01X18.261Y60.786
N17080X18.658Y60.483
N17090X19.074Y60.204
N17100X19.508Y59.952
N17110X19.957Y59.726
N17120X20.419Y59.530
N17130X20.889Y59.363
N17140X21.367Y59.227
N17150G3X23.339Y58.982I1.972J7.805
N17160G3X31.389Y67.032I0.000J8.050
N17170G01Z-2.450F30.0
N17180G3X29.520Y72.189I-8.050J0.000F600.0
N17190G01X29.188Y72.563
N17200X28.831Y72.918
N17210X28.451Y73.251
N17220X28.050Y73.560
N17230X27.630Y73.843
N17240X27.195Y74.098
N17250X26.746Y74.325
N17260X26.286Y74.523
N17270G3X23.339Y75.082I-2.947J-7.491
N17280G3X15.289Y67.032I0.000J-8.050
N17290G3X17.885Y61.111I8.050J0.000
N17300G01X18.261Y60.786
N17310X18.658Y60.483
N17320X19.074Y60.204
N17330X19.508Y59.952
N17340X19.957Y59.726
N17350X20.419Y59.530
N17360X20.889Y59.363
N17370X21.367Y59.227
N17380G3X23.339Y58.982I1.972J7.805
N17390G3X31.389Y67.032I0.000J8.050
N17400G01Z-2.500F30.0
N17410G3X29.520Y72.189I-8.050J0.000F600.0
N17420G01X29.188Y72.563
N17430X28.831Y72.918
N17440X28.451Y73.251
N17450X28.050Y73.560
N17460X27.630Y73.843
N17470X27.195Y74.098
N17480X26.746Y74.325
N17490X26.286Y74.523
N17500G3X23.339Y75.082I-2.947J-7.491
N17510G3X15.289Y67.032I0.000J-8.050
N17520G3X17.885Y61.111I8.050J0.000
N17530G01X18.261Y60.786
N17540X18.658Y60.483
N17550X19.074Y60.204
N17560X19.508Y59.952
N17570X19.957Y59.726
N17580X20.419Y59.530
N17590X20.889Y59.363
N17600X21.367Y59.227
N17610G3X23.339Y58.982I1.972J7.805
N17620G3X31.389Y67.032I0.000J8.050
N17630G01Z-2.550F30.0
N17640G3X29.520Y72.189I-8.050J0.000F600.0
N17650G01X29.188Y72.563
N17660X28.831Y72.918
N17670X28.451Y73.251
N17680X28.050Y73.560
N17690X27.630Y73.843
N17700X27.195Y74.098
N17710X26.746Y74.325
N17720X26.286Y74.523
N17730G3X23.339Y75.082I-2.947J-7.491
N17740G3X15.289Y67.032I0.000J-8.050
N17750G3X17.885Y61.111I8.050J0.000
N17760G01X18.261Y60.786
N17770X18.658Y60.483
N17780X19.074Y60.204
N17790X19.508Y59.952
N17800X19.957Y59.726
N17810X20.419Y59.530
N17820X20.889Y59.363
N17830X21.367Y59.227
N17840G3X23.339Y58.982I1.972J7.805
N17850G3X31.389Y67.032I0.000J8.050
N17860G01Z-2.600F30.0
N17870G3X29.520Y72.189I-8.050J0.000F600.0
N17880G01X29.188Y72.563
N17890X28.831Y72.918
N17900X28.451Y73.251
N17910X28.050Y73.560
N17920X27.630Y73.843
N17930X27.195Y74.098
N17940X26.746Y74.325
N17950X26.286Y74.523
N17960G3X23.339Y75.082I-2.947J-7.491
N17970G3X15.289Y67.032I0.000J-8.050
N17980G3X17.885Y61.111I8.050J0.000
N17990G01X18.261Y60.786
N18000X18.658Y60.483
N18010X19.074Y60.204
N18020X19.508Y59.952
N18030X19.957Y59.726
N18040X20.419Y59.530
N18050X20.889Y59.363
N18060X21.367Y59.227
N18070G3X23.339Y58.982I1.972J7.805
N18080G3X31.389Y67.032I0.000J8.050
N18090G01Z-2.650F30.0
N18100G3X29.520Y72.189I-8.050J0.000F600.0
N18110G01X29.188Y72.563
N18120X28.831Y72.918
N18130X28.451Y73.251
N18140X28.050Y73.560
N18150X27.630Y73.843
N18160X27.195Y74.098
N18170X26.746Y74.325
N18180X26.286Y74.523
N18190G3X23.339Y75.082I-2.947J-7.491
N18200G3X15.289Y67.032I0.000J-8.050
N18210G3X17.885Y61.111I8.050J0.000
N18220G01X18.261Y60.786
N18230X18.658Y60.483
N18240X19.074Y60.204
N18250X19.508Y59.952
N18260X19.957Y59.726
N18270X20.419Y59.530
N18280X20.889Y59.363
N18290X21.367Y59.227
N18300G3X23.339Y58.982I1.972J7.805
N18310G3X31.389Y67.032I0.000J8.050
N18320G01Z-2.700F30.0
N18330G3X29.520Y72.189I-8.050J0.000F600.0
N18340G01X29.188Y72.563
N18350X28.831Y72.918
N18360X28.451Y73.251
N18370X28.050Y73.560
N18380X27.630Y73.843
N18390X27.195Y74.098
N18400X26.746Y74.325
N18410X26.286Y74.523
N18420G3X23.339Y75.082I-2.947J-7.491
N18430G3X15.289Y67.032I0.000J-8.050
N18440G3X17.885Y61.111I8.050J0.000
N18450G01X18.261Y60.786
N18460X18.658Y60.483
N18470X19.074Y60.204
N18480X19.508Y59.952
N18490X19.957Y59.726
N18500X20.419Y59.530
N18510X20.889Y59.363
N18520X21.367Y59.227
N18530G3X23.339Y58.982I1.972J7.805
N18540G3X31.389Y67.032I0.000J8.050
N18550G01Z-2.750F30.0
N18560G3X29.520Y72.189I-8.050J0.000F600.0
N18570G01X29.188Y72.563
N18580X28.831Y72.918
N18590X28.451Y73.251
N18600X28.050Y73.560
N18610X27.630Y73.843
N18620X27.195Y74.098
N18630X26.746Y74.325
N18640X26.286Y74.523
N18650G3X23.339Y75.082I-2.947J-7.491
N18660G3X15.289Y67.032I0.000J-8.050
N18670G3X17.885Y61.111I8.050J0.000
N18680G01X18.261Y60.786
N18690X18.658Y60.483
N18700X19.074Y60.204
N18710X19.508Y59.952
N18720X19.957Y59.726
N18730X20.419Y59.530
N18740X20.889Y59.363
N18750X21.367Y59.227
N18760G3X23.339Y58.982I1.972J7.805
N18770G3X31.389Y67.032I0.000J8.050
N18780G01Z-2.800F30.0
N18790G3X29.520Y72.189I-8.050J0.000F600.0
N18800G01X29.188Y72.563
N18810X28.831Y72.918
N18820X28.451Y73.251
N18830X28.050Y73.560
N18840X27.630Y73.843
N18850X27.195Y74.098
N18860X26.746Y74.325
N18870X26.286Y74.523
N18880G3X23.339Y75.082I-2.947J-7.491
N18890G3X15.289Y67.032I0.000J-8.050
N18900G3X17.885Y61.111I8.050J0.000
N18910G01X18.261Y60.786
N18920X18.658Y60.483
N18930X19.074Y60.204
N18940X19.508Y59.952
N18950X19.957Y59.726
N18960X20.419Y59.530
N18970X20.889Y59.363
N18980X21.367Y59.227
N18990G3X23.339Y58.982I1.972J7.805
N19000G3X31.389Y67.032I0.000J8.050
N19010G01Z-2.850F30.0
N19020G3X29.520Y72.189I-8.050J0.000F600.0
N19030G01Z-2.800
N19040X29.188Y72.563
N19050X28.831Y72.918
N19060X28.451Y73.251
N19070X28.050Y73.560
N19080X27.630Y73.843
N19090X27.195Y74.098
N19100X26.746Y74.325
N19110X26.286Y74.523
N19120G01Z-2.850F30.0
N19130G3X23.339Y75.082I-2.947J-7.491F600.0
N19140G3X15.289Y67.032I0.000J-8.050
N19150G3X17.885Y61.111I8.050J0.000
N19160G01Z-2.800
N19170X18.261Y60.786
N19180X18.658Y60.483
N19190X19.074Y60.204
N19200X19.508Y59.952
N19210X19.957Y59.726
N19220X20.419Y59.530
N19230X20.889Y59.363
N19240X21.367Y59.227
N19250G01Z-2.850F30.0
N19260G3X23.339Y58.982I1.972J7.805F600.0
N19270G3X31.389Y67.032I0.000J8.050
N19280G01Z-2.900F30.0
N19290G3X29.520Y72.189I-8.050J0.000F600.0
N19300G01Z-2.800
N19310X29.188Y72.563
N19320X28.831Y72.918
N19330X28.451Y73.251
N19340X28.050Y73.560
N19350X27.630Y73.843
N19360X27.195Y74.098
N19370X26.746Y74.325
N19380X26.286Y74.523
N19390G01Z-2.900F30.0
N19400G3X23.339Y75.082I-2.947J-7.491F600.0
N19410G3X15.289Y67.032I0.000J-8.050
N19420G3X17.885Y61.111I8.050J0.000
N19430G01Z-2.800
N19440X18.261Y60.786
N19450X18.658Y60.483
N19460X19.074Y60.204
N19470X19.508Y59.952
N19480X19.957Y59.726
N19490X20.419Y59.530
N19500X20.889Y59.363
N19510X21.367Y59.227
N19520G01Z-2.900F30.0
N19530G3X23.339Y58.982I1.972J7.805F600.0
N19540G3X31.389Y67.032I0.000J8.050
N19550G01Z-2.950F30.0
N19560G3X29.520Y72.189I-8.050J0.000F600.0
N19570G01Z-2.800
N19580X29.188Y72.563
N19590X28.831Y72.918
N19600X28.451Y73.251
N19610X28.050Y73.560
N19620X27.630Y73.843
N19630X27.195Y74.098
N19640X26.746Y74.325
N19650X26.286Y74.523
N19660G01Z-2.950F30.0
N19670G3X23.339Y75.082I-2.947J-7.491F600.0
N19680G3X15.289Y67.032I0.000J-8.050
N19690G3X17.885Y61.111I8.050J0.000
N19700G01Z-2.800
N19710X18.261Y60.786
N19720X18.658Y60.483
N19730X19.074Y60.204
N19740X19.508Y59.952
N19750X19.957Y59.726
N19760X20.419Y59.530
N19770X20.889Y59.363
N19780X21.367Y59.227
N19790G01Z-2.950F30.0
N19800G3X23.339Y58.982I1.972J7.805F600.0
N19810G3X31.389Y67.032I0.000J8.050
N19820G01Z-3.000F30.0
N19830G3X29.520Y72.189I-8.050J0.000F600.0
N19840G01Z-2.800
N19850X29.188Y72.563
N19860X28.831Y72.918
N19870X28.451Y73.251
N19880X28.050Y73.560
N19890X27.630Y73.843
N19900X27.195Y74.098
N19910X26.746Y74.325
N19920X26.286Y74.523
N19930G01Z-3.000F30.0
N19940G3X23.339Y75.082I-2.947J-7.491F600.0
N19950G3X15.289Y67.032I0.000J-8.050
N19960G3X17.885Y61.111I8.050J0.000
N19970G01Z-2.800
N19980X18.261Y60.786
N19990X18.658Y60.483
N20000X19.074Y60.204
N20010X19.508Y59.952
N20020X19.957Y59.726
N20030X20.419Y59.530
N20040X20.889Y59.363
N20050X21.367Y59.227
N20060G01Z-3.000F30.0
N20070G3X23.339Y58.982I1.972J7.805F600.0
N20080G3X31.389Y67.032I0.000J8.050
N20090G00Z6.000
N20100G00X23.779Y119.532
N20110G01Z-0.050F30.0
N20120G3X23.679Y119.632I-0.100J0.000F600.0
N20130G3X23.579Y119.532I0.000J-0.100
N20140G3X23.679Y119.432I0.100J0.000
N20150G3X23.779Y119.532I0.000J0.100
N20160G01Z-0.100F30.0
N20170G3X23.679Y119.632I-0.100J0.000F600.0
N20180G3X23.579Y119.532I0.000J-0.100
N20190G3X23.679Y119.432I0.100J0.000
N20200G3X23.779Y119.532I0.000J0.100
N20210G01Z-0.150F30.0
N20220G3X23.679Y119.632I-0.100J0.000F600.0
N20230G3X23.579Y119.532I0.000J-0.100
N20240G3X23.679Y119.432I0.100J0.000
N20250G3X23.779Y119.532I0.000J0.100
N20260G01Z-0.200F30.0
N20270G3X23.679Y119.632I-0.100J0.000F600.0
N20280G3X23.579Y119.532I0.000J-0.100
N20290G3X23.679Y119.432I0.100J0.000
N20300G3X23.779Y119.532I0.000J0.100
N20310G01Z-0.250F30.0
N20320G3X23.679Y119.632I-0.100J0.000F600.0
N20330G3X23.579Y119.532I0.000J-0.100
N20340G3X23.679Y119.432I0.100J0.000
N20350G3X23.779Y119.532I0.000J0.100
N20360G01Z-0.300F30.0
N20370G3X23.679Y119.632I-0.100J0.000F600.0
N20380G3X23.579Y119.532I0.000J-0.100
N20390G3X23.679Y119.432I0.100J0.000
N20400G3X23.779Y119.532I0.000J0.100
N20410G01Z-0.350F30.0
N20420G3X23.679Y119.632I-0.100J0.000F600.0
N20430G3X23.579Y119.532I0.000J-0.100
N20440G3X23.679Y119.432I0.100J0.000
N20450G3X23.779Y119.532I0.000J0.100
N20460G01Z-0.400F30.0
N20470G3X23.679Y119.632I-0.100J0.000F600.0
N20480G3X23.579Y119.532I0.000J-0.100
N20490G3X23.679Y119.432I0.100J0.000
N20500G3X23.779Y119.532I0.000J0.100
N20510G01Z-0.450F30.0
N20520G3X23.679Y119.632I-0.100J0.000F600.0
N20530G3X23.579Y119.532I0.000J-0.100
N20540G3X23.679Y119.432I0.100J0.000
N20550G3X23.779Y119.532I0.000J0.100
N20560G01Z-0.500F30.0
N20570G3X23.679Y119.632I-0.100J0.000F600.0
N20580G3X23.579Y119.532I0.000J-0.100
N20590G3X23.679Y119.432I0.100J0.000
N20600G3X23.779Y119.532I0.000J0.100
N20610G01Z-0.550F30.0
N20620G3X23.679Y119.632I-0.100J0.000F600.0
N20630G3X23.579Y119.532I0.000J-0.100
N20640G3X23.679Y119.432I0.100J0.000
N20650G3X23.779Y119.532I0.000J0.100
N20660G01Z-0.600F30.0
N20670G3X23.679Y119.632I-0.100J0.000F600.0
N20680G3X23.579Y119.532I0.000J-0.100
N20690G3X23.679Y119.432I0.100J0.000
N20700G3X23.779Y119.532I0.000J0.100
N20710G01Z-0.650F30.0
N20720G3X23.679Y119.632I-0.100J0.000F600.0
N20730G3X23.579Y119.532I0.000J-0.100
N20740G3X23.679Y119.432I0.100J0.000
N20750G3X23.779Y119.532I0.000J0.100
N20760G01Z-0.700F30.0
N20770G3X23.679Y119.632I-0.100J0.000F600.0
N20780G3X23.579Y119.532I0.000J-0.100
N20790G3X23.679Y119.432I0.100J0.000
N20800G3X23.779Y119.532I0.000J0.100
N20810G01Z-0.750F30.0
N20820G3X23.679Y119.632I-0.100J0.000F600.0
N20830G3X23.579Y119.532I0.000J-0.100
N20840G3X23.679Y119.432I0.100J0.000
N20850G3X23.779Y119.532I0.000J0.100
N20860G01Z-0.800F30.0
N20870G3X23.679Y119.632I-0.100J0.000F600.0
N20880G3X23.579Y119.532I0.000J-0.100
N20890G3X23.679Y119.432I0.100J0.000
N20900G3X23.779Y119.532I0.000J0.100
N20910G01Z-0.850F30.0
N20920G3X23.679Y119.632I-0.100J0.000F600.0
N20930G3X23.579Y119.532I0.000J-0.100
N20940G3X23.679Y119.432I0.100J0.000
N20950G3X23.779Y119.532I0.000J0.100
N20960G01Z-0.900F30.0
N20970G3X23.679Y119.632I-0.100J0.000F600.0
N20980G3X23.579Y119.532I0.000J-0.100
N20990G3X23.679Y119.432I0.100J0.000
N21000G3X23.779Y119.532I0.000J0.100
N21010G01Z-0.950F30.0
N21020G3X23.679Y119.632I-0.100J0.000F600.0
N21030G3X23.579Y119.532I0.000J-0.100
N21040G3X23.679Y119.432I0.100J0.000
N21050G3X23.779Y119.532I0.000J0.100
N21060G01Z-1.000F30.0
N21070G3X23.679Y119.632I-0.100J0.000F600.0
N21080G3X23.579Y119.532I0.000J-0.100
N21090G3X23.679Y119.432I0.100J0.000
N21100G3X23.779Y119.532I0.000J0.100
N21110G01Z-1.050F30.0
N21120G3X23.679Y119.632I-0.100J0.000F600.0
N21130G3X23.579Y119.532I0.000J-0.100
N21140G3X23.679Y119.432I0.100J0.000
N21150G3X23.779Y119.532I0.000J0.100
N21160G01Z-1.100F30.0
N21170G3X23.679Y119.632I-0.100J0.000F600.0
N21180G3X23.579Y119.532I0.000J-0.100
N21190G3X23.679Y119.432I0.100J0.000
N21200G3X23.779Y119.532I0.000J0.100
N21210G01Z-1.150F30.0
N21220G3X23.679Y119.632I-0.100J0.000F600.0
N21230G3X23.579Y119.532I0.000J-0.100
N21240G3X23.679Y119.432I0.100J0.000
N21250G3X23.779Y119.532I0.000J0.100
N21260G01Z-1.200F30.0
N21270G3X23.679Y119.632I-0.100J0.000F600.0
N21280G3X23.579Y119.532I0.000J-0.100
N21290G3X23.679Y119.432I0.100J0.000
N21300G3X23.779Y119.532I0.000J0.100
N21310G01Z-1.250F30.0
N21320G3X23.679Y119.632I-0.100J0.000F600.0
N21330G3X23.579Y119.532I0.000J-0.100
N21340G3X23.679Y119.432I0.100J0.000
N21350G3X23.779Y119.532I0.000J0.100
N21360G01Z-1.300F30.0
N21370G3X23.679Y119.632I-0.100J0.000F600.0
N21380G3X23.579Y119.532I0.000J-0.100
N21390G3X23.679Y119.432I0.100J0.000
N21400G3X23.779Y119.532I0.000J0.100
N21410G01Z-1.350F30.0
N21420G3X23.679Y119.632I-0.100J0.000F600.0
N21430G3X23.579Y119.532I0.000J-0.100
N21440G3X23.679Y119.432I0.100J0.000
N21450G3X23.779Y119.532I0.000J0.100
N21460G01Z-1.400F30.0
N21470G3X23.679Y119.632I-0.100J0.000F600.0
N21480G3X23.579Y119.532I0.000J-0.100
N21490G3X23.679Y119.432I0.100J0.000
N21500G3X23.779Y119.532I0.000J0.100
N21510G01Z-1.450F30.0
N21520G3X23.679Y119.632I-0.100J0.000F600.0
N21530G3X23.579Y119.532I0.000J-0.100
N21540G3X23.679Y119.432I0.100J0.000
N21550G3X23.779Y119.532I0.000J0.100
N21560G01Z-1.500F30.0
N21570G3X23.679Y119.632I-0.100J0.000F600.0
N21580G3X23.579Y119.532I0.000J-0.100
N21590G3X23.679Y119.432I0.100J0.000
N21600G3X23.779Y119.532I0.000J0.100
N21610G01Z-1.550F30.0
N21620G3X23.679Y119.632I-0.100J0.000F600.0
N21630G3X23.579Y119.532I0.000J-0.100
N21640G3X23.679Y119.432I0.100J0.000
N21650G3X23.779Y119.532I0.000J0.100
N21660G01Z-1.600F30.0
N21670G3X23.679Y119.632I-0.100J0.000F600.0
N21680G3X23.579Y119.532I0.000J-0.100
N21690G3X23.679Y119.432I0.100J0.000
N21700G3X23.779Y119.532I0.000J0.100
N21710G01Z-1.650F30.0
N21720G3X23.679Y119.632I-0.100J0.000F600.0
N21730G3X23.579Y119.532I0.000J-0.100
N21740G3X23.679Y119.432I0.100J0.000
N21750G3X23.779Y119.532I0.000J0.100
N21760G01Z-1.700F30.0
N21770G3X23.679Y119.632I-0.100J0.000F600.0
N21780G3X23.579Y119.532I0.000J-0.100
N21790G3X23.679Y119.432I0.100J0.000
N21800G3X23.779Y119.532I0.000J0.100
N21810G01Z-1.750F30.0
N21820G3X23.679Y119.632I-0.100J0.000F600.0
N21830G3X23.579Y119.532I0.000J-0.100
N21840G3X23.679Y119.432I0.100J0.000
N21850G3X23.779Y119.532I0.000J0.100
N21860G01Z-1.800F30.0
N21870G3X23.679Y119.632I-0.100J0.000F600.0
N21880G3X23.579Y119.532I0.000J-0.100
N21890G3X23.679Y119.432I0.100J0.000
N21900G3X23.779Y119.532I0.000J0.100
N21910G01Z-1.850F30.0
N21920G3X23.679Y119.632I-0.100J0.000F600.0
N21930G3X23.579Y119.532I0.000J-0.100
N21940G3X23.679Y119.432I0.100J0.000
N21950G3X23.779Y119.532I0.000J0.100
N21960G01Z-1.900F30.0
N21970G3X23.679Y119.632I-0.100J0.000F600.0
N21980G3X23.579Y119.532I0.000J-0.100
N21990G3X23.679Y119.432I0.100J0.000
N22000G3X23.779Y119.532I0.000J0.100
N22010G01Z-1.950F30.0
N22020G3X23.679Y119.632I-0.100J0.000F600.0
N22030G3X23.579Y119.532I0.000J-0.100
N22040G3X23.679Y119.432I0.100J0.000
N22050G3X23.779Y119.532I0.000J0.100
N22060G01Z-2.000F30.0
N22070G3X23.679Y119.632I-0.100J0.000F600.0
N22080G3X23.579Y119.532I0.000J-0.100
N22090G3X23.679Y119.432I0.100J0.000
N22100G3X23.779Y119.532I0.000J0.100
N22110G01Z-2.050F30.0
N22120G3X23.679Y119.632I-0.100J0.000F600.0
N22130G3X23.579Y119.532I0.000J-0.100
N22140G3X23.679Y119.432I0.100J0.000
N22150G3X23.779Y119.532I0.000J0.100
N22160G01Z-2.100F30.0
N22170G3X23.679Y119.632I-0.100J0.000F600.0
N22180G3X23.579Y119.532I0.000J-0.100
N22190G3X23.679Y119.432I0.100J0.000
N22200G3X23.779Y119.532I0.000J0.100
N22210G01Z-2.150F30.0
N22220G3X23.679Y119.632I-0.100J0.000F600.0
N22230G3X23.579Y119.532I0.000J-0.100
N22240G3X23.679Y119.432I0.100J0.000
N22250G3X23.779Y119.532I0.000J0.100
N22260G01Z-2.200F30.0
N22270G3X23.679Y119.632I-0.100J0.000F600.0
N22280G3X23.579Y119.532I0.000J-0.100
N22290G3X23.679Y119.432I0.100J0.000
N22300G3X23.779Y119.532I0.000J0.100
N22310G01Z-2.250F30.0
N22320G3X23.679Y119.632I-0.100J0.000F600.0
N22330G3X23.579Y119.532I0.000J-0.100
N22340G3X23.679Y119.432I0.100J0.000
N22350G3X23.779Y119.532I0.000J0.100
N22360G01Z-2.300F30.0
N22370G3X23.679Y119.632I-0.100J0.000F600.0
N22380G3X23.579Y119.532I0.000J-0.100
N22390G3X23.679Y119.432I0.100J0.000
N22400G3X23.779Y119.532I0.000J0.100
N22410G01Z-2.350F30.0
N22420G3X23.679Y119.632I-0.100J0.000F600.0
N22430G3X23.579Y119.532I0.000J-0.100
N22440G3X23.679Y119.432I0.100J0.000
N22450G3X23.779Y119.532I0.000J0.100
N22460G01Z-2.400F30.0
N22470G3X23.679Y119.632I-0.100J0.000F600.0
N22480G3X23.579Y119.532I0.000J-0.100
N22490G3X23.679Y119.432I0.100J0.000
N22500G3X23.779Y119.532I0.000J0.100
N22510G01Z-2.450F30.0
N22520G3X23.679Y119.632I-0.100J0.000F600.0
N22530G3X23.579Y119.532I0.000J-0.100
N22540G3X23.679Y119.432I0.100J0.000
N22550G3X23.779Y119.532I0.000J0.100
N22560G01Z-2.500F30.0
N22570G3X23.679Y119.632I-0.100J0.000F600.0
N22580G3X23.579Y119.532I0.000J-0.100
N22590G3X23.679Y119.432I0.100J0.000
N22600G3X23.779Y119.532I0.000J0.100
N22610G01Z-2.550F30.0
N22620G3X23.679Y119.632I-0.100J0.000F600.0
N22630G3X23.579Y119.532I0.000J-0.100
N22640G3X23.679Y119.432I0.100J0.000
N22650G3X23.779Y119.532I0.000J0.100
N22660G01Z-2.600F30.0
N22670G3X23.679Y119.632I-0.100J0.000F600.0
N22680G3X23.579Y119.532I0.000J-0.100
N22690G3X23.679Y119.432I0.100J0.000
N22700G3X23.779Y119.532I0.000J0.100
N22710G01Z-2.650F30.0
N22720G3X23.679Y119.632I-0.100J0.000F600.0
N22730G3X23.579Y119.532I0.000J-0.100
N22740G3X23.679Y119.432I0.100J0.000
N22750G3X23.779Y119.532I0.000J0.100
N22760G01Z-2.700F30.0
N22770G3X23.679Y119.632I-0.100J0.000F600.0
N22780G3X23.579Y119.532I0.000J-0.100
N22790G3X23.679Y119.432I0.100J0.000
N22800G3X23.779Y119.532I0.000J0.100
N22810G01Z-2.750F30.0
N22820G3X23.679Y119.632I-0.100J0.000F600.0
N22830G3X23.579Y119.532I0.000J-0.100
N22840G3X23.679Y119.432I0.100J0.000
N22850G3X23.779Y119.532I0.000J0.100
N22860G01Z-2.800F30.0
N22870G3X23.679Y119.632I-0.100J0.000F600.0
N22880G3X23.579Y119.532I0.000J-0.100
N22890G3X23.679Y119.432I0.100J0.000
N22900G3X23.779Y119.532I0.000J0.100
N22910G01Z-2.850F30.0
N22920G3X23.679Y119.632I-0.100J0.000F600.0
N22930G3X23.579Y119.532I0.000J-0.100
N22940G3X23.679Y119.432I0.100J0.000
N22950G3X23.779Y119.532I0.000J0.100
N22960G01Z-2.900F30.0
N22970G3X23.679Y119.632I-0.100J0.000F600.0
N22980G3X23.579Y119.532I0.000J-0.100
N22990G3X23.679Y119.432I0.100J0.000
N23000G3X23.779Y119.532I0.000J0.100
N23010G01Z-2.950F30.0
N23020G3X23.679Y119.632I-0.100J0.000F600.0
N23030G3X23.579Y119.532I0.000J-0.100
N23040G3X23.679Y119.432I0.100J0.000
N23050G3X23.779Y119.532I0.000J0.100
N23060G01Z-3.000F30.0
N23070G3X23.679Y119.632I-0.100J0.000F600.0
N23080G3X23.579Y119.532I0.000J-0.100
N23090G3X23.679Y119.432I0.100J0.000
N23100G3X23.779Y119.532I0.000J0.100
N23110G00Z6.000
N23120G00X15.779
N23130G01Z-0.050F30.0
N23140G3X15.679Y119.632I-0.100J0.000F600.0
N23150G3X15.579Y119.532I0.000J-0.100
N23160G3X15.679Y119.432I0.100J0.000
N23170G3X15.779Y119.532I0.000J0.100
N23180G01Z-0.100F30.0
N23190G3X15.679Y119.632I-0.100J0.000F600.0
N23200G3X15.579Y119.532I0.000J-0.100
N23210G3X15.679Y119.432I0.100J0.000
N23220G3X15.779Y119.532I0.000J0.100
N23230G01Z-0.150F30.0
N23240G3X15.679Y119.632I-0.100J0.000F600.0
N23250G3X15.579Y119.532I0.000J-0.100
N23260G3X15.679Y119.432I0.100J0.000
N23270G3X15.779Y119.532I0.000J0.100
N23280G01Z-0.200F30.0
N23290G3X15.679Y119.632I-0.100J0.000F600.0
N23300G3X15.579Y119.532I0.000J-0.100
N23310G3X15.679Y119.432I0.100J0.000
N23320G3X15.779Y119.532I0.000J0.100
N23330G01Z-0.250F30.0
N23340G3X15.679Y119.632I-0.100J0.000F600.0
N23350G3X15.579Y119.532I0.000J-0.100
N23360G3X15.679Y119.432I0.100J0.000
N23370G3X15.779Y119.532I0.000J0.100
N23380G01Z-0.300F30.0
N23390G3X15.679Y119.632I-0.100J0.000F600.0
N23400G3X15.579Y119.532I0.000J-0.100
N23410G3X15.679Y119.432I0.100J0.000
N23420G3X15.779Y119.532I0.000J0.100
N23430G01Z-0.350F30.0
N23440G3X15.679Y119.632I-0.100J0.000F600.0
N23450G3X15.579Y119.532I0.000J-0.100
N23460G3X15.679Y119.432I0.100J0.000
N23470G3X15.779Y119.532I0.000J0.100
N23480G01Z-0.400F30.0
N23490G3X15.679Y119.632I-0.100J0.000F600.0
N23500G3X15.579Y119.532I0.000J-0.100
N23510G3X15.679Y119.432I0.100J0.000
N23520G3X15.779Y119.532I0.000J0.100
N23530G01Z-0.450F30.0
N23540G3X15.679Y119.632I-0.100J0.000F600.0
N23550G3X15.579Y119.532I0.000J-0.100
N23560G3X15.679Y119.432I0.100J0.000
N23570G3X15.779Y119.532I0.000J0.100
N23580G01Z-0.500F30.0
N23590G3X15.679Y119.632I-0.100J0.000F600.0
N23600G3X15.579Y119.532I0.000J-0.100
N23610G3X15.679Y119.432I0.100J0.000
N23620G3X15.779Y119.532I0.000J0.100
N23630G01Z-0.550F30.0
N23640G3X15.679Y119.632I-0.100J0.000F600.0
N23650G3X15.579Y119.532I0.000J-0.100
N23660G3X15.679Y119.432I0.100J0.000
N23670G3X15.779Y119.532I0.000J0.100
N23680G01Z-0.600F30.0
N23690G3X15.679Y119.632I-0.100J0.000F600.0
N23700G3X15.579Y119.532I0.000J-0.100
N23710G3X15.679Y119.432I0.100J0.000
N23720G3X15.779Y119.532I0.000J0.100
N23730G01Z-0.650F30.0
N23740G3X15.679Y119.632I-0.100J0.000F600.0
N23750G3X15.579Y119.532I0.000J-0.100
N23760G3X15.679Y119.432I0.100J0.000
N23770G3X15.779Y119.532I0.000J0.100
N23780G01Z-0.700F30.0
N23790G3X15.679Y119.632I-0.100J0.000F600.0
N23800G3X15.579Y119.532I0.000J-0.100
N23810G3X15.679Y119.432I0.100J0.000
N23820G3X15.779Y119.532I0.000J0.100
N23830G01Z-0.750F30.0
N23840G3X15.679Y119.632I-0.100J0.000F600.0
N23850G3X15.579Y119.532I0.000J-0.100
N23860G3X15.679Y119.432I0.100J0.000
N23870G3X15.779Y119.532I0.000J0.100
N23880G01Z-0.800F30.0
N23890G3X15.679Y119.632I-0.100J0.000F600.0
N23900G3X15.579Y119.532I0.000J-0.100
N23910G3X15.679Y119.432I0.100J0.000
N23920G3X15.779Y119.532I0.000J0.100
N23930G01Z-0.850F30.0
N23940G3X15.679Y119.632I-0.100J0.000F600.0
N23950G3X15.579Y119.532I0.000J-0.100
N23960G3X15.679Y119.432I0.100J0.000
N23970G3X15.779Y119.532I0.000J0.100
N23980G01Z-0.900F30.0
N23990G3X15.679Y119.632I-0.100J0.000F600.0
N24000G3X15.579Y119.532I0.000J-0.100
N24010G3X15.679Y119.432I0.100J0.000
N24020G3X15.779Y119.532I0.000J0.100
N24030G01Z-0.950F30.0
N24040G3X15.679Y119.632I-0.100J0.000F600.0
N24050G3X15.579Y119.532I0.000J-0.100
N24060G3X15.679Y119.432I0.100J0.000
N24070G3X15.779Y119.532I0.000J0.100
N24080G01Z-1.000F30.0
N24090G3X15.679Y119.632I-0.100J0.000F600.0
N24100G3X15.579Y119.532I0.000J-0.100
N24110G3X15.679Y119.432I0.100J0.000
N24120G3X15.779Y119.532I0.000J0.100
N24130G01Z-1.050F30.0
N24140G3X15.679Y119.632I-0.100J0.000F600.0
N24150G3X15.579Y119.532I0.000J-0.100
N24160G3X15.679Y119.432I0.100J0.000
N24170G3X15.779Y119.532I0.000J0.100
N24180G01Z-1.100F30.0
N24190G3X15.679Y119.632I-0.100J0.000F600.0
N24200G3X15.579Y119.532I0.000J-0.100
N24210G3X15.679Y119.432I0.100J0.000
N24220G3X15.779Y119.532I0.000J0.100
N24230G01Z-1.150F30.0
N24240G3X15.679Y119.632I-0.100J0.000F600.0
N24250G3X15.579Y119.532I0.000J-0.100
N24260G3X15.679Y119.432I0.100J0.000
N24270G3X15.779Y119.532I0.000J0.100
N24280G01Z-1.200F30.0
N24290G3X15.679Y119.632I-0.100J0.000F600.0
N24300G3X15.579Y119.532I0.000J-0.100
N24310G3X15.679Y119.432I0.100J0.000
N24320G3X15.779Y119.532I0.000J0.100
N24330G01Z-1.250F30.0
N24340G3X15.679Y119.632I-0.100J0.000F600.0
N24350G3X15.579Y119.532I0.000J-0.100
N24360G3X15.679Y119.432I0.100J0.000
N24370G3X15.779Y119.532I0.000J0.100
N24380G01Z-1.300F30.0
N24390G3X15.679Y119.632I-0.100J0.000F600.0
N24400G3X15.579Y119.532I0.000J-0.100
N24410G3X15.679Y119.432I0.100J0.000
N24420G3X15.779Y119.532I0.000J0.100
N24430G01Z-1.350F30.0
N24440G3X15.679Y119.632I-0.100J0.000F600.0
N24450G3X15.579Y119.532I0.000J-0.100
N24460G3X15.679Y119.432I0.100J0.000
N24470G3X15.779Y119.532I0.000J0.100
N24480G01Z-1.400F30.0
N24490G3X15.679Y119.632I-0.100J0.000F600.0
N24500G3X15.579Y119.532I0.000J-0.100
N24510G3X15.679Y119.432I0.100J0.000
N24520G3X15.779Y119.532I0.000J0.100
N24530G01Z-1.450F30.0
N24540G3X15.679Y119.632I-0.100J0.000F600.0
N24550G3X15.579Y119.532I0.000J-0.100
N24560G3X15.679Y119.432I0.100J0.000
N24570G3X15.779Y119.532I0.000J0.100
N24580G01Z-1.500F30.0
N24590G3X15.679Y119.632I-0.100J0.000F600.0
N24600G3X15.579Y119.532I0.000J-0.100
N24610G3X15.679Y119.432I0.100J0.000
N24620G3X15.779Y119.532I0.000J0.100
N24630G01Z-1.550F30.0
N24640G3X15.679Y119.632I-0.100J0.000F600.0
N24650G3X15.579Y119.532I0.000J-0.100
N24660G3X15.679Y119.432I0.100J0.000
N24670G3X15.779Y119.532I0.000J0.100
N24680G01Z-1.600F30.0
N24690G3X15.679Y119.632I-0.100J0.000F600.0
N24700G3X15.579Y119.532I0.000J-0.100
N24710G3X15.679Y119.432I0.100J0.000
N24720G3X15.779Y119.532I0.000J0.100
N24730G01Z-1.650F30.0
N24740G3X15.679Y119.632I-0.100J0.000F600.0
N24750G3X15.579Y119.532I0.000J-0.100
N24760G3X15.679Y119.432I0.100J0.000
N24770G3X15.779Y119.532I0.000J0.100
N24780G01Z-1.700F30.0
N24790G3X15.679Y119.632I-0.100J0.000F600.0
N24800G3X15.579Y119.532I0.000J-0.100
N24810G3X15.679Y119.432I0.100J0.000
N24820G3X15.779Y119.532I0.000J0.100
N24830G01Z-1.750F30.0
N24840G3X15.679Y119.632I-0.100J0.000F600.0
N24850G3X15.579Y119.532I0.000J-0.100
N24860G3X15.679Y119.432I0.100J0.000
N24870G3X15.779Y119.532I0.000J0.100
N24880G01Z-1.800F30.0
N24890G3X15.679Y119.632I-0.100J0.000F600.0
N24900G3X15.579Y119.532I0.000J-0.100
N24910G3X15.679Y119.432I0.100J0.000
N24920G3X15.779Y119.532I0.000J0.100
N24930G01Z-1.850F30.0
N24940G3X15.679Y119.632I-0.100J0.000F600.0
N24950G3X15.579Y119.532I0.000J-0.100
N24960G3X15.679Y119.432I0.100J0.000
N24970G3X15.779Y119.532I0.000J0.100
N24980G01Z-1.900F30.0
N24990G3X15.679Y119.632I-0.100J0.000F600.0
N25000G3X15.579Y119.532I0.000J-0.100
N25010G3X15.679Y119.432I0.100J0.000
N25020G3X15.779Y119.532I0.000J0.100
N25030G01Z-1.950F30.0
N25040G3X15.679Y119.632I-0.100J0.000F600.0
N25050G3X15.579Y119.532I0.000J-0.100
N25060G3X15.679Y119.432I0.100J0.000
N25070G3X15.779Y119.532I0.000J0.100
N25080G01Z-2.000F30.0
N25090G3X15.679Y119.632I-0.100J0.000F600.0
N25100G3X15.579Y119.532I0.000J-0.100
N25110G3X15.679Y119.432I0.100J0.000
N25120G3X15.779Y119.532I0.000J0.100
N25130G01Z-2.050F30.0
N25140G3X15.679Y119.632I-0.100J0.000F600.0
N25150G3X15.579Y119.532I0.000J-0.100
N25160G3X15.679Y119.432I0.100J0.000
N25170G3X15.779Y119.532I0.000J0.100
N25180G01Z-2.100F30.0
N25190G3X15.679Y119.632I-0.100J0.000F600.0
N25200G3X15.579Y119.532I0.000J-0.100
N25210G3X15.679Y119.432I0.100J0.000
N25220G3X15.779Y119.532I0.000J0.100
N25230G01Z-2.150F30.0
N25240G3X15.679Y119.632I-0.100J0.000F600.0
N25250G3X15.579Y119.532I0.000J-0.100
N25260G3X15.679Y119.432I0.100J0.000
N25270G3X15.779Y119.532I0.000J0.100
N25280G01Z-2.200F30.0
N25290G3X15.679Y119.632I-0.100J0.000F600.0
N25300G3X15.579Y119.532I0.000J-0.100
N25310G3X15.679Y119.432I0.100J0.000
N25320G3X15.779Y119.532I0.000J0.100
N25330G01Z-2.250F30.0
N25340G3X15.679Y119.632I-0.100J0.000F600.0
N25350G3X15.579Y119.532I0.000J-0.100
N25360G3X15.679Y119.432I0.100J0.000
N25370G3X15.779Y119.532I0.000J0.100
N25380G01Z-2.300F30.0
N25390G3X15.679Y119.632I-0.100J0.000F600.0
N25400G3X15.579Y119.532I0.000J-0.100
N25410G3X15.679Y119.432I0.100J0.000
N25420G3X15.779Y119.532I0.000J0.100
N25430G01Z-2.350F30.0
N25440G3X15.679Y119.632I-0.100J0.000F600.0
N25450G3X15.579Y119.532I0.000J-0.100
N25460G3X15.679Y119.432I0.100J0.000
N25470G3X15.779Y119.532I0.000J0.100
N25480G01Z-2.400F30.0
N25490G3X15.679Y119.632I-0.100J0.000F600.0
N25500G3X15.579Y119.532I0.000J-0.100
N25510G3X15.679Y119.432I0.100J0.000
N25520G3X15.779Y119.532I0.000J0.100
N25530G01Z-2.450F30.0
N25540G3X15.679Y119.632I-0.100J0.000F600.0
N25550G3X15.579Y119.532I0.000J-0.100
N25560G3X15.679Y119.432I0.100J0.000
N25570G3X15.779Y119.532I0.000J0.100
N25580G01Z-2.500F30.0
N25590G3X15.679Y119.632I-0.100J0.000F600.0
N25600G3X15.579Y119.532I0.000J-0.100
N25610G3X15.679Y119.432I0.100J0.000
N25620G3X15.779Y119.532I0.000J0.100
N25630G01Z-2.550F30.0
N25640G3X15.679Y119.632I-0.100J0.000F600.0
N25650G3X15.579Y119.532I0.000J-0.100
N25660G3X15.679Y119.432I0.100J0.000
N25670G3X15.779Y119.532I0.000J0.100
N25680G01Z-2.600F30.0
N25690G3X15.679Y119.632I-0.100J0.000F600.0
N25700G3X15.579Y119.532I0.000J-0.100
N25710G3X15.679Y119.432I0.100J0.000
N25720G3X15.779Y119.532I0.000J0.100
N25730G01Z-2.650F30.0
N25740G3X15.679Y119.632I-0.100J0.000F600.0
N25750G3X15.579Y119.532I0.000J-0.100
N25760G3X15.679Y119.432I0.100J0.000
N25770G3X15.779Y119.532I0.000J0.100
N25780G01Z-2.700F30.0
N25790G3X15.679Y119.632I-0.100J0.000F600.0
N25800G3X15.579Y119.532I0.000J-0.100
N25810G3X15.679Y119.432I0.100J0.000
N25820G3X15.779Y119.532I0.000J0.100
N25830G01Z-2.750F30.0
N25840G3X15.679Y119.632I-0.100J0.000F600.0
N25850G3X15.579Y119.532I0.000J-0.100
N25860G3X15.679Y119.432I0.100J0.000
N25870G3X15.779Y119.532I0.000J0.100
N25880G01Z-2.800F30.0
N25890G3X15.679Y119.632I-0.100J0.000F600.0
N25900G3X15.579Y119.532I0.000J-0.100
N25910G3X15.679Y119.432I0.100J0.000
N25920G3X15.779Y119.532I0.000J0.100
N25930G01Z-2.850F30.0
N25940G3X15.679Y119.632I-0.100J0.000F600.0
N25950G3X15.579Y119.532I0.000J-0.100
N25960G3X15.679Y119.432I0.100J0.000
N25970G3X15.779Y119.532I0.000J0.100
N25980G01Z-2.900F30.0
N25990G3X15.679Y119.632I-0.100J0.000F600.0
N26000G3X15.579Y119.532I0.000J-0.100
N26010G3X15.679Y119.432I0.100J0.000
N26020G3X15.779Y119.532I0.000J0.100
N26030G01Z-2.950F30.0
N26040G3X15.679Y119.632I-0.100J0.000F600.0
N26050G3X15.579Y119.532I0.000J-0.100
N26060G3X15.679Y119.432I0.100J0.000
N26070G3X15.779Y119.532I0.000J0.100
N26080G01Z-3.000F30.0
N26090G3X15.679Y119.632I-0.100J0.000F600.0
N26100G3X15.579Y119.532I0.000J-0.100
N26110G3X15.679Y119.432I0.100J0.000
N26120G3X15.779Y119.532I0.000J0.100
N26130G00Z6.000
N26140G00X14.193Y147.960
N26150G01Z-0.050F30.0
N26160G3X14.093Y148.060I-0.100J0.000F600.0
N26170G3X13.993Y147.960I0.000J-0.100
N26180G3X14.093Y147.860I0.100J0.000
N26190G3X14.193Y147.960I0.000J0.100
N26200G01Z-0.100F30.0
N26210G3X14.093Y148.060I-0.100J0.000F600.0
N26220G3X13.993Y147.960I0.000J-0.100
N26230G3X14.093Y147.860I0.100J0.000
N26240G3X14.193Y147.960I0.000J0.100
N26250G01Z-0.150F30.0
N26260G3X14.093Y148.060I-0.100J0.000F600.0
N26270G3X13.993Y147.960I0.000J-0.100
N26280G3X14.093Y147.860I0.100J0.000
N26290G3X14.193Y147.960I0.000J0.100
N26300G01Z-0.200F30.0
N26310G3X14.093Y148.060I-0.100J0.000F600.0
N26320G3X13.993Y147.960I0.000J-0.100
N26330G3X14.093Y147.860I0.100J0.000
N26340G3X14.193Y147.960I0.000J0.100
N26350G01Z-0.250F30.0
N26360G3X14.093Y148.060I-0.100J0.000F600.0
N26370G3X13.993Y147.960I0.000J-0.100
N26380G3X14.093Y147.860I0.100J0.000
N26390G3X14.193Y147.960I0.000J0.100
N26400G01Z-0.300F30.0
N26410G3X14.093Y148.060I-0.100J0.000F600.0
N26420G3X13.993Y147.960I0.000J-0.100
N26430G3X14.093Y147.860I0.100J0.000
N26440G3X14.193Y147.960I0.000J0.100
N26450G01Z-0.350F30.0
N26460G3X14.093Y148.060I-0.100J0.000F600.0
N26470G3X13.993Y147.960I0.000J-0.100
N26480G3X14.093Y147.860I0.100J0.000
N26490G3X14.193Y147.960I0.000J0.100
N26500G01Z-0.400F30.0
N26510G3X14.093Y148.060I-0.100J0.000F600.0
N26520G3X13.993Y147.960I0.000J-0.100
N26530G3X14.093Y147.860I0.100J0.000
N26540G3X14.193Y147.960I0.000J0.100
N26550G01Z-0.450F30.0
N26560G3X14.093Y148.060I-0.100J0.000F600.0
N26570G3X13.993Y147.960I0.000J-0.100
N26580G3X14.093Y147.860I0.100J0.000
N26590G3X14.193Y147.960I0.000J0.100
N26600G01Z-0.500F30.0
N26610G3X14.093Y148.060I-0.100J0.000F600.0
N26620G3X13.993Y147.960I0.000J-0.100
N26630G3X14.093Y147.860I0.100J0.000
N26640G3X14.193Y147.960I0.000J0.100
N26650G01Z-0.550F30.0
N26660G3X14.093Y148.060I-0.100J0.000F600.0
N26670G3X13.993Y147.960I0.000J-0.100
N26680G3X14.093Y147.860I0.100J0.000
N26690G3X14.193Y147.960I0.000J0.100
N26700G01Z-0.600F30.0
N26710G3X14.093Y148.060I-0.100J0.000F600.0
N26720G3X13.993Y147.960I0.000J-0.100
N26730G3X14.093Y147.860I0.100J0.000
N26740G3X14.193Y147.960I0.000J0.100
N26750G01Z-0.650F30.0
N26760G3X14.093Y148.060I-0.100J0.000F600.0
N26770G3X13.993Y147.960I0.000J-0.100
N26780G3X14.093Y147.860I0.100J0.000
N26790G3X14.193Y147.960I0.000J0.100
N26800G01Z-0.700F30.0
N26810G3X14.093Y148.060I-0.100J0.000F600.0
N26820G3X13.993Y147.960I0.000J-0.100
N26830G3X14.093Y147.860I0.100J0.000
N26840G3X14.193Y147.960I0.000J0.100
N26850G01Z-0.750F30.0
N26860G3X14.093Y148.060I-0.100J0.000F600.0
N26870G3X13.993Y147.960I0.000J-0.100
N26880G3X14.093Y147.860I0.100J0.000
N26890G3X14.193Y147.960I0.000J0.100
N26900G01Z-0.800F30.0
N26910G3X14.093Y148.060I-0.100J0.000F600.0
N26920G3X13.993Y147.960I0.000J-0.100
N26930G3X14.093Y147.860I0.100J0.000
N26940G3X14.193Y147.960I0.000J0.100
N26950G01Z-0.850F30.0
N26960G3X14.093Y148.060I-0.100J0.000F600.0
N26970G3X13.993Y147.960I0.000J-0.100
N26980G3X14.093Y147.860I0.100J0.000
N26990G3X14.193Y147.960I0.000J0.100
N27000G01Z-0.900F30.0
N27010G3X14.093Y148.060I-0.100J0.000F600.0
N27020G3X13.993Y147.960I0.000J-0.100
N27030G3X14.093Y147.860I0.100J0.000
N27040G3X14.193Y147.960I0.000J0.100
N27050G01Z-0.950F30.0
N27060G3X14.093Y148.060I-0.100J0.000F600.0
N27070G3X13.993Y147.960I0.000J-0.100
N27080G3X14.093Y147.860I0.100J0.000
N27090G3X14.193Y147.960I0.000J0.100
N27100G01Z-1.000F30.0
N27110G3X14.093Y148.060I-0.100J0.000F600.0
N27120G3X13.993Y147.960I0.000J-0.100
N27130G3X14.093Y147.860I0.100J0.000
N27140G3X14.193Y147.960I0.000J0.100
N27150G01Z-1.050F30.0
N27160G3X14.093Y148.060I-0.100J0.000F600.0
N27170G3X13.993Y147.960I0.000J-0.100
N27180G3X14.093Y147.860I0.100J0.000
N27190G3X14.193Y147.960I0.000J0.100
N27200G01Z-1.100F30.0
N27210G3X14.093Y148.060I-0.100J0.000F600.0
N27220G3X13.993Y147.960I0.000J-0.100
N27230G3X14.093Y147.860I0.100J0.000
N27240G3X14.193Y147.960I0.000J0.100
N27250G01Z-1.150F30.0
N27260G3X14.093Y148.060I-0.100J0.000F600.0
N27270G3X13.993Y147.960I0.000J-0.100
N27280G3X14.093Y147.860I0.100J0.000
N27290G3X14.193Y147.960I0.000J0.100
N27300G01Z-1.200F30.0
N27310G3X14.093Y148.060I-0.100J0.000F600.0
N27320G3X13.993Y147.960I0.000J-0.100
N27330G3X14.093Y147.860I0.100J0.000
N27340G3X14.193Y147.960I0.000J0.100
N27350G01Z-1.250F30.0
N27360G3X14.093Y148.060I-0.100J0.000F600.0
N27370G3X13.993Y147.960I0.000J-0.100
N27380G3X14.093Y147.860I0.100J0.000
N27390G3X14.193Y147.960I0.000J0.100
N27400G01Z-1.300F30.0
N27410G3X14.093Y148.060I-0.100J0.000F600.0
N27420G3X13.993Y147.960I0.000J-0.100
N27430G3X14.093Y147.860I0.100J0.000
N27440G3X14.193Y147.960I0.000J0.100
N27450G01Z-1.350F30.0
N27460G3X14.093Y148.060I-0.100J0.000F600.0
N27470G3X13.993Y147.960I0.000J-0.100
N27480G3X14.093Y147.860I0.100J0.000
N27490G3X14.193Y147.960I0.000J0.100
N27500G01Z-1.400F30.0
N27510G3X14.093Y148.060I-0.100J0.000F600.0
N27520G3X13.993Y147.960I0.000J-0.100
N27530G3X14.093Y147.860I0.100J0.000
N27540G3X14.193Y147.960I0.000J0.100
N27550G01Z-1.450F30.0
N27560G3X14.093Y148.060I-0.100J0.000F600.0
N27570G3X13.993Y147.960I0.000J-0.100
N27580G3X14.093Y147.860I0.100J0.000
N27590G3X14.193Y147.960I0.000J0.100
N27600G01Z-1.500F30.0
N27610G3X14.093Y148.060I-0.100J0.000F600.0
N27620G3X13.993Y147.960I0.000J-0.100
N27630G3X14.093Y147.860I0.100J0.000
N27640G3X14.193Y147.960I0.000J0.100
N27650G01Z-1.550F30.0
N27660G3X14.093Y148.060I-0.100J0.000F600.0
N27670G3X13.993Y147.960I0.000J-0.100
N27680G3X14.093Y147.860I0.100J0.000
N27690G3X14.193Y147.960I0.000J0.100
N27700G01Z-1.600F30.0
N27710G3X14.093Y148.060I-0.100J0.000F600.0
N27720G3X13.993Y147.960I0.000J-0.100
N27730G3X14.093Y147.860I0.100J0.000
N27740G3X14.193Y147.960I0.000J0.100
N27750G01Z-1.650F30.0
N27760G3X14.093Y148.060I-0.100J0.000F600.0
N27770G3X13.993Y147.960I0.000J-0.100
N27780G3X14.093Y147.860I0.100J0.000
N27790G3X14.193Y147.960I0.000J0.100
N27800G01Z-1.700F30.0
N27810G3X14.093Y148.060I-0.100J0.000F600.0
N27820G3X13.993Y147.960I0.000J-0.100
N27830G3X14.093Y147.860I0.100J0.000
N27840G3X14.193Y147.960I0.000J0.100
N27850G01Z-1.750F30.0
N27860G3X14.093Y148.060I-0.100J0.000F600.0
N27870G3X13.993Y147.960I0.000J-0.100
N27880G3X14.093Y147.860I0.100J0.000
N27890G3X14.193Y147.960I0.000J0.100
N27900G01Z-1.800F30.0
N27910G3X14.093Y148.060I-0.100J0.000F600.0
N27920G3X13.993Y147.960I0.000J-0.100
N27930G3X14.093Y147.860I0.100J0.000
N27940G3X14.193Y147.960I0.000J0.100
N27950G01Z-1.850F30.0
N27960G3X14.093Y148.060I-0.100J0.000F600.0
N27970G3X13.993Y147.960I0.000J-0.100
N27980G3X14.093Y147.860I0.100J0.000
N27990G3X14.193Y147.960I0.000J0.100
N28000G01Z-1.900F30.0
N28010G3X14.093Y148.060I-0.100J0.000F600.0
N28020G3X13.993Y147.960I0.000J-0.100
N28030G3X14.093Y147.860I0.100J0.000
N28040G3X14.193Y147.960I0.000J0.100
N28050G01Z-1.950F30.0
N28060G3X14.093Y148.060I-0.100J0.000F600.0
N28070G3X13.993Y147.960I0.000J-0.100
N28080G3X14.093Y147.860I0.100J0.000
N28090G3X14.193Y147.960I0.000J0.100
N28100G01Z-2.000F30.0
N28110G3X14.093Y148.060I-0.100J0.000F600.0
N28120G3X13.993Y147.960I0.000J-0.100
N28130G3X14.093Y147.860I0.100J0.000
N28140G3X14.193Y147.960I0.000J0.100
N28150G01Z-2.050F30.0
N28160G3X14.093Y148.060I-0.100J0.000F600.0
N28170G3X13.993Y147.960I0.000J-0.100
N28180G3X14.093Y147.860I0.100J0.000
N28190G3X14.193Y147.960I0.000J0.100
N28200G01Z-2.100F30.0
N28210G3X14.093Y148.060I-0.100J0.000F600.0
N28220G3X13.993Y147.960I0.000J-0.100
N28230G3X14.093Y147.860I0.100J0.000
N28240G3X14.193Y147.960I0.000J0.100
N28250G01Z-2.150F30.0
N28260G3X14.093Y148.060I-0.100J0.000F600.0
N28270G3X13.993Y147.960I0.000J-0.100
N28280G3X14.093Y147.860I0.100J0.000
N28290G3X14.193Y147.960I0.000J0.100
N28300G01Z-2.200F30.0
N28310G3X14.093Y148.060I-0.100J0.000F600.0
N28320G3X13.993Y147.960I0.000J-0.100
N28330G3X14.093Y147.860I0.100J0.000
N28340G3X14.193Y147.960I0.000J0.100
N28350G01Z-2.250F30.0
N28360G3X14.093Y148.060I-0.100J0.000F600.0
N28370G3X13.993Y147.960I0.000J-0.100
N28380G3X14.093Y147.860I0.100J0.000
N28390G3X14.193Y147.960I0.000J0.100
N28400G01Z-2.300F30.0
N28410G3X14.093Y148.060I-0.100J0.000F600.0
N28420G3X13.993Y147.960I0.000J-0.100
N28430G3X14.093Y147.860I0.100J0.000
N28440G3X14.193Y147.960I0.000J0.100
N28450G01Z-2.350F30.0
N28460G3X14.093Y148.060I-0.100J0.000F600.0
N28470G3X13.993Y147.960I0.000J-0.100
N28480G3X14.093Y147.860I0.100J0.000
N28490G3X14.193Y147.960I0.000J0.100
N28500G01Z-2.400F30.0
N28510G3X14.093Y148.060I-0.100J0.000F600.0
N28520G3X13.993Y147.960I0.000J-0.100
N28530G3X14.093Y147.860I0.100J0.000
N28540G3X14.193Y147.960I0.000J0.100
N28550G01Z-2.450F30.0
N28560G3X14.093Y148.060I-0.100J0.000F600.0
N28570G3X13.993Y147.960I0.000J-0.100
N28580G3X14.093Y147.860I0.100J0.000
N28590G3X14.193Y147.960I0.000J0.100
N28600G01Z-2.500F30.0
N28610G3X14.093Y148.060I-0.100J0.000F600.0
N28620G3X13.993Y147.960I0.000J-0.100
N28630G3X14.093Y147.860I0.100J0.000
N28640G3X14.193Y147.960I0.000J0.100
N28650G01Z-2.550F30.0
N28660G3X14.093Y148.060I-0.100J0.000F600.0
N28670G3X13.993Y147.960I0.000J-0.100
N28680G3X14.093Y147.860I0.100J0.000
N28690G3X14.193Y147.960I0.000J0.100
N28700G01Z-2.600F30.0
N28710G3X14.093Y148.060I-0.100J0.000F600.0
N28720G3X13.993Y147.960I0.000J-0.100
N28730G3X14.093Y147.860I0.100J0.000
N28740G3X14.193Y147.960I0.000J0.100
N28750G01Z-2.650F30.0
N28760G3X14.093Y148.060I-0.100J0.000F600.0
N28770G3X13.993Y147.960I0.000J-0.100
N28780G3X14.093Y147.860I0.100J0.000
N28790G3X14.193Y147.960I0.000J0.100
N28800G01Z-2.700F30.0
N28810G3X14.093Y148.060I-0.100J0.000F600.0
N28820G3X13.993Y147.960I0.000J-0.100
N28830G3X14.093Y147.860I0.100J0.000
N28840G3X14.193Y147.960I0.000J0.100
N28850G01Z-2.750F30.0
N28860G3X14.093Y148.060I-0.100J0.000F600.0
N28870G3X13.993Y147.960I0.000J-0.100
N28880G3X14.093Y147.860I0.100J0.000
N28890G3X14.193Y147.960I0.000J0.100
N28900G01Z-2.800F30.0
N28910G3X14.093Y148.060I-0.100J0.000F600.0
N28920G3X13.993Y147.960I0.000J-0.100
N28930G3X14.093Y147.860I0.100J0.000
N28940G3X14.193Y147.960I0.000J0.100
N28950G01Z-2.850F30.0
N28960G3X14.093Y148.060I-0.100J0.000F600.0
N28970G3X13.993Y147.960I0.000J-0.100
N28980G3X14.093Y147.860I0.100J0.000
N28990G3X14.193Y147.960I0.000J0.100
N29000G01Z-2.900F30.0
N29010G3X14.093Y148.060I-0.100J0.000F600.0
N29020G3X13.993Y147.960I0.000J-0.100
N29030G3X14.093Y147.860I0.100J0.000
N29040G3X14.193Y147.960I0.000J0.100
N29050G01Z-2.950F30.0
N29060G3X14.093Y148.060I-0.100J0.000F600.0
N29070G3X13.993Y147.960I0.000J-0.100
N29080G3X14.093Y147.860I0.100J0.000
N29090G3X14.193Y147.960I0.000J0.100
N29100G01Z-3.000F30.0
N29110G3X14.093Y148.060I-0.100J0.000F600.0
N29120G3X13.993Y147.960I0.000J-0.100
N29130G3X14.093Y147.860I0.100J0.000
N29140G3X14.193Y147.960I0.000J0.100
N29150G00Z6.000
N29160G00X22.193
N29170G01Z-0.050F30.0
N29180G3X22.093Y148.060I-0.100J0.000F600.0
N29190G3X21.993Y147.960I0.000J-0.100
N29200G3X22.093Y147.860I0.100J0.000
N29210G3X22.193Y147.960I0.000J0.100
N29220G01Z-0.100F30.0
N29230G3X22.093Y148.060I-0.100J0.000F600.0
N29240G3X21.993Y147.960I0.000J-0.100
N29250G3X22.093Y147.860I0.100J0.000
N29260G3X22.193Y147.960I0.000J0.100
N29270G01Z-0.150F30.0
N29280G3X22.093Y148.060I-0.100J0.000F600.0
N29290G3X21.993Y147.960I0.000J-0.100
N29300G3X22.093Y147.860I0.100J0.000
N29310G3X22.193Y147.960I0.000J0.100
N29320G01Z-0.200F30.0
N29330G3X22.093Y148.060I-0.100J0.000F600.0
N29340G3X21.993Y147.960I0.000J-0.100
N29350G3X22.093Y147.860I0.100J0.000
N29360G3X22.193Y147.960I0.000J0.100
N29370G01Z-0.250F30.0
N29380G3X22.093Y148.060I-0.100J0.000F600.0
N29390G3X21.993Y147.960I0.000J-0.100
N29400G3X22.093Y147.860I0.100J0.000
N29410G3X22.193Y147.960I0.000J0.100
N29420G01Z-0.300F30.0
N29430G3X22.093Y148.060I-0.100J0.000F600.0
N29440G3X21.993Y147.960I0.000J-0.100
N29450G3X22.093Y147.860I0.100J0.000
N29460G3X22.193Y147.960I0.000J0.100
N29470G01Z-0.350F30.0
N29480G3X22.093Y148.060I-0.100J0.000F600.0
N29490G3X21.993Y147.960I0.000J-0.100
N29500G3X22.093Y147.860I0.100J0.000
N29510G3X22.193Y147.960I0.000J0.100
N29520G01Z-0.400F30.0
N29530G3X22.093Y148.060I-0.100J0.000F600.0
N29540G3X21.993Y147.960I0.000J-0.100
N29550G3X22.093Y147.860I0.100J0.000
N29560G3X22.193Y147.960I0.000J0.100
N29570G01Z-0.450F30.0
N29580G3X22.093Y148.060I-0.100J0.000F600.0
N29590G3X21.993Y147.960I0.000J-0.100
N29600G3X22.093Y147.860I0.100J0.000
N29610G3X22.193Y147.960I0.000J0.100
N29620G01Z-0.500F30.0
N29630G3X22.093Y148.060I-0.100J0.000F600.0
N29640G3X21.993Y147.960I0.000J-0.100
N29650G3X22.093Y147.860I0.100J0.000
N29660G3X22.193Y147.960I0.000J0.100
N29670G01Z-0.550F30.0
N29680G3X22.093Y148.060I-0.100J0.000F600.0
N29690G3X21.993Y147.960I0.000J-0.100
N29700G3X22.093Y147.860I0.100J0.000
N29710G3X22.193Y147.960I0.000J0.100
N29720G01Z-0.600F30.0
N29730G3X22.093Y148.060I-0.100J0.000F600.0
N29740G3X21.993Y147.960I0.000J-0.100
N29750G3X22.093Y147.860I0.100J0.000
N29760G3X22.193Y147.960I0.000J0.100
N29770G01Z-0.650F30.0
N29780G3X22.093Y148.060I-0.100J0.000F600.0
N29790G3X21.993Y147.960I0.000J-0.100
N29800G3X22.093Y147.860I0.100J0.000
N29810G3X22.193Y147.960I0.000J0.100
N29820G01Z-0.700F30.0
N29830G3X22.093Y148.060I-0.100J0.000F600.0
N29840G3X21.993Y147.960I0.000J-0.100
N29850G3X22.093Y147.860I0.100J0.000
N29860G3X22.193Y147.960I0.000J0.100
N29870G01Z-0.750F30.0
N29880G3X22.093Y148.060I-0.100J0.000F600.0
N29890G3X21.993Y147.960I0.000J-0.100
N29900G3X22.093Y147.860I0.100J0.000
N29910G3X22.193Y147.960I0.000J0.100
N29920G01Z-0.800F30.0
N29930G3X22.093Y148.060I-0.100J0.000F600.0
N29940G3X21.993Y147.960I0.000J-0.100
N29950G3X22.093Y147.860I0.100J0.000
N29960G3X22.193Y147.960I0.000J0.100
N29970G01Z-0.850F30.0
N29980G3X22.093Y148.060I-0.100J0.000F600.0
N29990G3X21.993Y147.960I0.000J-0.100
N30000G3X22.093Y147.860I0.100J0.000
N30010G3X22.193Y147.960I0.000J0.100
N30020G01Z-0.900F30.0
N30030G3X22.093Y148.060I-0.100J0.000F600.0
N30040G3X21.993Y147.960I0.000J-0.100
N30050G3X22.093Y147.860I0.100J0.000
N30060G3X22.193Y147.960I0.000J0.100
N30070G01Z-0.950F30.0
N30080G3X22.093Y148.060I-0.100J0.000F600.0
N30090G3X21.993Y147.960I0.000J-0.100
N30100G3X22.093Y147.860I0.100J0.000
N30110G3X22.193Y147.960I0.000J0.100
N30120G01Z-1.000F30.0
N30130G3X22.093Y148.060I-0.100J0.000F600.0
N30140G3X21.993Y147.960I0.000J-0.100
N30150G3X22.093Y147.860I0.100J0.000
N30160G3X22.193Y147.960I0.000J0.100
N30170G01Z-1.050F30.0
N30180G3X22.093Y148.060I-0.100J0.000F600.0
N30190G3X21.993Y147.960I0.000J-0.100
N30200G3X22.093Y147.860I0.100J0.000
N30210G3X22.193Y147.960I0.000J0.100
N30220G01Z-1.100F30.0
N30230G3X22.093Y148.060I-0.100J0.000F600.0
N30240G3X21.993Y147.960I0.000J-0.100
N30250G3X22.093Y147.860I0.100J0.000
N30260G3X22.193Y147.960I0.000J0.100
N30270G01Z-1.150F30.0
N30280G3X22.093Y148.060I-0.100J0.000F600.0
N30290G3X21.993Y147.960I0.000J-0.100
N30300G3X22.093Y147.860I0.100J0.000
N30310G3X22.193Y147.960I0.000J0.100
N30320G01Z-1.200F30.0
N30330G3X22.093Y148.060I-0.100J0.000F600.0
N30340G3X21.993Y147.960I0.000J-0.100
N30350G3X22.093Y147.860I0.100J0.000
N30360G3X22.193Y147.960I0.000J0.100
N30370G01Z-1.250F30.0
N30380G3X22.093Y148.060I-0.100J0.000F600.0
N30390G3X21.993Y147.960I0.000J-0.100
N30400G3X22.093Y147.860I0.100J0.000
N30410G3X22.193Y147.960I0.000J0.100
N30420G01Z-1.300F30.0
N30430G3X22.093Y148.060I-0.100J0.000F600.0
N30440G3X21.993Y147.960I0.000J-0.100
N30450G3X22.093Y147.860I0.100J0.000
N30460G3X22.193Y147.960I0.000J0.100
N30470G01Z-1.350F30.0
N30480G3X22.093Y148.060I-0.100J0.000F600.0
N30490G3X21.993Y147.960I0.000J-0.100
N30500G3X22.093Y147.860I0.100J0.000
N30510G3X22.193Y147.960I0.000J0.100
N30520G01Z-1.400F30.0
N30530G3X22.093Y148.060I-0.100J0.000F600.0
N30540G3X21.993Y147.960I0.000J-0.100
N30550G3X22.093Y147.860I0.100J0.000
N30560G3X22.193Y147.960I0.000J0.100
N30570G01Z-1.450F30.0
N30580G3X22.093Y148.060I-0.100J0.000F600.0
N30590G3X21.993Y147.960I0.000J-0.100
N30600G3X22.093Y147.860I0.100J0.000
N30610G3X22.193Y147.960I0.000J0.100
N30620G01Z-1.500F30.0
N30630G3X22.093Y148.060I-0.100J0.000F600.0
N30640G3X21.993Y147.960I0.000J-0.100
N30650G3X22.093Y147.860I0.100J0.000
N30660G3X22.193Y147.960I0.000J0.100
N30670G01Z-1.550F30.0
N30680G3X22.093Y148.060I-0.100J0.000F600.0
N30690G3X21.993Y147.960I0.000J-0.100
N30700G3X22.093Y147.860I0.100J0.000
N30710G3X22.193Y147.960I0.000J0.100
N30720G01Z-1.600F30.0
N30730G3X22.093Y148.060I-0.100J0.000F600.0
N30740G3X21.993Y147.960I0.000J-0.100
N30750G3X22.093Y147.860I0.100J0.000
N30760G3X22.193Y147.960I0.000J0.100
N30770G01Z-1.650F30.0
N30780G3X22.093Y148.060I-0.100J0.000F600.0
N30790G3X21.993Y147.960I0.000J-0.100
N30800G3X22.093Y147.860I0.100J0.000
N30810G3X22.193Y147.960I0.000J0.100
N30820G01Z-1.700F30.0
N30830G3X22.093Y148.060I-0.100J0.000F600.0
N30840G3X21.993Y147.960I0.000J-0.100
N30850G3X22.093Y147.860I0.100J0.000
N30860G3X22.193Y147.960I0.000J0.100
N30870G01Z-1.750F30.0
N30880G3X22.093Y148.060I-0.100J0.000F600.0
N30890G3X21.993Y147.960I0.000J-0.100
N30900G3X22.093Y147.860I0.100J0.000
N30910G3X22.193Y147.960I0.000J0.100
N30920G01Z-1.800F30.0
N30930G3X22.093Y148.060I-0.100J0.000F600.0
N30940G3X21.993Y147.960I0.000J-0.100
N30950G3X22.093Y147.860I0.100J0.000
N30960G3X22.193Y147.960I0.000J0.100
N30970G01Z-1.850F30.0
N30980G3X22.093Y148.060I-0.100J0.000F600.0
N30990G3X21.993Y147.960I0.000J-0.100
N31000G3X22.093Y147.860I0.100J0.000
N31010G3X22.193Y147.960I0.000J0.100
N31020G01Z-1.900F30.0
N31030G3X22.093Y148.060I-0.100J0.000F600.0
N31040G3X21.993Y147.960I0.000J-0.100
N31050G3X22.093Y147.860I0.100J0.000
N31060G3X22.193Y147.960I0.000J0.100
N31070G01Z-1.950F30.0
N31080G3X22.093Y148.060I-0.100J0.000F600.0
N31090G3X21.993Y147.960I0.000J-0.100
N31100G3X22.093Y147.860I0.100J0.000
N31110G3X22.193Y147.960I0.000J0.100
N31120G01Z-2.000F30.0
N31130G3X22.093Y148.060I-0.100J0.000F600.0
N31140G3X21.993Y147.960I0.000J-0.100
N31150G3X22.093Y147.860I0.100J0.000
N31160G3X22.193Y147.960I0.000J0.100
N31170G01Z-2.050F30.0
N31180G3X22.093Y148.060I-0.100J0.000F600.0
N31190G3X21.993Y147.960I0.000J-0.100
N31200G3X22.093Y147.860I0.100J0.000
N31210G3X22.193Y147.960I0.000J0.100
N31220G01Z-2.100F30.0
N31230G3X22.093Y148.060I-0.100J0.000F600.0
N31240G3X21.993Y147.960I0.000J-0.100
N31250G3X22.093Y147.860I0.100J0.000
N31260G3X22.193Y147.960I0.000J0.100
N31270G01Z-2.150F30.0
N31280G3X22.093Y148.060I-0.100J0.000F600.0
N31290G3X21.993Y147.960I0.000J-0.100
N31300G3X22.093Y147.860I0.100J0.000
N31310G3X22.193Y147.960I0.000J0.100
N31320G01Z-2.200F30.0
N31330G3X22.093Y148.060I-0.100J0.000F600.0
N31340G3X21.993Y147.960I0.000J-0.100
N31350G3X22.093Y147.860I0.100J0.000
N31360G3X22.193Y147.960I0.000J0.100
N31370G01Z-2.250F30.0
N31380G3X22.093Y148.060I-0.100J0.000F600.0
N31390G3X21.993Y147.960I0.000J-0.100
N31400G3X22.093Y147.860I0.100J0.000
N31410G3X22.193Y147.960I0.000J0.100
N31420G01Z-2.300F30.0
N31430G3X22.093Y148.060I-0.100J0.000F600.0
N31440G3X21.993Y147.960I0.000J-0.100
N31450G3X22.093Y147.860I0.100J0.000
N31460G3X22.193Y147.960I0.000J0.100
N31470G01Z-2.350F30.0
N31480G3X22.093Y148.060I-0.100J0.000F600.0
N31490G3X21.993Y147.960I0.000J-0.100
N31500G3X22.093Y147.860I0.100J0.000
N31510G3X22.193Y147.960I0.000J0.100
N31520G01Z-2.400F30.0
N31530G3X22.093Y148.060I-0.100J0.000F600.0
N31540G3X21.993Y147.960I0.000J-0.100
N31550G3X22.093Y147.860I0.100J0.000
N31560G3X22.193Y147.960I0.000J0.100
N31570G01Z-2.450F30.0
N31580G3X22.093Y148.060I-0.100J0.000F600.0
N31590G3X21.993Y147.960I0.000J-0.100
N31600G3X22.093Y147.860I0.100J0.000
N31610G3X22.193Y147.960I0.000J0.100
N31620G01Z-2.500F30.0
N31630G3X22.093Y148.060I-0.100J0.000F600.0
N31640G3X21.993Y147.960I0.000J-0.100
N31650G3X22.093Y147.860I0.100J0.000
N31660G3X22.193Y147.960I0.000J0.100
N31670G01Z-2.550F30.0
N31680G3X22.093Y148.060I-0.100J0.000F600.0
N31690G3X21.993Y147.960I0.000J-0.100
N31700G3X22.093Y147.860I0.100J0.000
N31710G3X22.193Y147.960I0.000J0.100
N31720G01Z-2.600F30.0
N31730G3X22.093Y148.060I-0.100J0.000F600.0
N31740G3X21.993Y147.960I0.000J-0.100
N31750G3X22.093Y147.860I0.100J0.000
N31760G3X22.193Y147.960I0.000J0.100
N31770G01Z-2.650F30.0
N31780G3X22.093Y148.060I-0.100J0.000F600.0
N31790G3X21.993Y147.960I0.000J-0.100
N31800G3X22.093Y147.860I0.100J0.000
N31810G3X22.193Y147.960I0.000J0.100
N31820G01Z-2.700F30.0
N31830G3X22.093Y148.060I-0.100J0.000F600.0
N31840G3X21.993Y147.960I0.000J-0.100
N31850G3X22.093Y147.860I0.100J0.000
N31860G3X22.193Y147.960I0.000J0.100
N31870G01Z-2.750F30.0
N31880G3X22.093Y148.060I-0.100J0.000F600.0
N31890G3X21.993Y147.960I0.000J-0.100
N31900G3X22.093Y147.860I0.100J0.000
N31910G3X22.193Y147.960I0.000J0.100
N31920G01Z-2.800F30.0
N31930G3X22.093Y148.060I-0.100J0.000F600.0
N31940G3X21.993Y147.960I0.000J-0.100
N31950G3X22.093Y147.860I0.100J0.000
N31960G3X22.193Y147.960I0.000J0.100
N31970G01Z-2.850F30.0
N31980G3X22.093Y148.060I-0.100J0.000F600.0
N31990G3X21.993Y147.960I0.000J-0.100
N32000G3X22.093Y147.860I0.100J0.000
N32010G3X22.193Y147.960I0.000J0.100
N32020G01Z-2.900F30.0
N32030G3X22.093Y148.060I-0.100J0.000F600.0
N32040G3X21.993Y147.960I0.000J-0.100
N32050G3X22.093Y147.860I0.100J0.000
N32060G3X22.193Y147.960I0.000J0.100
N32070G01Z-2.950F30.0
N32080G3X22.093Y148.060I-0.100J0.000F600.0
N32090G3X21.993Y147.960I0.000J-0.100
N32100G3X22.093Y147.860I0.100J0.000
N32110G3X22.193Y147.960I0.000J0.100
N32120G01Z-3.000F30.0
N32130G3X22.093Y148.060I-0.100J0.000F600.0
N32140G3X21.993Y147.960I0.000J-0.100
N32150G3X22.093Y147.860I0.100J0.000
N32160G3X22.193Y147.960I0.000J0.100
N32170G00Z6.000
N32180G00X29.803Y200.460
N32190G01Z-0.050F30.0
N32200G3X27.997Y205.541I-8.050J0.000F600.0
N32210G01X27.669Y205.919
N32220X27.316Y206.278
N32230X26.940Y206.616
N32240X26.543Y206.930
N32250X26.127Y207.218
N32260X25.694Y207.479
N32270X25.248Y207.712
N32280X24.790Y207.915
N32290G3X21.753Y208.510I-3.037J-7.455
N32300G3X13.703Y200.460I0.000J-8.050
N32310G3X16.772Y194.136I8.050J0.000
N32320G01X17.169Y193.843
N32330X17.586Y193.573
N32340X18.019Y193.328
N32350X18.469Y193.111
N32360X18.930Y192.921
N32370X19.402Y192.761
N32380X19.881Y192.631
N32390X20.364Y192.531
N32400G3X21.753Y192.410I1.389J7.929
N32410G3X29.803Y200.460I0.000J8.050
N32420G01Z-0.100F30.0
N32430G3X27.997Y205.541I-8.050J0.000F600.0
N32440G01X27.669Y205.919
N32450X27.316Y206.278
N32460X26.940Y206.616
N32470X26.543Y206.930
N32480X26.127Y207.218
N32490X25.694Y207.479
N32500X25.248Y207.712
N32510X24.790Y207.915
N32520G3X21.753Y208.510I-3.037J-7.455
N32530G3X13.703Y200.460I0.000J-8.050
N32540G3X16.772Y194.136I8.050J0.000
N32550G01X17.169Y193.843
N32560X17.586Y193.573
N32570X18.019Y193.328
N32580X18.469Y193.111
N32590X18.930Y192.921
N32600X19.402Y192.761
N32610X19.881Y192.631
N32620X20.364Y192.531
N32630G3X21.753Y192.410I1.389J7.929
N32640G3X29.803Y200.460I0.000J8.050
N32650G01Z-0.150F30.0
N32660G3X27.997Y205.541I-8.050J0.000F600.0
N32670G01X27.669Y205.919
N32680X27.316Y206.278
N32690X26.940Y206.616
N32700X26.543Y206.930
N32710X26.127Y207.218
N32720X25.694Y207.479
N32730X25.248Y207.712
N32740X24.790Y207.915
N32750G3X21.753Y208.510I-3.037J-7.455
N32760G3X13.703Y200.460I0.000J-8.050
N32770G3X16.772Y194.136I8.050J0.000
N32780G01X17.169Y193.843
N32790X17.586Y193.573
N32800X18.019Y193.328
N32810X18.469Y193.111
N32820X18.930Y192.921
N32830X19.402Y192.761
N32840X19.881Y192.631
N32850X20.364Y192.531
N32860G3X21.753Y192.410I1.389J7.929
N32870G3X29.803Y200.460I0.000J8.050
N32880G01Z-0.200F30.0
N32890G3X27.997Y205.541I-8.050J0.000F600.0
N32900G01X27.669Y205.919
N32910X27.316Y206.278
N32920X26.940Y206.616
N32930X26.543Y206.930
N32940X26.127Y207.218
N32950X25.694Y207.479
N32960X25.248Y207.712
N32970X24.790Y207.915
N32980G3X21.753Y208.510I-3.037J-7.455
N32990G3X13.703Y200.460I0.000J-8.050
N33000G3X16.772Y194.136I8.050J0.000
N33010G01X17.169Y193.843
N33020X17.586Y193.573
N33030X18.019Y193.328
N33040X18.469Y193.111
N33050X18.930Y192.921
N33060X19.402Y192.761
N33070X19.881Y192.631
N33080X20.364Y192.531
N33090G3X21.753Y192.410I1.389J7.929
N33100G3X29.803Y200.460I0.000J8.050
N33110G01Z-0.250F30.0
N33120G3X27.997Y205.541I-8.050J0.000F600.0
N33130G01X27.669Y205.919
N33140X27.316Y206.278
N33150X26.940Y206.616
N33160X26.543Y206.930
N33170X26.127Y207.218
N33180X25.694Y207.479
N33190X25.248Y207.712
N33200X24.790Y207.915
N33210G3X21.753Y208.510I-3.037J-7.455
N33220G3X13.703Y200.460I0.000J-8.050
N33230G3X16.772Y194.136I8.050J0.000
N33240G01X17.169Y193.843
N33250X17.586Y193.573
N33260X18.019Y193.328
N33270X18.469Y193.111
N33280X18.930Y192.921
N33290X19.402Y192.761
N33300X19.881Y192.631
N33310X20.364Y192.531
N33320G3X21.753Y192.410I1.389J7.929
N33330G3X29.803Y200.460I0.000J8.050
N33340G01Z-0.300F30.0
N33350G3X27.997Y205.541I-8.050J0.000F600.0
N33360G01X27.669Y205.919
