( 3mm_inside_3.2mm )
( USBCNC Postprocessor )
N20G00G21G17G90G40G49
N30G80
N40G00G43Z6.001H5
N50S8000M03
N60G94
N70X0.000Y0.000F200.0
N80G00X16.689Y17.860Z6.000
N90G01Z-0.025F30.0
N100G01X16.589Y17.960F200.0
N110X16.489Y17.860
N120X16.589Y17.760
N130X16.689Y17.860
N140G01Z-0.050F30.0
N150G01X16.589Y17.960F200.0
N160X16.489Y17.860
N170X16.589Y17.760
N180X16.689Y17.860
N190G01Z-0.075F30.0
N200G01X16.589Y17.960F200.0
N210X16.489Y17.860
N220X16.589Y17.760
N230X16.689Y17.860
N240G01Z-0.100F30.0
N250G01X16.589Y17.960F200.0
N260X16.489Y17.860
N270X16.589Y17.760
N280X16.689Y17.860
N290G01Z-0.125F30.0
N300G01X16.589Y17.960F200.0
N310X16.489Y17.860
N320X16.589Y17.760
N330X16.689Y17.860
N340G01Z-0.150F30.0
N350G01X16.589Y17.960F200.0
N360X16.489Y17.860
N370X16.589Y17.760
N380X16.689Y17.860
N390G01Z-0.175F30.0
N400G01X16.589Y17.960F200.0
N410X16.489Y17.860
N420X16.589Y17.760
N430X16.689Y17.860
N440G01Z-0.200F30.0
N450G01X16.589Y17.960F200.0
N460X16.489Y17.860
N470X16.589Y17.760
N480X16.689Y17.860
N490G01Z-0.225F30.0
N500G01X16.589Y17.960F200.0
N510X16.489Y17.860
N520X16.589Y17.760
N530X16.689Y17.860
N540G01Z-0.250F30.0
N550G01X16.589Y17.960F200.0
N560X16.489Y17.860
N570X16.589Y17.760
N580X16.689Y17.860
N590G01Z-0.275F30.0
N600G01X16.589Y17.960F200.0
N610X16.489Y17.860
N620X16.589Y17.760
N630X16.689Y17.860
N640G01Z-0.300F30.0
N650G01X16.589Y17.960F200.0
N660X16.489Y17.860
N670X16.589Y17.760
N680X16.689Y17.860
N690G01Z-0.325F30.0
N700G01X16.589Y17.960F200.0
N710X16.489Y17.860
N720X16.589Y17.760
N730X16.689Y17.860
N740G01Z-0.350F30.0
N750G01X16.589Y17.960F200.0
N760X16.489Y17.860
N770X16.589Y17.760
N780X16.689Y17.860
N790G01Z-0.375F30.0
N800G01X16.589Y17.960F200.0
N810X16.489Y17.860
N820X16.589Y17.760
N830X16.689Y17.860
N840G01Z-0.400F30.0
N850G01X16.589Y17.960F200.0
N860X16.489Y17.860
N870X16.589Y17.760
N880X16.689Y17.860
N890G01Z-0.425F30.0
N900G01X16.589Y17.960F200.0
N910X16.489Y17.860
N920X16.589Y17.760
N930X16.689Y17.860
N940G01Z-0.450F30.0
N950G01X16.589Y17.960F200.0
N960X16.489Y17.860
N970X16.589Y17.760
N980X16.689Y17.860
N990G01Z-0.475F30.0
N1000G01X16.589Y17.960F200.0
N1010X16.489Y17.860
N1020X16.589Y17.760
N1030X16.689Y17.860
N1040G01Z-0.500F30.0
N1050G01X16.589Y17.960F200.0
N1060X16.489Y17.860
N1070X16.589Y17.760
N1080X16.689Y17.860
N1090G01Z-0.525F30.0
N1100G01X16.589Y17.960F200.0
N1110X16.489Y17.860
N1120X16.589Y17.760
N1130X16.689Y17.860
N1140G01Z-0.550F30.0
N1150G01X16.589Y17.960F200.0
N1160X16.489Y17.860
N1170X16.589Y17.760
N1180X16.689Y17.860
N1190G01Z-0.575F30.0
N1200G01X16.589Y17.960F200.0
N1210X16.489Y17.860
N1220X16.589Y17.760
N1230X16.689Y17.860
N1240G01Z-0.600F30.0
N1250G01X16.589Y17.960F200.0
N1260X16.489Y17.860
N1270X16.589Y17.760
N1280X16.689Y17.860
N1290G01Z-0.625F30.0
N1300G01X16.589Y17.960F200.0
N1310X16.489Y17.860
N1320X16.589Y17.760
N1330X16.689Y17.860
N1340G01Z-0.650F30.0
N1350G01X16.589Y17.960F200.0
N1360X16.489Y17.860
N1370X16.589Y17.760
N1380X16.689Y17.860
N1390G01Z-0.675F30.0
N1400G01X16.589Y17.960F200.0
N1410X16.489Y17.860
N1420X16.589Y17.760
N1430X16.689Y17.860
N1440G01Z-0.700F30.0
N1450G01X16.589Y17.960F200.0
N1460X16.489Y17.860
N1470X16.589Y17.760
N1480X16.689Y17.860
N1490G01Z-0.725F30.0
N1500G01X16.589Y17.960F200.0
N1510X16.489Y17.860
N1520X16.589Y17.760
N1530X16.689Y17.860
N1540G01Z-0.750F30.0
N1550G01X16.589Y17.960F200.0
N1560X16.489Y17.860
N1570X16.589Y17.760
N1580X16.689Y17.860
N1590G01Z-0.775F30.0
N1600G01X16.589Y17.960F200.0
N1610X16.489Y17.860
N1620X16.589Y17.760
N1630X16.689Y17.860
N1640G01Z-0.800F30.0
N1650G01X16.589Y17.960F200.0
N1660X16.489Y17.860
N1670X16.589Y17.760
N1680X16.689Y17.860
N1690G01Z-0.825F30.0
N1700G01X16.589Y17.960F200.0
N1710X16.489Y17.860
N1720X16.589Y17.760
N1730X16.689Y17.860
N1740G01Z-0.850F30.0
N1750G01X16.589Y17.960F200.0
N1760X16.489Y17.860
N1770X16.589Y17.760
N1780X16.689Y17.860
N1790G01Z-0.875F30.0
N1800G01X16.589Y17.960F200.0
N1810X16.489Y17.860
N1820X16.589Y17.760
N1830X16.689Y17.860
N1840G01Z-0.900F30.0
N1850G01X16.589Y17.960F200.0
N1860X16.489Y17.860
N1870X16.589Y17.760
N1880X16.689Y17.860
N1890G01Z-0.925F30.0
N1900G01X16.589Y17.960F200.0
N1910X16.489Y17.860
N1920X16.589Y17.760
N1930X16.689Y17.860
N1940G01Z-0.950F30.0
N1950G01X16.589Y17.960F200.0
N1960X16.489Y17.860
N1970X16.589Y17.760
N1980X16.689Y17.860
N1990G01Z-0.975F30.0
N2000G01X16.589Y17.960F200.0
N2010X16.489Y17.860
N2020X16.589Y17.760
N2030X16.689Y17.860
N2040G01Z-1.000F30.0
N2050G01X16.589Y17.960F200.0
N2060X16.489Y17.860
N2070X16.589Y17.760
N2080X16.689Y17.860
N2090G01Z-1.025F30.0
N2100G01X16.589Y17.960F200.0
N2110X16.489Y17.860
N2120X16.589Y17.760
N2130X16.689Y17.860
N2140G01Z-1.050F30.0
N2150G01X16.589Y17.960F200.0
N2160X16.489Y17.860
N2170X16.589Y17.760
N2180X16.689Y17.860
N2190G01Z-1.075F30.0
N2200G01X16.589Y17.960F200.0
N2210X16.489Y17.860
N2220X16.589Y17.760
N2230X16.689Y17.860
N2240G01Z-1.100F30.0
N2250G01X16.589Y17.960F200.0
N2260X16.489Y17.860
N2270X16.589Y17.760
N2280X16.689Y17.860
N2290G01Z-1.125F30.0
N2300G01X16.589Y17.960F200.0
N2310X16.489Y17.860
N2320X16.589Y17.760
N2330X16.689Y17.860
N2340G01Z-1.150F30.0
N2350G01X16.589Y17.960F200.0
N2360X16.489Y17.860
N2370X16.589Y17.760
N2380X16.689Y17.860
N2390G01Z-1.175F30.0
N2400G01X16.589Y17.960F200.0
N2410X16.489Y17.860
N2420X16.589Y17.760
N2430X16.689Y17.860
N2440G01Z-1.200F30.0
N2450G01X16.589Y17.960F200.0
N2460X16.489Y17.860
N2470X16.589Y17.760
N2480X16.689Y17.860
N2490G01Z-1.225F30.0
N2500G01X16.589Y17.960F200.0
N2510X16.489Y17.860
N2520X16.589Y17.760
N2530X16.689Y17.860
N2540G01Z-1.250F30.0
N2550G01X16.589Y17.960F200.0
N2560X16.489Y17.860
N2570X16.589Y17.760
N2580X16.689Y17.860
N2590G01Z-1.275F30.0
N2600G01X16.589Y17.960F200.0
N2610X16.489Y17.860
N2620X16.589Y17.760
N2630X16.689Y17.860
N2640G01Z-1.300F30.0
N2650G01X16.589Y17.960F200.0
N2660X16.489Y17.860
N2670X16.589Y17.760
N2680X16.689Y17.860
N2690G01Z-1.325F30.0
N2700G01X16.589Y17.960F200.0
N2710X16.489Y17.860
N2720X16.589Y17.760
N2730X16.689Y17.860
N2740G01Z-1.350F30.0
N2750G01X16.589Y17.960F200.0
N2760X16.489Y17.860
N2770X16.589Y17.760
N2780X16.689Y17.860
N2790G01Z-1.375F30.0
N2800G01X16.589Y17.960F200.0
N2810X16.489Y17.860
N2820X16.589Y17.760
N2830X16.689Y17.860
N2840G01Z-1.400F30.0
N2850G01X16.589Y17.960F200.0
N2860X16.489Y17.860
N2870X16.589Y17.760
N2880X16.689Y17.860
N2890G01Z-1.425F30.0
N2900G01X16.589Y17.960F200.0
N2910X16.489Y17.860
N2920X16.589Y17.760
N2930X16.689Y17.860
N2940G01Z-1.450F30.0
N2950G01X16.589Y17.960F200.0
N2960X16.489Y17.860
N2970X16.589Y17.760
N2980X16.689Y17.860
N2990G01Z-1.475F30.0
N3000G01X16.589Y17.960F200.0
N3010X16.489Y17.860
N3020X16.589Y17.760
N3030X16.689Y17.860
N3040G01Z-1.500F30.0
N3050G01X16.589Y17.960F200.0
N3060X16.489Y17.860
N3070X16.589Y17.760
N3080X16.689Y17.860
N3090G01Z-1.525F30.0
N3100G01X16.589Y17.960F200.0
N3110X16.489Y17.860
N3120X16.589Y17.760
N3130X16.689Y17.860
N3140G01Z-1.550F30.0
N3150G01X16.589Y17.960F200.0
N3160X16.489Y17.860
N3170X16.589Y17.760
N3180X16.689Y17.860
N3190G01Z-1.575F30.0
N3200G01X16.589Y17.960F200.0
N3210X16.489Y17.860
N3220X16.589Y17.760
N3230X16.689Y17.860
N3240G01Z-1.600F30.0
N3250G01X16.589Y17.960F200.0
N3260X16.489Y17.860
N3270X16.589Y17.760
N3280X16.689Y17.860
N3290G01Z-1.625F30.0
N3300G01X16.589Y17.960F200.0
N3310X16.489Y17.860
N3320X16.589Y17.760
N3330X16.689Y17.860
N3340G01Z-1.650F30.0
N3350G01X16.589Y17.960F200.0
N3360X16.489Y17.860
N3370X16.589Y17.760
N3380X16.689Y17.860
N3390G01Z-1.675F30.0
N3400G01X16.589Y17.960F200.0
N3410X16.489Y17.860
N3420X16.589Y17.760
N3430X16.689Y17.860
N3440G01Z-1.700F30.0
N3450G01X16.589Y17.960F200.0
N3460X16.489Y17.860
N3470X16.589Y17.760
N3480X16.689Y17.860
N3490G01Z-1.725F30.0
N3500G01X16.589Y17.960F200.0
N3510X16.489Y17.860
N3520X16.589Y17.760
N3530X16.689Y17.860
N3540G01Z-1.750F30.0
N3550G01X16.589Y17.960F200.0
N3560X16.489Y17.860
N3570X16.589Y17.760
N3580X16.689Y17.860
N3590G01Z-1.775F30.0
N3600G01X16.589Y17.960F200.0
N3610X16.489Y17.860
N3620X16.589Y17.760
N3630X16.689Y17.860
N3640G01Z-1.800F30.0
N3650G01X16.589Y17.960F200.0
N3660X16.489Y17.860
N3670X16.589Y17.760
N3680X16.689Y17.860
N3690G01Z-1.825F30.0
N3700G01X16.589Y17.960F200.0
N3710X16.489Y17.860
N3720X16.589Y17.760
N3730X16.689Y17.860
N3740G01Z-1.850F30.0
N3750G01X16.589Y17.960F200.0
N3760X16.489Y17.860
N3770X16.589Y17.760
N3780X16.689Y17.860
N3790G01Z-1.875F30.0
N3800G01X16.589Y17.960F200.0
N3810X16.489Y17.860
N3820X16.589Y17.760
N3830X16.689Y17.860
N3840G01Z-1.900F30.0
N3850G01X16.589Y17.960F200.0
N3860X16.489Y17.860
N3870X16.589Y17.760
N3880X16.689Y17.860
N3890G01Z-1.925F30.0
N3900G01X16.589Y17.960F200.0
N3910X16.489Y17.860
N3920X16.589Y17.760
N3930X16.689Y17.860
N3940G01Z-1.950F30.0
N3950G01X16.589Y17.960F200.0
N3960X16.489Y17.860
N3970X16.589Y17.760
N3980X16.689Y17.860
N3990G01Z-1.975F30.0
N4000G01X16.589Y17.960F200.0
N4010X16.489Y17.860
N4020X16.589Y17.760
N4030X16.689Y17.860
N4040G01Z-2.000F30.0
N4050G01X16.589Y17.960F200.0
N4060X16.489Y17.860
N4070X16.589Y17.760
N4080X16.689Y17.860
N4090G01Z-2.025F30.0
N4100G01X16.589Y17.960F200.0
N4110X16.489Y17.860
N4120X16.589Y17.760
N4130X16.689Y17.860
N4140G01Z-2.050F30.0
N4150G01X16.589Y17.960F200.0
N4160X16.489Y17.860
N4170X16.589Y17.760
N4180X16.689Y17.860
N4190G01Z-2.075F30.0
N4200G01X16.589Y17.960F200.0
N4210X16.489Y17.860
N4220X16.589Y17.760
N4230X16.689Y17.860
N4240G01Z-2.100F30.0
N4250G01X16.589Y17.960F200.0
N4260X16.489Y17.860
N4270X16.589Y17.760
N4280X16.689Y17.860
N4290G01Z-2.125F30.0
N4300G01X16.589Y17.960F200.0
N4310X16.489Y17.860
N4320X16.589Y17.760
N4330X16.689Y17.860
N4340G01Z-2.150F30.0
N4350G01X16.589Y17.960F200.0
N4360X16.489Y17.860
N4370X16.589Y17.760
N4380X16.689Y17.860
N4390G01Z-2.175F30.0
N4400G01X16.589Y17.960F200.0
N4410X16.489Y17.860
N4420X16.589Y17.760
N4430X16.689Y17.860
N4440G01Z-2.200F30.0
N4450G01X16.589Y17.960F200.0
N4460X16.489Y17.860
N4470X16.589Y17.760
N4480X16.689Y17.860
N4490G01Z-2.225F30.0
N4500G01X16.589Y17.960F200.0
N4510X16.489Y17.860
N4520X16.589Y17.760
N4530X16.689Y17.860
N4540G01Z-2.250F30.0
N4550G01X16.589Y17.960F200.0
N4560X16.489Y17.860
N4570X16.589Y17.760
N4580X16.689Y17.860
N4590G01Z-2.275F30.0
N4600G01X16.589Y17.960F200.0
N4610X16.489Y17.860
N4620X16.589Y17.760
N4630X16.689Y17.860
N4640G01Z-2.300F30.0
N4650G01X16.589Y17.960F200.0
N4660X16.489Y17.860
N4670X16.589Y17.760
N4680X16.689Y17.860
N4690G01Z-2.325F30.0
N4700G01X16.589Y17.960F200.0
N4710X16.489Y17.860
N4720X16.589Y17.760
N4730X16.689Y17.860
N4740G01Z-2.350F30.0
N4750G01X16.589Y17.960F200.0
N4760X16.489Y17.860
N4770X16.589Y17.760
N4780X16.689Y17.860
N4790G01Z-2.375F30.0
N4800G01X16.589Y17.960F200.0
N4810X16.489Y17.860
N4820X16.589Y17.760
N4830X16.689Y17.860
N4840G01Z-2.400F30.0
N4850G01X16.589Y17.960F200.0
N4860X16.489Y17.860
N4870X16.589Y17.760
N4880X16.689Y17.860
N4890G01Z-2.425F30.0
N4900G01X16.589Y17.960F200.0
N4910X16.489Y17.860
N4920X16.589Y17.760
N4930X16.689Y17.860
N4940G01Z-2.450F30.0
N4950G01X16.589Y17.960F200.0
N4960X16.489Y17.860
N4970X16.589Y17.760
N4980X16.689Y17.860
N4990G01Z-2.475F30.0
N5000G01X16.589Y17.960F200.0
N5010X16.489Y17.860
N5020X16.589Y17.760
N5030X16.689Y17.860
N5040G01Z-2.500F30.0
N5050G01X16.589Y17.960F200.0
N5060X16.489Y17.860
N5070X16.589Y17.760
N5080X16.689Y17.860
N5090G01Z-2.525F30.0
N5100G01X16.589Y17.960F200.0
N5110X16.489Y17.860
N5120X16.589Y17.760
N5130X16.689Y17.860
N5140G01Z-2.550F30.0
N5150G01X16.589Y17.960F200.0
N5160X16.489Y17.860
N5170X16.589Y17.760
N5180X16.689Y17.860
N5190G01Z-2.575F30.0
N5200G01X16.589Y17.960F200.0
N5210X16.489Y17.860
N5220X16.589Y17.760
N5230X16.689Y17.860
N5240G01Z-2.600F30.0
N5250G01X16.589Y17.960F200.0
N5260X16.489Y17.860
N5270X16.589Y17.760
N5280X16.689Y17.860
N5290G01Z-2.625F30.0
N5300G01X16.589Y17.960F200.0
N5310X16.489Y17.860
N5320X16.589Y17.760
N5330X16.689Y17.860
N5340G01Z-2.650F30.0
N5350G01X16.589Y17.960F200.0
N5360X16.489Y17.860
N5370X16.589Y17.760
N5380X16.689Y17.860
N5390G01Z-2.675F30.0
N5400G01X16.589Y17.960F200.0
N5410X16.489Y17.860
N5420X16.589Y17.760
N5430X16.689Y17.860
N5440G01Z-2.700F30.0
N5450G01X16.589Y17.960F200.0
N5460X16.489Y17.860
N5470X16.589Y17.760
N5480X16.689Y17.860
N5490G01Z-2.725F30.0
N5500G01X16.589Y17.960F200.0
N5510X16.489Y17.860
N5520X16.589Y17.760
N5530X16.689Y17.860
N5540G01Z-2.750F30.0
N5550G01X16.589Y17.960F200.0
N5560X16.489Y17.860
N5570X16.589Y17.760
N5580X16.689Y17.860
N5590G01Z-2.775F30.0
N5600G01X16.589Y17.960F200.0
N5610X16.489Y17.860
N5620X16.589Y17.760
N5630X16.689Y17.860
N5640G01Z-2.800F30.0
N5650G01X16.589Y17.960F200.0
N5660X16.489Y17.860
N5670X16.589Y17.760
N5680X16.689Y17.860
N5690G01Z-2.825F30.0
N5700G01X16.589Y17.960F200.0
N5710X16.489Y17.860
N5720X16.589Y17.760
N5730X16.689Y17.860
N5740G01Z-2.850F30.0
N5750G01X16.589Y17.960F200.0
N5760X16.489Y17.860
N5770X16.589Y17.760
N5780X16.689Y17.860
N5790G01Z-2.875F30.0
N5800G01X16.589Y17.960F200.0
N5810X16.489Y17.860
N5820X16.589Y17.760
N5830X16.689Y17.860
N5840G01Z-2.900F30.0
N5850G01X16.589Y17.960F200.0
N5860X16.489Y17.860
N5870X16.589Y17.760
N5880X16.689Y17.860
N5890G01Z-2.925F30.0
N5900G01X16.589Y17.960F200.0
N5910X16.489Y17.860
N5920X16.589Y17.760
N5930X16.689Y17.860
N5940G01Z-2.950F30.0
N5950G01X16.589Y17.960F200.0
N5960X16.489Y17.860
N5970X16.589Y17.760
N5980X16.689Y17.860
N5990G01Z-2.975F30.0
N6000G01X16.589Y17.960F200.0
N6010X16.489Y17.860
N6020X16.589Y17.760
N6030X16.689Y17.860
N6040G01Z-3.000F30.0
N6050G01X16.589Y17.960F200.0
N6060X16.489Y17.860
N6070X16.589Y17.760
N6080X16.689Y17.860
N6090G00Z6.000
N6100G00X24.689
N6110G01Z-0.025F30.0
N6120G01X24.589Y17.960F200.0
N6130X24.489Y17.860
N6140X24.589Y17.760
N6150X24.689Y17.860
N6160G01Z-0.050F30.0
N6170G01X24.589Y17.960F200.0
N6180X24.489Y17.860
N6190X24.589Y17.760
N6200X24.689Y17.860
N6210G01Z-0.075F30.0
N6220G01X24.589Y17.960F200.0
N6230X24.489Y17.860
N6240X24.589Y17.760
N6250X24.689Y17.860
N6260G01Z-0.100F30.0
N6270G01X24.589Y17.960F200.0
N6280X24.489Y17.860
N6290X24.589Y17.760
N6300X24.689Y17.860
N6310G01Z-0.125F30.0
N6320G01X24.589Y17.960F200.0
N6330X24.489Y17.860
N6340X24.589Y17.760
N6350X24.689Y17.860
N6360G01Z-0.150F30.0
N6370G01X24.589Y17.960F200.0
N6380X24.489Y17.860
N6390X24.589Y17.760
N6400X24.689Y17.860
N6410G01Z-0.175F30.0
N6420G01X24.589Y17.960F200.0
N6430X24.489Y17.860
N6440X24.589Y17.760
N6450X24.689Y17.860
N6460G01Z-0.200F30.0
N6470G01X24.589Y17.960F200.0
N6480X24.489Y17.860
N6490X24.589Y17.760
N6500X24.689Y17.860
N6510G01Z-0.225F30.0
N6520G01X24.589Y17.960F200.0
N6530X24.489Y17.860
N6540X24.589Y17.760
N6550X24.689Y17.860
N6560G01Z-0.250F30.0
N6570G01X24.589Y17.960F200.0
N6580X24.489Y17.860
N6590X24.589Y17.760
N6600X24.689Y17.860
N6610G01Z-0.275F30.0
N6620G01X24.589Y17.960F200.0
N6630X24.489Y17.860
N6640X24.589Y17.760
N6650X24.689Y17.860
N6660G01Z-0.300F30.0
N6670G01X24.589Y17.960F200.0
N6680X24.489Y17.860
N6690X24.589Y17.760
N6700X24.689Y17.860
N6710G01Z-0.325F30.0
N6720G01X24.589Y17.960F200.0
N6730X24.489Y17.860
N6740X24.589Y17.760
N6750X24.689Y17.860
N6760G01Z-0.350F30.0
N6770G01X24.589Y17.960F200.0
N6780X24.489Y17.860
N6790X24.589Y17.760
N6800X24.689Y17.860
N6810G01Z-0.375F30.0
N6820G01X24.589Y17.960F200.0
N6830X24.489Y17.860
N6840X24.589Y17.760
N6850X24.689Y17.860
N6860G01Z-0.400F30.0
N6870G01X24.589Y17.960F200.0
N6880X24.489Y17.860
N6890X24.589Y17.760
N6900X24.689Y17.860
N6910G01Z-0.425F30.0
N6920G01X24.589Y17.960F200.0
N6930X24.489Y17.860
N6940X24.589Y17.760
N6950X24.689Y17.860
N6960G01Z-0.450F30.0
N6970G01X24.589Y17.960F200.0
N6980X24.489Y17.860
N6990X24.589Y17.760
N7000X24.689Y17.860
N7010G01Z-0.475F30.0
N7020G01X24.589Y17.960F200.0
N7030X24.489Y17.860
N7040X24.589Y17.760
N7050X24.689Y17.860
N7060G01Z-0.500F30.0
N7070G01X24.589Y17.960F200.0
N7080X24.489Y17.860
N7090X24.589Y17.760
N7100X24.689Y17.860
N7110G01Z-0.525F30.0
N7120G01X24.589Y17.960F200.0
N7130X24.489Y17.860
N7140X24.589Y17.760
N7150X24.689Y17.860
N7160G01Z-0.550F30.0
N7170G01X24.589Y17.960F200.0
N7180X24.489Y17.860
N7190X24.589Y17.760
N7200X24.689Y17.860
N7210G01Z-0.575F30.0
N7220G01X24.589Y17.960F200.0
N7230X24.489Y17.860
N7240X24.589Y17.760
N7250X24.689Y17.860
N7260G01Z-0.600F30.0
N7270G01X24.589Y17.960F200.0
N7280X24.489Y17.860
N7290X24.589Y17.760
N7300X24.689Y17.860
N7310G01Z-0.625F30.0
N7320G01X24.589Y17.960F200.0
N7330X24.489Y17.860
N7340X24.589Y17.760
N7350X24.689Y17.860
N7360G01Z-0.650F30.0
N7370G01X24.589Y17.960F200.0
N7380X24.489Y17.860
N7390X24.589Y17.760
N7400X24.689Y17.860
N7410G01Z-0.675F30.0
N7420G01X24.589Y17.960F200.0
N7430X24.489Y17.860
N7440X24.589Y17.760
N7450X24.689Y17.860
N7460G01Z-0.700F30.0
N7470G01X24.589Y17.960F200.0
N7480X24.489Y17.860
N7490X24.589Y17.760
N7500X24.689Y17.860
N7510G01Z-0.725F30.0
N7520G01X24.589Y17.960F200.0
N7530X24.489Y17.860
N7540X24.589Y17.760
N7550X24.689Y17.860
N7560G01Z-0.750F30.0
N7570G01X24.589Y17.960F200.0
N7580X24.489Y17.860
N7590X24.589Y17.760
N7600X24.689Y17.860
N7610G01Z-0.775F30.0
N7620G01X24.589Y17.960F200.0
N7630X24.489Y17.860
N7640X24.589Y17.760
N7650X24.689Y17.860
N7660G01Z-0.800F30.0
N7670G01X24.589Y17.960F200.0
N7680X24.489Y17.860
N7690X24.589Y17.760
N7700X24.689Y17.860
N7710G01Z-0.825F30.0
N7720G01X24.589Y17.960F200.0
N7730X24.489Y17.860
N7740X24.589Y17.760
N7750X24.689Y17.860
N7760G01Z-0.850F30.0
N7770G01X24.589Y17.960F200.0
N7780X24.489Y17.860
N7790X24.589Y17.760
N7800X24.689Y17.860
N7810G01Z-0.875F30.0
N7820G01X24.589Y17.960F200.0
N7830X24.489Y17.860
N7840X24.589Y17.760
N7850X24.689Y17.860
N7860G01Z-0.900F30.0
N7870G01X24.589Y17.960F200.0
N7880X24.489Y17.860
N7890X24.589Y17.760
N7900X24.689Y17.860
N7910G01Z-0.925F30.0
N7920G01X24.589Y17.960F200.0
N7930X24.489Y17.860
N7940X24.589Y17.760
N7950X24.689Y17.860
N7960G01Z-0.950F30.0
N7970G01X24.589Y17.960F200.0
N7980X24.489Y17.860
N7990X24.589Y17.760
N8000X24.689Y17.860
N8010G01Z-0.975F30.0
N8020G01X24.589Y17.960F200.0
N8030X24.489Y17.860
N8040X24.589Y17.760
N8050X24.689Y17.860
N8060G01Z-1.000F30.0
N8070G01X24.589Y17.960F200.0
N8080X24.489Y17.860
N8090X24.589Y17.760
N8100X24.689Y17.860
N8110G01Z-1.025F30.0
N8120G01X24.589Y17.960F200.0
N8130X24.489Y17.860
N8140X24.589Y17.760
N8150X24.689Y17.860
N8160G01Z-1.050F30.0
N8170G01X24.589Y17.960F200.0
N8180X24.489Y17.860
N8190X24.589Y17.760
N8200X24.689Y17.860
N8210G01Z-1.075F30.0
N8220G01X24.589Y17.960F200.0
N8230X24.489Y17.860
N8240X24.589Y17.760
N8250X24.689Y17.860
N8260G01Z-1.100F30.0
N8270G01X24.589Y17.960F200.0
N8280X24.489Y17.860
N8290X24.589Y17.760
N8300X24.689Y17.860
N8310G01Z-1.125F30.0
N8320G01X24.589Y17.960F200.0
N8330X24.489Y17.860
N8340X24.589Y17.760
N8350X24.689Y17.860
N8360G01Z-1.150F30.0
N8370G01X24.589Y17.960F200.0
N8380X24.489Y17.860
N8390X24.589Y17.760
N8400X24.689Y17.860
N8410G01Z-1.175F30.0
N8420G01X24.589Y17.960F200.0
N8430X24.489Y17.860
N8440X24.589Y17.760
N8450X24.689Y17.860
N8460G01Z-1.200F30.0
N8470G01X24.589Y17.960F200.0
N8480X24.489Y17.860
N8490X24.589Y17.760
N8500X24.689Y17.860
N8510G01Z-1.225F30.0
N8520G01X24.589Y17.960F200.0
N8530X24.489Y17.860
N8540X24.589Y17.760
N8550X24.689Y17.860
N8560G01Z-1.250F30.0
N8570G01X24.589Y17.960F200.0
N8580X24.489Y17.860
N8590X24.589Y17.760
N8600X24.689Y17.860
N8610G01Z-1.275F30.0
N8620G01X24.589Y17.960F200.0
N8630X24.489Y17.860
N8640X24.589Y17.760
N8650X24.689Y17.860
N8660G01Z-1.300F30.0
N8670G01X24.589Y17.960F200.0
N8680X24.489Y17.860
N8690X24.589Y17.760
N8700X24.689Y17.860
N8710G01Z-1.325F30.0
N8720G01X24.589Y17.960F200.0
N8730X24.489Y17.860
N8740X24.589Y17.760
N8750X24.689Y17.860
N8760G01Z-1.350F30.0
N8770G01X24.589Y17.960F200.0
N8780X24.489Y17.860
N8790X24.589Y17.760
N8800X24.689Y17.860
N8810G01Z-1.375F30.0
N8820G01X24.589Y17.960F200.0
N8830X24.489Y17.860
N8840X24.589Y17.760
N8850X24.689Y17.860
N8860G01Z-1.400F30.0
N8870G01X24.589Y17.960F200.0
N8880X24.489Y17.860
N8890X24.589Y17.760
N8900X24.689Y17.860
N8910G01Z-1.425F30.0
N8920G01X24.589Y17.960F200.0
N8930X24.489Y17.860
N8940X24.589Y17.760
N8950X24.689Y17.860
N8960G01Z-1.450F30.0
N8970G01X24.589Y17.960F200.0
N8980X24.489Y17.860
N8990X24.589Y17.760
N9000X24.689Y17.860
N9010G01Z-1.475F30.0
N9020G01X24.589Y17.960F200.0
N9030X24.489Y17.860
N9040X24.589Y17.760
N9050X24.689Y17.860
N9060G01Z-1.500F30.0
N9070G01X24.589Y17.960F200.0
N9080X24.489Y17.860
N9090X24.589Y17.760
N9100X24.689Y17.860
N9110G01Z-1.525F30.0
N9120G01X24.589Y17.960F200.0
N9130X24.489Y17.860
N9140X24.589Y17.760
N9150X24.689Y17.860
N9160G01Z-1.550F30.0
N9170G01X24.589Y17.960F200.0
N9180X24.489Y17.860
N9190X24.589Y17.760
N9200X24.689Y17.860
N9210G01Z-1.575F30.0
N9220G01X24.589Y17.960F200.0
N9230X24.489Y17.860
N9240X24.589Y17.760
N9250X24.689Y17.860
N9260G01Z-1.600F30.0
N9270G01X24.589Y17.960F200.0
N9280X24.489Y17.860
N9290X24.589Y17.760
N9300X24.689Y17.860
N9310G01Z-1.625F30.0
N9320G01X24.589Y17.960F200.0
N9330X24.489Y17.860
N9340X24.589Y17.760
N9350X24.689Y17.860
N9360G01Z-1.650F30.0
N9370G01X24.589Y17.960F200.0
N9380X24.489Y17.860
N9390X24.589Y17.760
N9400X24.689Y17.860
N9410G01Z-1.675F30.0
N9420G01X24.589Y17.960F200.0
N9430X24.489Y17.860
N9440X24.589Y17.760
N9450X24.689Y17.860
N9460G01Z-1.700F30.0
N9470G01X24.589Y17.960F200.0
N9480X24.489Y17.860
N9490X24.589Y17.760
N9500X24.689Y17.860
N9510G01Z-1.725F30.0
N9520G01X24.589Y17.960F200.0
N9530X24.489Y17.860
N9540X24.589Y17.760
N9550X24.689Y17.860
N9560G01Z-1.750F30.0
N9570G01X24.589Y17.960F200.0
N9580X24.489Y17.860
N9590X24.589Y17.760
N9600X24.689Y17.860
N9610G01Z-1.775F30.0
N9620G01X24.589Y17.960F200.0
N9630X24.489Y17.860
N9640X24.589Y17.760
N9650X24.689Y17.860
N9660G01Z-1.800F30.0
N9670G01X24.589Y17.960F200.0
N9680X24.489Y17.860
N9690X24.589Y17.760
N9700X24.689Y17.860
N9710G01Z-1.825F30.0
N9720G01X24.589Y17.960F200.0
N9730X24.489Y17.860
N9740X24.589Y17.760
N9750X24.689Y17.860
N9760G01Z-1.850F30.0
N9770G01X24.589Y17.960F200.0
N9780X24.489Y17.860
N9790X24.589Y17.760
N9800X24.689Y17.860
N9810G01Z-1.875F30.0
N9820G01X24.589Y17.960F200.0
N9830X24.489Y17.860
N9840X24.589Y17.760
N9850X24.689Y17.860
N9860G01Z-1.900F30.0
N9870G01X24.589Y17.960F200.0
N9880X24.489Y17.860
N9890X24.589Y17.760
N9900X24.689Y17.860
N9910G01Z-1.925F30.0
N9920G01X24.589Y17.960F200.0
N9930X24.489Y17.860
N9940X24.589Y17.760
N9950X24.689Y17.860
N9960G01Z-1.950F30.0
N9970G01X24.589Y17.960F200.0
N9980X24.489Y17.860
N9990X24.589Y17.760
N10000X24.689Y17.860
N10010G01Z-1.975F30.0
N10020G01X24.589Y17.960F200.0
N10030X24.489Y17.860
N10040X24.589Y17.760
N10050X24.689Y17.860
N10060G01Z-2.000F30.0
N10070G01X24.589Y17.960F200.0
N10080X24.489Y17.860
N10090X24.589Y17.760
N10100X24.689Y17.860
N10110G01Z-2.025F30.0
N10120G01X24.589Y17.960F200.0
N10130X24.489Y17.860
N10140X24.589Y17.760
N10150X24.689Y17.860
N10160G01Z-2.050F30.0
N10170G01X24.589Y17.960F200.0
N10180X24.489Y17.860
N10190X24.589Y17.760
N10200X24.689Y17.860
N10210G01Z-2.075F30.0
N10220G01X24.589Y17.960F200.0
N10230X24.489Y17.860
N10240X24.589Y17.760
N10250X24.689Y17.860
N10260G01Z-2.100F30.0
N10270G01X24.589Y17.960F200.0
N10280X24.489Y17.860
N10290X24.589Y17.760
N10300X24.689Y17.860
N10310G01Z-2.125F30.0
N10320G01X24.589Y17.960F200.0
N10330X24.489Y17.860
N10340X24.589Y17.760
N10350X24.689Y17.860
N10360G01Z-2.150F30.0
N10370G01X24.589Y17.960F200.0
N10380X24.489Y17.860
N10390X24.589Y17.760
N10400X24.689Y17.860
N10410G01Z-2.175F30.0
N10420G01X24.589Y17.960F200.0
N10430X24.489Y17.860
N10440X24.589Y17.760
N10450X24.689Y17.860
N10460G01Z-2.200F30.0
N10470G01X24.589Y17.960F200.0
N10480X24.489Y17.860
N10490X24.589Y17.760
N10500X24.689Y17.860
N10510G01Z-2.225F30.0
N10520G01X24.589Y17.960F200.0
N10530X24.489Y17.860
N10540X24.589Y17.760
N10550X24.689Y17.860
N10560G01Z-2.250F30.0
N10570G01X24.589Y17.960F200.0
N10580X24.489Y17.860
N10590X24.589Y17.760
N10600X24.689Y17.860
N10610G01Z-2.275F30.0
N10620G01X24.589Y17.960F200.0
N10630X24.489Y17.860
N10640X24.589Y17.760
N10650X24.689Y17.860
N10660G01Z-2.300F30.0
N10670G01X24.589Y17.960F200.0
N10680X24.489Y17.860
N10690X24.589Y17.760
N10700X24.689Y17.860
N10710G01Z-2.325F30.0
N10720G01X24.589Y17.960F200.0
N10730X24.489Y17.860
N10740X24.589Y17.760
N10750X24.689Y17.860
N10760G01Z-2.350F30.0
N10770G01X24.589Y17.960F200.0
N10780X24.489Y17.860
N10790X24.589Y17.760
N10800X24.689Y17.860
N10810G01Z-2.375F30.0
N10820G01X24.589Y17.960F200.0
N10830X24.489Y17.860
N10840X24.589Y17.760
N10850X24.689Y17.860
N10860G01Z-2.400F30.0
N10870G01X24.589Y17.960F200.0
N10880X24.489Y17.860
N10890X24.589Y17.760
N10900X24.689Y17.860
N10910G01Z-2.425F30.0
N10920G01X24.589Y17.960F200.0
N10930X24.489Y17.860
N10940X24.589Y17.760
N10950X24.689Y17.860
N10960G01Z-2.450F30.0
N10970G01X24.589Y17.960F200.0
N10980X24.489Y17.860
N10990X24.589Y17.760
N11000X24.689Y17.860
N11010G01Z-2.475F30.0
N11020G01X24.589Y17.960F200.0
N11030X24.489Y17.860
N11040X24.589Y17.760
N11050X24.689Y17.860
N11060G01Z-2.500F30.0
N11070G01X24.589Y17.960F200.0
N11080X24.489Y17.860
N11090X24.589Y17.760
N11100X24.689Y17.860
N11110G01Z-2.525F30.0
N11120G01X24.589Y17.960F200.0
N11130X24.489Y17.860
N11140X24.589Y17.760
N11150X24.689Y17.860
N11160G01Z-2.550F30.0
N11170G01X24.589Y17.960F200.0
N11180X24.489Y17.860
N11190X24.589Y17.760
N11200X24.689Y17.860
N11210G01Z-2.575F30.0
N11220G01X24.589Y17.960F200.0
N11230X24.489Y17.860
N11240X24.589Y17.760
N11250X24.689Y17.860
N11260G01Z-2.600F30.0
N11270G01X24.589Y17.960F200.0
N11280X24.489Y17.860
N11290X24.589Y17.760
N11300X24.689Y17.860
N11310G01Z-2.625F30.0
N11320G01X24.589Y17.960F200.0
N11330X24.489Y17.860
N11340X24.589Y17.760
N11350X24.689Y17.860
N11360G01Z-2.650F30.0
N11370G01X24.589Y17.960F200.0
N11380X24.489Y17.860
N11390X24.589Y17.760
N11400X24.689Y17.860
N11410G01Z-2.675F30.0
N11420G01X24.589Y17.960F200.0
N11430X24.489Y17.860
N11440X24.589Y17.760
N11450X24.689Y17.860
N11460G01Z-2.700F30.0
N11470G01X24.589Y17.960F200.0
N11480X24.489Y17.860
N11490X24.589Y17.760
N11500X24.689Y17.860
N11510G01Z-2.725F30.0
N11520G01X24.589Y17.960F200.0
N11530X24.489Y17.860
N11540X24.589Y17.760
N11550X24.689Y17.860
N11560G01Z-2.750F30.0
N11570G01X24.589Y17.960F200.0
N11580X24.489Y17.860
N11590X24.589Y17.760
N11600X24.689Y17.860
N11610G01Z-2.775F30.0
N11620G01X24.589Y17.960F200.0
N11630X24.489Y17.860
N11640X24.589Y17.760
N11650X24.689Y17.860
N11660G01Z-2.800F30.0
N11670G01X24.589Y17.960F200.0
N11680X24.489Y17.860
N11690X24.589Y17.760
N11700X24.689Y17.860
N11710G01Z-2.825F30.0
N11720G01X24.589Y17.960F200.0
N11730X24.489Y17.860
N11740X24.589Y17.760
N11750X24.689Y17.860
N11760G01Z-2.850F30.0
N11770G01X24.589Y17.960F200.0
N11780X24.489Y17.860
N11790X24.589Y17.760
N11800X24.689Y17.860
N11810G01Z-2.875F30.0
N11820G01X24.589Y17.960F200.0
N11830X24.489Y17.860
N11840X24.589Y17.760
N11850X24.689Y17.860
N11860G01Z-2.900F30.0
N11870G01X24.589Y17.960F200.0
N11880X24.489Y17.860
N11890X24.589Y17.760
N11900X24.689Y17.860
N11910G01Z-2.925F30.0
N11920G01X24.589Y17.960F200.0
N11930X24.489Y17.860
N11940X24.589Y17.760
N11950X24.689Y17.860
N11960G01Z-2.950F30.0
N11970G01X24.589Y17.960F200.0
N11980X24.489Y17.860
N11990X24.589Y17.760
N12000X24.689Y17.860
N12010G01Z-2.975F30.0
N12020G01X24.589Y17.960F200.0
N12030X24.489Y17.860
N12040X24.589Y17.760
N12050X24.689Y17.860
N12060G01Z-3.000F30.0
N12070G01X24.589Y17.960F200.0
N12080X24.489Y17.860
N12090X24.589Y17.760
N12100X24.689Y17.860
N12110G00Z6.000
N12120G00X89.618Y15.360
N12130G01Z-0.025F30.0
N12140G01X89.518Y15.460F200.0
N12150X89.418Y15.360
N12160X89.518Y15.260
N12170X89.618Y15.360
N12180G01Z-0.050F30.0
N12190G01X89.518Y15.460F200.0
N12200X89.418Y15.360
N12210X89.518Y15.260
N12220X89.618Y15.360
N12230G01Z-0.075F30.0
N12240G01X89.518Y15.460F200.0
N12250X89.418Y15.360
N12260X89.518Y15.260
N12270X89.618Y15.360
N12280G01Z-0.100F30.0
N12290G01X89.518Y15.460F200.0
N12300X89.418Y15.360
N12310X89.518Y15.260
N12320X89.618Y15.360
N12330G01Z-0.125F30.0
N12340G01X89.518Y15.460F200.0
N12350X89.418Y15.360
N12360X89.518Y15.260
N12370X89.618Y15.360
N12380G01Z-0.150F30.0
N12390G01X89.518Y15.460F200.0
N12400X89.418Y15.360
N12410X89.518Y15.260
N12420X89.618Y15.360
N12430G01Z-0.175F30.0
N12440G01X89.518Y15.460F200.0
N12450X89.418Y15.360
N12460X89.518Y15.260
N12470X89.618Y15.360
N12480G01Z-0.200F30.0
N12490G01X89.518Y15.460F200.0
N12500X89.418Y15.360
N12510X89.518Y15.260
N12520X89.618Y15.360
N12530G01Z-0.225F30.0
N12540G01X89.518Y15.460F200.0
N12550X89.418Y15.360
N12560X89.518Y15.260
N12570X89.618Y15.360
N12580G01Z-0.250F30.0
N12590G01X89.518Y15.460F200.0
N12600X89.418Y15.360
N12610X89.518Y15.260
N12620X89.618Y15.360
N12630G01Z-0.275F30.0
N12640G01X89.518Y15.460F200.0
N12650X89.418Y15.360
N12660X89.518Y15.260
N12670X89.618Y15.360
N12680G01Z-0.300F30.0
N12690G01X89.518Y15.460F200.0
N12700X89.418Y15.360
N12710X89.518Y15.260
N12720X89.618Y15.360
N12730G01Z-0.325F30.0
N12740G01X89.518Y15.460F200.0
N12750X89.418Y15.360
N12760X89.518Y15.260
N12770X89.618Y15.360
N12780G01Z-0.350F30.0
N12790G01X89.518Y15.460F200.0
N12800X89.418Y15.360
N12810X89.518Y15.260
N12820X89.618Y15.360
N12830G01Z-0.375F30.0
N12840G01X89.518Y15.460F200.0
N12850X89.418Y15.360
N12860X89.518Y15.260
N12870X89.618Y15.360
N12880G01Z-0.400F30.0
N12890G01X89.518Y15.460F200.0
N12900X89.418Y15.360
N12910X89.518Y15.260
N12920X89.618Y15.360
N12930G01Z-0.425F30.0
N12940G01X89.518Y15.460F200.0
N12950X89.418Y15.360
N12960X89.518Y15.260
N12970X89.618Y15.360
N12980G01Z-0.450F30.0
N12990G01X89.518Y15.460F200.0
N13000X89.418Y15.360
N13010X89.518Y15.260
N13020X89.618Y15.360
N13030G01Z-0.475F30.0
N13040G01X89.518Y15.460F200.0
N13050X89.418Y15.360
N13060X89.518Y15.260
N13070X89.618Y15.360
N13080G01Z-0.500F30.0
N13090G01X89.518Y15.460F200.0
N13100X89.418Y15.360
N13110X89.518Y15.260
N13120X89.618Y15.360
N13130G01Z-0.525F30.0
N13140G01X89.518Y15.460F200.0
N13150X89.418Y15.360
N13160X89.518Y15.260
N13170X89.618Y15.360
N13180G01Z-0.550F30.0
N13190G01X89.518Y15.460F200.0
N13200X89.418Y15.360
N13210X89.518Y15.260
N13220X89.618Y15.360
N13230G01Z-0.575F30.0
N13240G01X89.518Y15.460F200.0
N13250X89.418Y15.360
N13260X89.518Y15.260
N13270X89.618Y15.360
N13280G01Z-0.600F30.0
N13290G01X89.518Y15.460F200.0
N13300X89.418Y15.360
N13310X89.518Y15.260
N13320X89.618Y15.360
N13330G01Z-0.625F30.0
N13340G01X89.518Y15.460F200.0
N13350X89.418Y15.360
N13360X89.518Y15.260
N13370X89.618Y15.360
N13380G01Z-0.650F30.0
N13390G01X89.518Y15.460F200.0
N13400X89.418Y15.360
N13410X89.518Y15.260
N13420X89.618Y15.360
N13430G01Z-0.675F30.0
N13440G01X89.518Y15.460F200.0
N13450X89.418Y15.360
N13460X89.518Y15.260
N13470X89.618Y15.360
N13480G01Z-0.700F30.0
N13490G01X89.518Y15.460F200.0
N13500X89.418Y15.360
N13510X89.518Y15.260
N13520X89.618Y15.360
N13530G01Z-0.725F30.0
N13540G01X89.518Y15.460F200.0
N13550X89.418Y15.360
N13560X89.518Y15.260
N13570X89.618Y15.360
N13580G01Z-0.750F30.0
N13590G01X89.518Y15.460F200.0
N13600X89.418Y15.360
N13610X89.518Y15.260
N13620X89.618Y15.360
N13630G01Z-0.775F30.0
N13640G01X89.518Y15.460F200.0
N13650X89.418Y15.360
N13660X89.518Y15.260
N13670X89.618Y15.360
N13680G01Z-0.800F30.0
N13690G01X89.518Y15.460F200.0
N13700X89.418Y15.360
N13710X89.518Y15.260
N13720X89.618Y15.360
N13730G01Z-0.825F30.0
N13740G01X89.518Y15.460F200.0
N13750X89.418Y15.360
N13760X89.518Y15.260
N13770X89.618Y15.360
N13780G01Z-0.850F30.0
N13790G01X89.518Y15.460F200.0
N13800X89.418Y15.360
N13810X89.518Y15.260
N13820X89.618Y15.360
N13830G01Z-0.875F30.0
N13840G01X89.518Y15.460F200.0
N13850X89.418Y15.360
N13860X89.518Y15.260
N13870X89.618Y15.360
N13880G01Z-0.900F30.0
N13890G01X89.518Y15.460F200.0
N13900X89.418Y15.360
N13910X89.518Y15.260
N13920X89.618Y15.360
N13930G01Z-0.925F30.0
N13940G01X89.518Y15.460F200.0
N13950X89.418Y15.360
N13960X89.518Y15.260
N13970X89.618Y15.360
N13980G01Z-0.950F30.0
N13990G01X89.518Y15.460F200.0
N14000X89.418Y15.360
N14010X89.518Y15.260
N14020X89.618Y15.360
N14030G01Z-0.975F30.0
N14040G01X89.518Y15.460F200.0
N14050X89.418Y15.360
N14060X89.518Y15.260
N14070X89.618Y15.360
N14080G01Z-1.000F30.0
N14090G01X89.518Y15.460F200.0
N14100X89.418Y15.360
N14110X89.518Y15.260
N14120X89.618Y15.360
N14130G01Z-1.025F30.0
N14140G01X89.518Y15.460F200.0
N14150X89.418Y15.360
N14160X89.518Y15.260
N14170X89.618Y15.360
N14180G01Z-1.050F30.0
N14190G01X89.518Y15.460F200.0
N14200X89.418Y15.360
N14210X89.518Y15.260
N14220X89.618Y15.360
N14230G01Z-1.075F30.0
N14240G01X89.518Y15.460F200.0
N14250X89.418Y15.360
N14260X89.518Y15.260
N14270X89.618Y15.360
N14280G01Z-1.100F30.0
N14290G01X89.518Y15.460F200.0
N14300X89.418Y15.360
N14310X89.518Y15.260
N14320X89.618Y15.360
N14330G01Z-1.125F30.0
N14340G01X89.518Y15.460F200.0
N14350X89.418Y15.360
N14360X89.518Y15.260
N14370X89.618Y15.360
N14380G01Z-1.150F30.0
N14390G01X89.518Y15.460F200.0
N14400X89.418Y15.360
N14410X89.518Y15.260
N14420X89.618Y15.360
N14430G01Z-1.175F30.0
N14440G01X89.518Y15.460F200.0
N14450X89.418Y15.360
N14460X89.518Y15.260
N14470X89.618Y15.360
N14480G01Z-1.200F30.0
N14490G01X89.518Y15.460F200.0
N14500X89.418Y15.360
N14510X89.518Y15.260
N14520X89.618Y15.360
N14530G01Z-1.225F30.0
N14540G01X89.518Y15.460F200.0
N14550X89.418Y15.360
N14560X89.518Y15.260
N14570X89.618Y15.360
N14580G01Z-1.250F30.0
N14590G01X89.518Y15.460F200.0
N14600X89.418Y15.360
N14610X89.518Y15.260
N14620X89.618Y15.360
N14630G01Z-1.275F30.0
N14640G01X89.518Y15.460F200.0
N14650X89.418Y15.360
N14660X89.518Y15.260
N14670X89.618Y15.360
N14680G01Z-1.300F30.0
N14690G01X89.518Y15.460F200.0
N14700X89.418Y15.360
N14710X89.518Y15.260
N14720X89.618Y15.360
N14730G01Z-1.325F30.0
N14740G01X89.518Y15.460F200.0
N14750X89.418Y15.360
N14760X89.518Y15.260
N14770X89.618Y15.360
N14780G01Z-1.350F30.0
N14790G01X89.518Y15.460F200.0
N14800X89.418Y15.360
N14810X89.518Y15.260
N14820X89.618Y15.360
N14830G01Z-1.375F30.0
N14840G01X89.518Y15.460F200.0
N14850X89.418Y15.360
N14860X89.518Y15.260
N14870X89.618Y15.360
N14880G01Z-1.400F30.0
N14890G01X89.518Y15.460F200.0
N14900X89.418Y15.360
N14910X89.518Y15.260
N14920X89.618Y15.360
N14930G01Z-1.425F30.0
N14940G01X89.518Y15.460F200.0
N14950X89.418Y15.360
N14960X89.518Y15.260
N14970X89.618Y15.360
N14980G01Z-1.450F30.0
N14990G01X89.518Y15.460F200.0
N15000X89.418Y15.360
N15010X89.518Y15.260
N15020X89.618Y15.360
N15030G01Z-1.475F30.0
N15040G01X89.518Y15.460F200.0
N15050X89.418Y15.360
N15060X89.518Y15.260
N15070X89.618Y15.360
N15080G01Z-1.500F30.0
N15090G01X89.518Y15.460F200.0
N15100X89.418Y15.360
N15110X89.518Y15.260
N15120X89.618Y15.360
N15130G01Z-1.525F30.0
N15140G01X89.518Y15.460F200.0
N15150X89.418Y15.360
N15160X89.518Y15.260
N15170X89.618Y15.360
N15180G01Z-1.550F30.0
N15190G01X89.518Y15.460F200.0
N15200X89.418Y15.360
N15210X89.518Y15.260
N15220X89.618Y15.360
N15230G01Z-1.575F30.0
N15240G01X89.518Y15.460F200.0
N15250X89.418Y15.360
N15260X89.518Y15.260
N15270X89.618Y15.360
N15280G01Z-1.600F30.0
N15290G01X89.518Y15.460F200.0
N15300X89.418Y15.360
N15310X89.518Y15.260
N15320X89.618Y15.360
N15330G01Z-1.625F30.0
N15340G01X89.518Y15.460F200.0
N15350X89.418Y15.360
N15360X89.518Y15.260
N15370X89.618Y15.360
N15380G01Z-1.650F30.0
N15390G01X89.518Y15.460F200.0
N15400X89.418Y15.360
N15410X89.518Y15.260
N15420X89.618Y15.360
N15430G01Z-1.675F30.0
N15440G01X89.518Y15.460F200.0
N15450X89.418Y15.360
N15460X89.518Y15.260
N15470X89.618Y15.360
N15480G01Z-1.700F30.0
N15490G01X89.518Y15.460F200.0
N15500X89.418Y15.360
N15510X89.518Y15.260
N15520X89.618Y15.360
N15530G01Z-1.725F30.0
N15540G01X89.518Y15.460F200.0
N15550X89.418Y15.360
N15560X89.518Y15.260
N15570X89.618Y15.360
N15580G01Z-1.750F30.0
N15590G01X89.518Y15.460F200.0
N15600X89.418Y15.360
N15610X89.518Y15.260
N15620X89.618Y15.360
N15630G01Z-1.775F30.0
N15640G01X89.518Y15.460F200.0
N15650X89.418Y15.360
N15660X89.518Y15.260
N15670X89.618Y15.360
N15680G01Z-1.800F30.0
N15690G01X89.518Y15.460F200.0
N15700X89.418Y15.360
N15710X89.518Y15.260
N15720X89.618Y15.360
N15730G01Z-1.825F30.0
N15740G01X89.518Y15.460F200.0
N15750X89.418Y15.360
N15760X89.518Y15.260
N15770X89.618Y15.360
N15780G01Z-1.850F30.0
N15790G01X89.518Y15.460F200.0
N15800X89.418Y15.360
N15810X89.518Y15.260
N15820X89.618Y15.360
N15830G01Z-1.875F30.0
N15840G01X89.518Y15.460F200.0
N15850X89.418Y15.360
N15860X89.518Y15.260
N15870X89.618Y15.360
N15880G01Z-1.900F30.0
N15890G01X89.518Y15.460F200.0
N15900X89.418Y15.360
N15910X89.518Y15.260
N15920X89.618Y15.360
N15930G01Z-1.925F30.0
N15940G01X89.518Y15.460F200.0
N15950X89.418Y15.360
N15960X89.518Y15.260
N15970X89.618Y15.360
N15980G01Z-1.950F30.0
N15990G01X89.518Y15.460F200.0
N16000X89.418Y15.360
N16010X89.518Y15.260
N16020X89.618Y15.360
N16030G01Z-1.975F30.0
N16040G01X89.518Y15.460F200.0
N16050X89.418Y15.360
N16060X89.518Y15.260
N16070X89.618Y15.360
N16080G01Z-2.000F30.0
N16090G01X89.518Y15.460F200.0
N16100X89.418Y15.360
N16110X89.518Y15.260
N16120X89.618Y15.360
N16130G01Z-2.025F30.0
N16140G01X89.518Y15.460F200.0
N16150X89.418Y15.360
N16160X89.518Y15.260
N16170X89.618Y15.360
N16180G01Z-2.050F30.0
N16190G01X89.518Y15.460F200.0
N16200X89.418Y15.360
N16210X89.518Y15.260
N16220X89.618Y15.360
N16230G01Z-2.075F30.0
N16240G01X89.518Y15.460F200.0
N16250X89.418Y15.360
N16260X89.518Y15.260
N16270X89.618Y15.360
N16280G01Z-2.100F30.0
N16290G01X89.518Y15.460F200.0
N16300X89.418Y15.360
N16310X89.518Y15.260
N16320X89.618Y15.360
N16330G01Z-2.125F30.0
N16340G01X89.518Y15.460F200.0
N16350X89.418Y15.360
N16360X89.518Y15.260
N16370X89.618Y15.360
N16380G01Z-2.150F30.0
N16390G01X89.518Y15.460F200.0
N16400X89.418Y15.360
N16410X89.518Y15.260
N16420X89.618Y15.360
N16430G01Z-2.175F30.0
N16440G01X89.518Y15.460F200.0
N16450X89.418Y15.360
N16460X89.518Y15.260
N16470X89.618Y15.360
N16480G01Z-2.200F30.0
N16490G01X89.518Y15.460F200.0
N16500X89.418Y15.360
N16510X89.518Y15.260
N16520X89.618Y15.360
N16530G01Z-2.225F30.0
N16540G01X89.518Y15.460F200.0
N16550X89.418Y15.360
N16560X89.518Y15.260
N16570X89.618Y15.360
N16580G01Z-2.250F30.0
N16590G01X89.518Y15.460F200.0
N16600X89.418Y15.360
N16610X89.518Y15.260
N16620X89.618Y15.360
N16630G01Z-2.275F30.0
N16640G01X89.518Y15.460F200.0
N16650X89.418Y15.360
N16660X89.518Y15.260
N16670X89.618Y15.360
N16680G01Z-2.300F30.0
N16690G01X89.518Y15.460F200.0
N16700X89.418Y15.360
N16710X89.518Y15.260
N16720X89.618Y15.360
N16730G01Z-2.325F30.0
N16740G01X89.518Y15.460F200.0
N16750X89.418Y15.360
N16760X89.518Y15.260
N16770X89.618Y15.360
N16780G01Z-2.350F30.0
N16790G01X89.518Y15.460F200.0
N16800X89.418Y15.360
N16810X89.518Y15.260
N16820X89.618Y15.360
N16830G01Z-2.375F30.0
N16840G01X89.518Y15.460F200.0
N16850X89.418Y15.360
N16860X89.518Y15.260
N16870X89.618Y15.360
N16880G01Z-2.400F30.0
N16890G01X89.518Y15.460F200.0
N16900X89.418Y15.360
N16910X89.518Y15.260
N16920X89.618Y15.360
N16930G01Z-2.425F30.0
N16940G01X89.518Y15.460F200.0
N16950X89.418Y15.360
N16960X89.518Y15.260
N16970X89.618Y15.360
N16980G01Z-2.450F30.0
N16990G01X89.518Y15.460F200.0
N17000X89.418Y15.360
N17010X89.518Y15.260
N17020X89.618Y15.360
N17030G01Z-2.475F30.0
N17040G01X89.518Y15.460F200.0
N17050X89.418Y15.360
N17060X89.518Y15.260
N17070X89.618Y15.360
N17080G01Z-2.500F30.0
N17090G01X89.518Y15.460F200.0
N17100X89.418Y15.360
N17110X89.518Y15.260
N17120X89.618Y15.360
N17130G01Z-2.525F30.0
N17140G01X89.518Y15.460F200.0
N17150X89.418Y15.360
N17160X89.518Y15.260
N17170X89.618Y15.360
N17180G01Z-2.550F30.0
N17190G01X89.518Y15.460F200.0
N17200X89.418Y15.360
N17210X89.518Y15.260
N17220X89.618Y15.360
N17230G01Z-2.575F30.0
N17240G01X89.518Y15.460F200.0
N17250X89.418Y15.360
N17260X89.518Y15.260
N17270X89.618Y15.360
N17280G01Z-2.600F30.0
N17290G01X89.518Y15.460F200.0
N17300X89.418Y15.360
N17310X89.518Y15.260
N17320X89.618Y15.360
N17330G01Z-2.625F30.0
N17340G01X89.518Y15.460F200.0
N17350X89.418Y15.360
N17360X89.518Y15.260
N17370X89.618Y15.360
N17380G01Z-2.650F30.0
N17390G01X89.518Y15.460F200.0
N17400X89.418Y15.360
N17410X89.518Y15.260
N17420X89.618Y15.360
N17430G01Z-2.675F30.0
N17440G01X89.518Y15.460F200.0
N17450X89.418Y15.360
N17460X89.518Y15.260
N17470X89.618Y15.360
N17480G01Z-2.700F30.0
N17490G01X89.518Y15.460F200.0
N17500X89.418Y15.360
N17510X89.518Y15.260
N17520X89.618Y15.360
N17530G01Z-2.725F30.0
N17540G01X89.518Y15.460F200.0
N17550X89.418Y15.360
N17560X89.518Y15.260
N17570X89.618Y15.360
N17580G01Z-2.750F30.0
N17590G01X89.518Y15.460F200.0
N17600X89.418Y15.360
N17610X89.518Y15.260
N17620X89.618Y15.360
N17630G01Z-2.775F30.0
N17640G01X89.518Y15.460F200.0
N17650X89.418Y15.360
N17660X89.518Y15.260
N17670X89.618Y15.360
N17680G01Z-2.800F30.0
N17690G01X89.518Y15.460F200.0
N17700X89.418Y15.360
N17710X89.518Y15.260
N17720X89.618Y15.360
N17730G01Z-2.825F30.0
N17740G01X89.518Y15.460F200.0
N17750X89.418Y15.360
N17760X89.518Y15.260
N17770X89.618Y15.360
N17780G01Z-2.850F30.0
N17790G01X89.518Y15.460F200.0
N17800X89.418Y15.360
N17810X89.518Y15.260
N17820X89.618Y15.360
N17830G01Z-2.875F30.0
N17840G01X89.518Y15.460F200.0
N17850X89.418Y15.360
N17860X89.518Y15.260
N17870X89.618Y15.360
N17880G01Z-2.900F30.0
N17890G01X89.518Y15.460F200.0
N17900X89.418Y15.360
N17910X89.518Y15.260
N17920X89.618Y15.360
N17930G01Z-2.925F30.0
N17940G01X89.518Y15.460F200.0
N17950X89.418Y15.360
N17960X89.518Y15.260
N17970X89.618Y15.360
N17980G01Z-2.950F30.0
N17990G01X89.518Y15.460F200.0
N18000X89.418Y15.360
N18010X89.518Y15.260
N18020X89.618Y15.360
N18030G01Z-2.975F30.0
N18040G01X89.518Y15.460F200.0
N18050X89.418Y15.360
N18060X89.518Y15.260
N18070X89.618Y15.360
N18080G01Z-3.000F30.0
N18090G01X89.518Y15.460F200.0
N18100X89.418Y15.360
N18110X89.518Y15.260
N18120X89.618Y15.360
N18130G00Z6.000
N18140G00X131.618Y70.360
N18150G01Z-0.025F30.0
N18160G01X131.518Y70.460F200.0
N18170X131.418Y70.360
N18180X131.518Y70.260
N18190X131.618Y70.360
N18200G01Z-0.050F30.0
N18210G01X131.518Y70.460F200.0
N18220X131.418Y70.360
N18230X131.518Y70.260
N18240X131.618Y70.360
N18250G01Z-0.075F30.0
N18260G01X131.518Y70.460F200.0
N18270X131.418Y70.360
N18280X131.518Y70.260
N18290X131.618Y70.360
N18300G01Z-0.100F30.0
N18310G01X131.518Y70.460F200.0
N18320X131.418Y70.360
N18330X131.518Y70.260
N18340X131.618Y70.360
N18350G01Z-0.125F30.0
N18360G01X131.518Y70.460F200.0
N18370X131.418Y70.360
N18380X131.518Y70.260
N18390X131.618Y70.360
N18400G01Z-0.150F30.0
N18410G01X131.518Y70.460F200.0
N18420X131.418Y70.360
N18430X131.518Y70.260
N18440X131.618Y70.360
N18450G01Z-0.175F30.0
N18460G01X131.518Y70.460F200.0
N18470X131.418Y70.360
N18480X131.518Y70.260
N18490X131.618Y70.360
N18500G01Z-0.200F30.0
N18510G01X131.518Y70.460F200.0
N18520X131.418Y70.360
N18530X131.518Y70.260
N18540X131.618Y70.360
N18550G01Z-0.225F30.0
N18560G01X131.518Y70.460F200.0
N18570X131.418Y70.360
N18580X131.518Y70.260
N18590X131.618Y70.360
N18600G01Z-0.250F30.0
N18610G01X131.518Y70.460F200.0
N18620X131.418Y70.360
N18630X131.518Y70.260
N18640X131.618Y70.360
N18650G01Z-0.275F30.0
N18660G01X131.518Y70.460F200.0
N18670X131.418Y70.360
N18680X131.518Y70.260
N18690X131.618Y70.360
N18700G01Z-0.300F30.0
N18710G01X131.518Y70.460F200.0
N18720X131.418Y70.360
N18730X131.518Y70.260
N18740X131.618Y70.360
N18750G01Z-0.325F30.0
N18760G01X131.518Y70.460F200.0
N18770X131.418Y70.360
N18780X131.518Y70.260
N18790X131.618Y70.360
N18800G01Z-0.350F30.0
N18810G01X131.518Y70.460F200.0
N18820X131.418Y70.360
N18830X131.518Y70.260
N18840X131.618Y70.360
N18850G01Z-0.375F30.0
N18860G01X131.518Y70.460F200.0
N18870X131.418Y70.360
N18880X131.518Y70.260
N18890X131.618Y70.360
N18900G01Z-0.400F30.0
N18910G01X131.518Y70.460F200.0
N18920X131.418Y70.360
N18930X131.518Y70.260
N18940X131.618Y70.360
N18950G01Z-0.425F30.0
N18960G01X131.518Y70.460F200.0
N18970X131.418Y70.360
N18980X131.518Y70.260
N18990X131.618Y70.360
N19000G01Z-0.450F30.0
N19010G01X131.518Y70.460F200.0
N19020X131.418Y70.360
N19030X131.518Y70.260
N19040X131.618Y70.360
N19050G01Z-0.475F30.0
N19060G01X131.518Y70.460F200.0
N19070X131.418Y70.360
N19080X131.518Y70.260
N19090X131.618Y70.360
N19100G01Z-0.500F30.0
N19110G01X131.518Y70.460F200.0
N19120X131.418Y70.360
N19130X131.518Y70.260
N19140X131.618Y70.360
N19150G01Z-0.525F30.0
N19160G01X131.518Y70.460F200.0
N19170X131.418Y70.360
N19180X131.518Y70.260
N19190X131.618Y70.360
N19200G01Z-0.550F30.0
N19210G01X131.518Y70.460F200.0
N19220X131.418Y70.360
N19230X131.518Y70.260
N19240X131.618Y70.360
N19250G01Z-0.575F30.0
N19260G01X131.518Y70.460F200.0
N19270X131.418Y70.360
N19280X131.518Y70.260
N19290X131.618Y70.360
N19300G01Z-0.600F30.0
N19310G01X131.518Y70.460F200.0
N19320X131.418Y70.360
N19330X131.518Y70.260
N19340X131.618Y70.360
N19350G01Z-0.625F30.0
N19360G01X131.518Y70.460F200.0
N19370X131.418Y70.360
N19380X131.518Y70.260
N19390X131.618Y70.360
N19400G01Z-0.650F30.0
N19410G01X131.518Y70.460F200.0
N19420X131.418Y70.360
N19430X131.518Y70.260
N19440X131.618Y70.360
N19450G01Z-0.675F30.0
N19460G01X131.518Y70.460F200.0
N19470X131.418Y70.360
N19480X131.518Y70.260
N19490X131.618Y70.360
N19500G01Z-0.700F30.0
N19510G01X131.518Y70.460F200.0
N19520X131.418Y70.360
N19530X131.518Y70.260
N19540X131.618Y70.360
N19550G01Z-0.725F30.0
N19560G01X131.518Y70.460F200.0
N19570X131.418Y70.360
N19580X131.518Y70.260
N19590X131.618Y70.360
N19600G01Z-0.750F30.0
N19610G01X131.518Y70.460F200.0
N19620X131.418Y70.360
N19630X131.518Y70.260
N19640X131.618Y70.360
N19650G01Z-0.775F30.0
N19660G01X131.518Y70.460F200.0
N19670X131.418Y70.360
N19680X131.518Y70.260
N19690X131.618Y70.360
N19700G01Z-0.800F30.0
N19710G01X131.518Y70.460F200.0
N19720X131.418Y70.360
N19730X131.518Y70.260
N19740X131.618Y70.360
N19750G01Z-0.825F30.0
N19760G01X131.518Y70.460F200.0
N19770X131.418Y70.360
N19780X131.518Y70.260
N19790X131.618Y70.360
N19800G01Z-0.850F30.0
N19810G01X131.518Y70.460F200.0
N19820X131.418Y70.360
N19830X131.518Y70.260
N19840X131.618Y70.360
N19850G01Z-0.875F30.0
N19860G01X131.518Y70.460F200.0
N19870X131.418Y70.360
N19880X131.518Y70.260
N19890X131.618Y70.360
N19900G01Z-0.900F30.0
N19910G01X131.518Y70.460F200.0
N19920X131.418Y70.360
N19930X131.518Y70.260
N19940X131.618Y70.360
N19950G01Z-0.925F30.0
N19960G01X131.518Y70.460F200.0
N19970X131.418Y70.360
N19980X131.518Y70.260
N19990X131.618Y70.360
N20000G01Z-0.950F30.0
N20010G01X131.518Y70.460F200.0
N20020X131.418Y70.360
N20030X131.518Y70.260
N20040X131.618Y70.360
N20050G01Z-0.975F30.0
N20060G01X131.518Y70.460F200.0
N20070X131.418Y70.360
N20080X131.518Y70.260
N20090X131.618Y70.360
N20100G01Z-1.000F30.0
N20110G01X131.518Y70.460F200.0
N20120X131.418Y70.360
N20130X131.518Y70.260
N20140X131.618Y70.360
N20150G01Z-1.025F30.0
N20160G01X131.518Y70.460F200.0
N20170X131.418Y70.360
N20180X131.518Y70.260
N20190X131.618Y70.360
N20200G01Z-1.050F30.0
N20210G01X131.518Y70.460F200.0
N20220X131.418Y70.360
N20230X131.518Y70.260
N20240X131.618Y70.360
N20250G01Z-1.075F30.0
N20260G01X131.518Y70.460F200.0
N20270X131.418Y70.360
N20280X131.518Y70.260
N20290X131.618Y70.360
N20300G01Z-1.100F30.0
N20310G01X131.518Y70.460F200.0
N20320X131.418Y70.360
N20330X131.518Y70.260
N20340X131.618Y70.360
N20350G01Z-1.125F30.0
N20360G01X131.518Y70.460F200.0
N20370X131.418Y70.360
N20380X131.518Y70.260
N20390X131.618Y70.360
N20400G01Z-1.150F30.0
N20410G01X131.518Y70.460F200.0
N20420X131.418Y70.360
N20430X131.518Y70.260
N20440X131.618Y70.360
N20450G01Z-1.175F30.0
N20460G01X131.518Y70.460F200.0
N20470X131.418Y70.360
N20480X131.518Y70.260
N20490X131.618Y70.360
N20500G01Z-1.200F30.0
N20510G01X131.518Y70.460F200.0
N20520X131.418Y70.360
N20530X131.518Y70.260
N20540X131.618Y70.360
N20550G01Z-1.225F30.0
N20560G01X131.518Y70.460F200.0
N20570X131.418Y70.360
N20580X131.518Y70.260
N20590X131.618Y70.360
N20600G01Z-1.250F30.0
N20610G01X131.518Y70.460F200.0
N20620X131.418Y70.360
N20630X131.518Y70.260
N20640X131.618Y70.360
N20650G01Z-1.275F30.0
N20660G01X131.518Y70.460F200.0
N20670X131.418Y70.360
N20680X131.518Y70.260
N20690X131.618Y70.360
N20700G01Z-1.300F30.0
N20710G01X131.518Y70.460F200.0
N20720X131.418Y70.360
N20730X131.518Y70.260
N20740X131.618Y70.360
N20750G01Z-1.325F30.0
N20760G01X131.518Y70.460F200.0
N20770X131.418Y70.360
N20780X131.518Y70.260
N20790X131.618Y70.360
N20800G01Z-1.350F30.0
N20810G01X131.518Y70.460F200.0
N20820X131.418Y70.360
N20830X131.518Y70.260
N20840X131.618Y70.360
N20850G01Z-1.375F30.0
N20860G01X131.518Y70.460F200.0
N20870X131.418Y70.360
N20880X131.518Y70.260
N20890X131.618Y70.360
N20900G01Z-1.400F30.0
N20910G01X131.518Y70.460F200.0
N20920X131.418Y70.360
N20930X131.518Y70.260
N20940X131.618Y70.360
N20950G01Z-1.425F30.0
N20960G01X131.518Y70.460F200.0
N20970X131.418Y70.360
N20980X131.518Y70.260
N20990X131.618Y70.360
N21000G01Z-1.450F30.0
N21010G01X131.518Y70.460F200.0
N21020X131.418Y70.360
N21030X131.518Y70.260
N21040X131.618Y70.360
N21050G01Z-1.475F30.0
N21060G01X131.518Y70.460F200.0
N21070X131.418Y70.360
N21080X131.518Y70.260
N21090X131.618Y70.360
N21100G01Z-1.500F30.0
N21110G01X131.518Y70.460F200.0
N21120X131.418Y70.360
N21130X131.518Y70.260
N21140X131.618Y70.360
N21150G01Z-1.525F30.0
N21160G01X131.518Y70.460F200.0
N21170X131.418Y70.360
N21180X131.518Y70.260
N21190X131.618Y70.360
N21200G01Z-1.550F30.0
N21210G01X131.518Y70.460F200.0
N21220X131.418Y70.360
N21230X131.518Y70.260
N21240X131.618Y70.360
N21250G01Z-1.575F30.0
N21260G01X131.518Y70.460F200.0
N21270X131.418Y70.360
N21280X131.518Y70.260
N21290X131.618Y70.360
N21300G01Z-1.600F30.0
N21310G01X131.518Y70.460F200.0
N21320X131.418Y70.360
N21330X131.518Y70.260
N21340X131.618Y70.360
N21350G01Z-1.625F30.0
N21360G01X131.518Y70.460F200.0
N21370X131.418Y70.360
N21380X131.518Y70.260
N21390X131.618Y70.360
N21400G01Z-1.650F30.0
N21410G01X131.518Y70.460F200.0
N21420X131.418Y70.360
N21430X131.518Y70.260
N21440X131.618Y70.360
N21450G01Z-1.675F30.0
N21460G01X131.518Y70.460F200.0
N21470X131.418Y70.360
N21480X131.518Y70.260
N21490X131.618Y70.360
N21500G01Z-1.700F30.0
N21510G01X131.518Y70.460F200.0
N21520X131.418Y70.360
N21530X131.518Y70.260
N21540X131.618Y70.360
N21550G01Z-1.725F30.0
N21560G01X131.518Y70.460F200.0
N21570X131.418Y70.360
N21580X131.518Y70.260
N21590X131.618Y70.360
N21600G01Z-1.750F30.0
N21610G01X131.518Y70.460F200.0
N21620X131.418Y70.360
N21630X131.518Y70.260
N21640X131.618Y70.360
N21650G01Z-1.775F30.0
N21660G01X131.518Y70.460F200.0
N21670X131.418Y70.360
N21680X131.518Y70.260
N21690X131.618Y70.360
N21700G01Z-1.800F30.0
N21710G01X131.518Y70.460F200.0
N21720X131.418Y70.360
N21730X131.518Y70.260
N21740X131.618Y70.360
N21750G01Z-1.825F30.0
N21760G01X131.518Y70.460F200.0
N21770X131.418Y70.360
N21780X131.518Y70.260
N21790X131.618Y70.360
N21800G01Z-1.850F30.0
N21810G01X131.518Y70.460F200.0
N21820X131.418Y70.360
N21830X131.518Y70.260
N21840X131.618Y70.360
N21850G01Z-1.875F30.0
N21860G01X131.518Y70.460F200.0
N21870X131.418Y70.360
N21880X131.518Y70.260
N21890X131.618Y70.360
N21900G01Z-1.900F30.0
N21910G01X131.518Y70.460F200.0
N21920X131.418Y70.360
N21930X131.518Y70.260
N21940X131.618Y70.360
N21950G01Z-1.925F30.0
N21960G01X131.518Y70.460F200.0
N21970X131.418Y70.360
N21980X131.518Y70.260
N21990X131.618Y70.360
N22000G01Z-1.950F30.0
N22010G01X131.518Y70.460F200.0
N22020X131.418Y70.360
N22030X131.518Y70.260
N22040X131.618Y70.360
N22050G01Z-1.975F30.0
N22060G01X131.518Y70.460F200.0
N22070X131.418Y70.360
N22080X131.518Y70.260
N22090X131.618Y70.360
N22100G01Z-2.000F30.0
N22110G01X131.518Y70.460F200.0
N22120X131.418Y70.360
N22130X131.518Y70.260
N22140X131.618Y70.360
N22150G01Z-2.025F30.0
N22160G01X131.518Y70.460F200.0
N22170X131.418Y70.360
N22180X131.518Y70.260
N22190X131.618Y70.360
N22200G01Z-2.050F30.0
N22210G01X131.518Y70.460F200.0
N22220X131.418Y70.360
N22230X131.518Y70.260
N22240X131.618Y70.360
N22250G01Z-2.075F30.0
N22260G01X131.518Y70.460F200.0
N22270X131.418Y70.360
N22280X131.518Y70.260
N22290X131.618Y70.360
N22300G01Z-2.100F30.0
N22310G01X131.518Y70.460F200.0
N22320X131.418Y70.360
N22330X131.518Y70.260
N22340X131.618Y70.360
N22350G01Z-2.125F30.0
N22360G01X131.518Y70.460F200.0
N22370X131.418Y70.360
N22380X131.518Y70.260
N22390X131.618Y70.360
N22400G01Z-2.150F30.0
N22410G01X131.518Y70.460F200.0
N22420X131.418Y70.360
N22430X131.518Y70.260
N22440X131.618Y70.360
N22450G01Z-2.175F30.0
N22460G01X131.518Y70.460F200.0
N22470X131.418Y70.360
N22480X131.518Y70.260
N22490X131.618Y70.360
N22500G01Z-2.200F30.0
N22510G01X131.518Y70.460F200.0
N22520X131.418Y70.360
N22530X131.518Y70.260
N22540X131.618Y70.360
N22550G01Z-2.225F30.0
N22560G01X131.518Y70.460F200.0
N22570X131.418Y70.360
N22580X131.518Y70.260
N22590X131.618Y70.360
N22600G01Z-2.250F30.0
N22610G01X131.518Y70.460F200.0
N22620X131.418Y70.360
N22630X131.518Y70.260
N22640X131.618Y70.360
N22650G01Z-2.275F30.0
N22660G01X131.518Y70.460F200.0
N22670X131.418Y70.360
N22680X131.518Y70.260
N22690X131.618Y70.360
N22700G01Z-2.300F30.0
N22710G01X131.518Y70.460F200.0
N22720X131.418Y70.360
N22730X131.518Y70.260
N22740X131.618Y70.360
N22750G01Z-2.325F30.0
N22760G01X131.518Y70.460F200.0
N22770X131.418Y70.360
N22780X131.518Y70.260
N22790X131.618Y70.360
N22800G01Z-2.350F30.0
N22810G01X131.518Y70.460F200.0
N22820X131.418Y70.360
N22830X131.518Y70.260
N22840X131.618Y70.360
N22850G01Z-2.375F30.0
N22860G01X131.518Y70.460F200.0
N22870X131.418Y70.360
N22880X131.518Y70.260
N22890X131.618Y70.360
N22900G01Z-2.400F30.0
N22910G01X131.518Y70.460F200.0
N22920X131.418Y70.360
N22930X131.518Y70.260
N22940X131.618Y70.360
N22950G01Z-2.425F30.0
N22960G01X131.518Y70.460F200.0
N22970X131.418Y70.360
N22980X131.518Y70.260
N22990X131.618Y70.360
N23000G01Z-2.450F30.0
N23010G01X131.518Y70.460F200.0
N23020X131.418Y70.360
N23030X131.518Y70.260
N23040X131.618Y70.360
N23050G01Z-2.475F30.0
N23060G01X131.518Y70.460F200.0
N23070X131.418Y70.360
N23080X131.518Y70.260
N23090X131.618Y70.360
N23100G01Z-2.500F30.0
N23110G01X131.518Y70.460F200.0
N23120X131.418Y70.360
N23130X131.518Y70.260
N23140X131.618Y70.360
N23150G01Z-2.525F30.0
N23160G01X131.518Y70.460F200.0
N23170X131.418Y70.360
N23180X131.518Y70.260
N23190X131.618Y70.360
N23200G01Z-2.550F30.0
N23210G01X131.518Y70.460F200.0
N23220X131.418Y70.360
N23230X131.518Y70.260
N23240X131.618Y70.360
N23250G01Z-2.575F30.0
N23260G01X131.518Y70.460F200.0
N23270X131.418Y70.360
N23280X131.518Y70.260
N23290X131.618Y70.360
N23300G01Z-2.600F30.0
N23310G01X131.518Y70.460F200.0
N23320X131.418Y70.360
N23330X131.518Y70.260
N23340X131.618Y70.360
N23350G01Z-2.625F30.0
N23360G01X131.518Y70.460F200.0
N23370X131.418Y70.360
N23380X131.518Y70.260
N23390X131.618Y70.360
N23400G01Z-2.650F30.0
N23410G01X131.518Y70.460F200.0
N23420X131.418Y70.360
N23430X131.518Y70.260
N23440X131.618Y70.360
N23450G01Z-2.675F30.0
N23460G01X131.518Y70.460F200.0
N23470X131.418Y70.360
N23480X131.518Y70.260
N23490X131.618Y70.360
N23500G01Z-2.700F30.0
N23510G01X131.518Y70.460F200.0
N23520X131.418Y70.360
N23530X131.518Y70.260
N23540X131.618Y70.360
N23550G01Z-2.725F30.0
N23560G01X131.518Y70.460F200.0
N23570X131.418Y70.360
N23580X131.518Y70.260
N23590X131.618Y70.360
N23600G01Z-2.750F30.0
N23610G01X131.518Y70.460F200.0
N23620X131.418Y70.360
N23630X131.518Y70.260
N23640X131.618Y70.360
N23650G01Z-2.775F30.0
N23660G01X131.518Y70.460F200.0
N23670X131.418Y70.360
N23680X131.518Y70.260
N23690X131.618Y70.360
N23700G01Z-2.800F30.0
N23710G01X131.518Y70.460F200.0
N23720X131.418Y70.360
N23730X131.518Y70.260
N23740X131.618Y70.360
N23750G01Z-2.825F30.0
N23760G01X131.518Y70.460F200.0
N23770X131.418Y70.360
N23780X131.518Y70.260
N23790X131.618Y70.360
N23800G01Z-2.850F30.0
N23810G01X131.518Y70.460F200.0
N23820X131.418Y70.360
N23830X131.518Y70.260
N23840X131.618Y70.360
N23850G01Z-2.875F30.0
N23860G01X131.518Y70.460F200.0
N23870X131.418Y70.360
N23880X131.518Y70.260
N23890X131.618Y70.360
N23900G01Z-2.900F30.0
N23910G01X131.518Y70.460F200.0
N23920X131.418Y70.360
N23930X131.518Y70.260
N23940X131.618Y70.360
N23950G01Z-2.925F30.0
N23960G01X131.518Y70.460F200.0
N23970X131.418Y70.360
N23980X131.518Y70.260
N23990X131.618Y70.360
N24000G01Z-2.950F30.0
N24010G01X131.518Y70.460F200.0
N24020X131.418Y70.360
N24030X131.518Y70.260
N24040X131.618Y70.360
N24050G01Z-2.975F30.0
N24060G01X131.518Y70.460F200.0
N24070X131.418Y70.360
N24080X131.518Y70.260
N24090X131.618Y70.360
N24100G01Z-3.000F30.0
N24110G01X131.518Y70.460F200.0
N24120X131.418Y70.360
N24130X131.518Y70.260
N24140X131.618Y70.360
N24150G00Z6.000
N24160G00X160.150Y66.984
N24170G01Z-0.025F30.0
N24180G01X160.050Y67.084F200.0
N24190X159.950Y66.984
N24200X160.050Y66.884
N24210X160.150Y66.984
N24220G01Z-0.050F30.0
N24230G01X160.050Y67.084F200.0
N24240X159.950Y66.984
N24250X160.050Y66.884
N24260X160.150Y66.984
N24270G01Z-0.075F30.0
N24280G01X160.050Y67.084F200.0
N24290X159.950Y66.984
N24300X160.050Y66.884
N24310X160.150Y66.984
N24320G01Z-0.100F30.0
N24330G01X160.050Y67.084F200.0
N24340X159.950Y66.984
N24350X160.050Y66.884
N24360X160.150Y66.984
N24370G01Z-0.125F30.0
N24380G01X160.050Y67.084F200.0
N24390X159.950Y66.984
N24400X160.050Y66.884
N24410X160.150Y66.984
N24420G01Z-0.150F30.0
N24430G01X160.050Y67.084F200.0
N24440X159.950Y66.984
N24450X160.050Y66.884
N24460X160.150Y66.984
N24470G01Z-0.175F30.0
N24480G01X160.050Y67.084F200.0
N24490X159.950Y66.984
N24500X160.050Y66.884
N24510X160.150Y66.984
N24520G01Z-0.200F30.0
N24530G01X160.050Y67.084F200.0
N24540X159.950Y66.984
N24550X160.050Y66.884
N24560X160.150Y66.984
N24570G01Z-0.225F30.0
N24580G01X160.050Y67.084F200.0
N24590X159.950Y66.984
N24600X160.050Y66.884
N24610X160.150Y66.984
N24620G01Z-0.250F30.0
N24630G01X160.050Y67.084F200.0
N24640X159.950Y66.984
N24650X160.050Y66.884
N24660X160.150Y66.984
N24670G01Z-0.275F30.0
N24680G01X160.050Y67.084F200.0
N24690X159.950Y66.984
N24700X160.050Y66.884
N24710X160.150Y66.984
N24720G01Z-0.300F30.0
N24730G01X160.050Y67.084F200.0
N24740X159.950Y66.984
N24750X160.050Y66.884
N24760X160.150Y66.984
N24770G01Z-0.325F30.0
N24780G01X160.050Y67.084F200.0
N24790X159.950Y66.984
N24800X160.050Y66.884
N24810X160.150Y66.984
N24820G01Z-0.350F30.0
N24830G01X160.050Y67.084F200.0
N24840X159.950Y66.984
N24850X160.050Y66.884
N24860X160.150Y66.984
N24870G01Z-0.375F30.0
N24880G01X160.050Y67.084F200.0
N24890X159.950Y66.984
N24900X160.050Y66.884
N24910X160.150Y66.984
N24920G01Z-0.400F30.0
N24930G01X160.050Y67.084F200.0
N24940X159.950Y66.984
N24950X160.050Y66.884
N24960X160.150Y66.984
N24970G01Z-0.425F30.0
N24980G01X160.050Y67.084F200.0
N24990X159.950Y66.984
N25000X160.050Y66.884
N25010X160.150Y66.984
N25020G01Z-0.450F30.0
N25030G01X160.050Y67.084F200.0
N25040X159.950Y66.984
N25050X160.050Y66.884
N25060X160.150Y66.984
N25070G01Z-0.475F30.0
N25080G01X160.050Y67.084F200.0
N25090X159.950Y66.984
N25100X160.050Y66.884
N25110X160.150Y66.984
N25120G01Z-0.500F30.0
N25130G01X160.050Y67.084F200.0
N25140X159.950Y66.984
N25150X160.050Y66.884
N25160X160.150Y66.984
N25170G01Z-0.525F30.0
N25180G01X160.050Y67.084F200.0
N25190X159.950Y66.984
N25200X160.050Y66.884
N25210X160.150Y66.984
N25220G01Z-0.550F30.0
N25230G01X160.050Y67.084F200.0
N25240X159.950Y66.984
N25250X160.050Y66.884
N25260X160.150Y66.984
N25270G01Z-0.575F30.0
N25280G01X160.050Y67.084F200.0
N25290X159.950Y66.984
N25300X160.050Y66.884
N25310X160.150Y66.984
N25320G01Z-0.600F30.0
N25330G01X160.050Y67.084F200.0
N25340X159.950Y66.984
N25350X160.050Y66.884
N25360X160.150Y66.984
N25370G01Z-0.625F30.0
N25380G01X160.050Y67.084F200.0
N25390X159.950Y66.984
N25400X160.050Y66.884
N25410X160.150Y66.984
N25420G01Z-0.650F30.0
N25430G01X160.050Y67.084F200.0
N25440X159.950Y66.984
N25450X160.050Y66.884
N25460X160.150Y66.984
N25470G01Z-0.675F30.0
N25480G01X160.050Y67.084F200.0
N25490X159.950Y66.984
N25500X160.050Y66.884
N25510X160.150Y66.984
N25520G01Z-0.700F30.0
N25530G01X160.050Y67.084F200.0
N25540X159.950Y66.984
N25550X160.050Y66.884
N25560X160.150Y66.984
N25570G01Z-0.725F30.0
N25580G01X160.050Y67.084F200.0
N25590X159.950Y66.984
N25600X160.050Y66.884
N25610X160.150Y66.984
N25620G01Z-0.750F30.0
N25630G01X160.050Y67.084F200.0
N25640X159.950Y66.984
N25650X160.050Y66.884
N25660X160.150Y66.984
N25670G01Z-0.775F30.0
N25680G01X160.050Y67.084F200.0
N25690X159.950Y66.984
N25700X160.050Y66.884
N25710X160.150Y66.984
N25720G01Z-0.800F30.0
N25730G01X160.050Y67.084F200.0
N25740X159.950Y66.984
N25750X160.050Y66.884
N25760X160.150Y66.984
N25770G01Z-0.825F30.0
N25780G01X160.050Y67.084F200.0
N25790X159.950Y66.984
N25800X160.050Y66.884
N25810X160.150Y66.984
N25820G01Z-0.850F30.0
N25830G01X160.050Y67.084F200.0
N25840X159.950Y66.984
N25850X160.050Y66.884
N25860X160.150Y66.984
N25870G01Z-0.875F30.0
N25880G01X160.050Y67.084F200.0
N25890X159.950Y66.984
N25900X160.050Y66.884
N25910X160.150Y66.984
N25920G01Z-0.900F30.0
N25930G01X160.050Y67.084F200.0
N25940X159.950Y66.984
N25950X160.050Y66.884
N25960X160.150Y66.984
N25970G01Z-0.925F30.0
N25980G01X160.050Y67.084F200.0
N25990X159.950Y66.984
N26000X160.050Y66.884
N26010X160.150Y66.984
N26020G01Z-0.950F30.0
N26030G01X160.050Y67.084F200.0
N26040X159.950Y66.984
N26050X160.050Y66.884
N26060X160.150Y66.984
N26070G01Z-0.975F30.0
N26080G01X160.050Y67.084F200.0
N26090X159.950Y66.984
N26100X160.050Y66.884
N26110X160.150Y66.984
N26120G01Z-1.000F30.0
N26130G01X160.050Y67.084F200.0
N26140X159.950Y66.984
N26150X160.050Y66.884
N26160X160.150Y66.984
N26170G01Z-1.025F30.0
N26180G01X160.050Y67.084F200.0
N26190X159.950Y66.984
N26200X160.050Y66.884
N26210X160.150Y66.984
N26220G01Z-1.050F30.0
N26230G01X160.050Y67.084F200.0
N26240X159.950Y66.984
N26250X160.050Y66.884
N26260X160.150Y66.984
N26270G01Z-1.075F30.0
N26280G01X160.050Y67.084F200.0
N26290X159.950Y66.984
N26300X160.050Y66.884
N26310X160.150Y66.984
N26320G01Z-1.100F30.0
N26330G01X160.050Y67.084F200.0
N26340X159.950Y66.984
N26350X160.050Y66.884
N26360X160.150Y66.984
N26370G01Z-1.125F30.0
N26380G01X160.050Y67.084F200.0
N26390X159.950Y66.984
N26400X160.050Y66.884
N26410X160.150Y66.984
N26420G01Z-1.150F30.0
N26430G01X160.050Y67.084F200.0
N26440X159.950Y66.984
N26450X160.050Y66.884
N26460X160.150Y66.984
N26470G01Z-1.175F30.0
N26480G01X160.050Y67.084F200.0
N26490X159.950Y66.984
N26500X160.050Y66.884
N26510X160.150Y66.984
N26520G01Z-1.200F30.0
N26530G01X160.050Y67.084F200.0
N26540X159.950Y66.984
N26550X160.050Y66.884
N26560X160.150Y66.984
N26570G01Z-1.225F30.0
N26580G01X160.050Y67.084F200.0
N26590X159.950Y66.984
N26600X160.050Y66.884
N26610X160.150Y66.984
N26620G01Z-1.250F30.0
N26630G01X160.050Y67.084F200.0
N26640X159.950Y66.984
N26650X160.050Y66.884
N26660X160.150Y66.984
N26670G01Z-1.275F30.0
N26680G01X160.050Y67.084F200.0
N26690X159.950Y66.984
N26700X160.050Y66.884
N26710X160.150Y66.984
N26720G01Z-1.300F30.0
N26730G01X160.050Y67.084F200.0
N26740X159.950Y66.984
N26750X160.050Y66.884
N26760X160.150Y66.984
N26770G01Z-1.325F30.0
N26780G01X160.050Y67.084F200.0
N26790X159.950Y66.984
N26800X160.050Y66.884
N26810X160.150Y66.984
N26820G01Z-1.350F30.0
N26830G01X160.050Y67.084F200.0
N26840X159.950Y66.984
N26850X160.050Y66.884
N26860X160.150Y66.984
N26870G01Z-1.375F30.0
N26880G01X160.050Y67.084F200.0
N26890X159.950Y66.984
N26900X160.050Y66.884
N26910X160.150Y66.984
N26920G01Z-1.400F30.0
N26930G01X160.050Y67.084F200.0
N26940X159.950Y66.984
N26950X160.050Y66.884
N26960X160.150Y66.984
N26970G01Z-1.425F30.0
N26980G01X160.050Y67.084F200.0
N26990X159.950Y66.984
N27000X160.050Y66.884
N27010X160.150Y66.984
N27020G01Z-1.450F30.0
N27030G01X160.050Y67.084F200.0
N27040X159.950Y66.984
N27050X160.050Y66.884
N27060X160.150Y66.984
N27070G01Z-1.475F30.0
N27080G01X160.050Y67.084F200.0
N27090X159.950Y66.984
N27100X160.050Y66.884
N27110X160.150Y66.984
N27120G01Z-1.500F30.0
N27130G01X160.050Y67.084F200.0
N27140X159.950Y66.984
N27150X160.050Y66.884
N27160X160.150Y66.984
N27170G01Z-1.525F30.0
N27180G01X160.050Y67.084F200.0
N27190X159.950Y66.984
N27200X160.050Y66.884
N27210X160.150Y66.984
N27220G01Z-1.550F30.0
N27230G01X160.050Y67.084F200.0
N27240X159.950Y66.984
N27250X160.050Y66.884
N27260X160.150Y66.984
N27270G01Z-1.575F30.0
N27280G01X160.050Y67.084F200.0
N27290X159.950Y66.984
N27300X160.050Y66.884
N27310X160.150Y66.984
N27320G01Z-1.600F30.0
N27330G01X160.050Y67.084F200.0
N27340X159.950Y66.984
N27350X160.050Y66.884
N27360X160.150Y66.984
N27370G01Z-1.625F30.0
N27380G01X160.050Y67.084F200.0
N27390X159.950Y66.984
N27400X160.050Y66.884
N27410X160.150Y66.984
N27420G01Z-1.650F30.0
N27430G01X160.050Y67.084F200.0
N27440X159.950Y66.984
N27450X160.050Y66.884
N27460X160.150Y66.984
N27470G01Z-1.675F30.0
N27480G01X160.050Y67.084F200.0
N27490X159.950Y66.984
N27500X160.050Y66.884
N27510X160.150Y66.984
N27520G01Z-1.700F30.0
N27530G01X160.050Y67.084F200.0
N27540X159.950Y66.984
N27550X160.050Y66.884
N27560X160.150Y66.984
N27570G01Z-1.725F30.0
N27580G01X160.050Y67.084F200.0
N27590X159.950Y66.984
N27600X160.050Y66.884
N27610X160.150Y66.984
N27620G01Z-1.750F30.0
N27630G01X160.050Y67.084F200.0
N27640X159.950Y66.984
N27650X160.050Y66.884
N27660X160.150Y66.984
N27670G01Z-1.775F30.0
N27680G01X160.050Y67.084F200.0
N27690X159.950Y66.984
N27700X160.050Y66.884
N27710X160.150Y66.984
N27720G01Z-1.800F30.0
N27730G01X160.050Y67.084F200.0
N27740X159.950Y66.984
N27750X160.050Y66.884
N27760X160.150Y66.984
N27770G01Z-1.825F30.0
N27780G01X160.050Y67.084F200.0
N27790X159.950Y66.984
N27800X160.050Y66.884
N27810X160.150Y66.984
N27820G01Z-1.850F30.0
N27830G01X160.050Y67.084F200.0
N27840X159.950Y66.984
N27850X160.050Y66.884
N27860X160.150Y66.984
N27870G01Z-1.875F30.0
N27880G01X160.050Y67.084F200.0
N27890X159.950Y66.984
N27900X160.050Y66.884
N27910X160.150Y66.984
N27920G01Z-1.900F30.0
N27930G01X160.050Y67.084F200.0
N27940X159.950Y66.984
N27950X160.050Y66.884
N27960X160.150Y66.984
N27970G01Z-1.925F30.0
N27980G01X160.050Y67.084F200.0
N27990X159.950Y66.984
N28000X160.050Y66.884
N28010X160.150Y66.984
N28020G01Z-1.950F30.0
N28030G01X160.050Y67.084F200.0
N28040X159.950Y66.984
N28050X160.050Y66.884
N28060X160.150Y66.984
N28070G01Z-1.975F30.0
N28080G01X160.050Y67.084F200.0
N28090X159.950Y66.984
N28100X160.050Y66.884
N28110X160.150Y66.984
N28120G01Z-2.000F30.0
N28130G01X160.050Y67.084F200.0
N28140X159.950Y66.984
N28150X160.050Y66.884
N28160X160.150Y66.984
N28170G01Z-2.025F30.0
N28180G01X160.050Y67.084F200.0
N28190X159.950Y66.984
N28200X160.050Y66.884
N28210X160.150Y66.984
N28220G01Z-2.050F30.0
N28230G01X160.050Y67.084F200.0
N28240X159.950Y66.984
N28250X160.050Y66.884
N28260X160.150Y66.984
N28270G01Z-2.075F30.0
N28280G01X160.050Y67.084F200.0
N28290X159.950Y66.984
N28300X160.050Y66.884
N28310X160.150Y66.984
N28320G01Z-2.100F30.0
N28330G01X160.050Y67.084F200.0
N28340X159.950Y66.984
N28350X160.050Y66.884
N28360X160.150Y66.984
N28370G01Z-2.125F30.0
N28380G01X160.050Y67.084F200.0
N28390X159.950Y66.984
N28400X160.050Y66.884
N28410X160.150Y66.984
N28420G01Z-2.150F30.0
N28430G01X160.050Y67.084F200.0
N28440X159.950Y66.984
N28450X160.050Y66.884
N28460X160.150Y66.984
N28470G01Z-2.175F30.0
N28480G01X160.050Y67.084F200.0
N28490X159.950Y66.984
N28500X160.050Y66.884
N28510X160.150Y66.984
N28520G01Z-2.200F30.0
N28530G01X160.050Y67.084F200.0
N28540X159.950Y66.984
N28550X160.050Y66.884
N28560X160.150Y66.984
N28570G01Z-2.225F30.0
N28580G01X160.050Y67.084F200.0
N28590X159.950Y66.984
N28600X160.050Y66.884
N28610X160.150Y66.984
N28620G01Z-2.250F30.0
N28630G01X160.050Y67.084F200.0
N28640X159.950Y66.984
N28650X160.050Y66.884
N28660X160.150Y66.984
N28670G01Z-2.275F30.0
N28680G01X160.050Y67.084F200.0
N28690X159.950Y66.984
N28700X160.050Y66.884
N28710X160.150Y66.984
N28720G01Z-2.300F30.0
N28730G01X160.050Y67.084F200.0
N28740X159.950Y66.984
N28750X160.050Y66.884
N28760X160.150Y66.984
N28770G01Z-2.325F30.0
N28780G01X160.050Y67.084F200.0
N28790X159.950Y66.984
N28800X160.050Y66.884
N28810X160.150Y66.984
N28820G01Z-2.350F30.0
N28830G01X160.050Y67.084F200.0
N28840X159.950Y66.984
N28850X160.050Y66.884
N28860X160.150Y66.984
N28870G01Z-2.375F30.0
N28880G01X160.050Y67.084F200.0
N28890X159.950Y66.984
N28900X160.050Y66.884
N28910X160.150Y66.984
N28920G01Z-2.400F30.0
N28930G01X160.050Y67.084F200.0
N28940X159.950Y66.984
N28950X160.050Y66.884
N28960X160.150Y66.984
N28970G01Z-2.425F30.0
N28980G01X160.050Y67.084F200.0
N28990X159.950Y66.984
N29000X160.050Y66.884
N29010X160.150Y66.984
N29020G01Z-2.450F30.0
N29030G01X160.050Y67.084F200.0
N29040X159.950Y66.984
N29050X160.050Y66.884
N29060X160.150Y66.984
N29070G01Z-2.475F30.0
N29080G01X160.050Y67.084F200.0
N29090X159.950Y66.984
N29100X160.050Y66.884
N29110X160.150Y66.984
N29120G01Z-2.500F30.0
N29130G01X160.050Y67.084F200.0
N29140X159.950Y66.984
N29150X160.050Y66.884
N29160X160.150Y66.984
N29170G01Z-2.525F30.0
N29180G01X160.050Y67.084F200.0
N29190X159.950Y66.984
N29200X160.050Y66.884
N29210X160.150Y66.984
N29220G01Z-2.550F30.0
N29230G01X160.050Y67.084F200.0
N29240X159.950Y66.984
N29250X160.050Y66.884
N29260X160.150Y66.984
N29270G01Z-2.575F30.0
N29280G01X160.050Y67.084F200.0
N29290X159.950Y66.984
N29300X160.050Y66.884
N29310X160.150Y66.984
N29320G01Z-2.600F30.0
N29330G01X160.050Y67.084F200.0
N29340X159.950Y66.984
N29350X160.050Y66.884
N29360X160.150Y66.984
N29370G01Z-2.625F30.0
N29380G01X160.050Y67.084F200.0
N29390X159.950Y66.984
N29400X160.050Y66.884
N29410X160.150Y66.984
N29420G01Z-2.650F30.0
N29430G01X160.050Y67.084F200.0
N29440X159.950Y66.984
N29450X160.050Y66.884
N29460X160.150Y66.984
N29470G01Z-2.675F30.0
N29480G01X160.050Y67.084F200.0
N29490X159.950Y66.984
N29500X160.050Y66.884
N29510X160.150Y66.984
N29520G01Z-2.700F30.0
N29530G01X160.050Y67.084F200.0
N29540X159.950Y66.984
N29550X160.050Y66.884
N29560X160.150Y66.984
N29570G01Z-2.725F30.0
N29580G01X160.050Y67.084F200.0
N29590X159.950Y66.984
N29600X160.050Y66.884
N29610X160.150Y66.984
N29620G01Z-2.750F30.0
N29630G01X160.050Y67.084F200.0
N29640X159.950Y66.984
N29650X160.050Y66.884
N29660X160.150Y66.984
N29670G01Z-2.775F30.0
N29680G01X160.050Y67.084F200.0
N29690X159.950Y66.984
N29700X160.050Y66.884
N29710X160.150Y66.984
N29720G01Z-2.800F30.0
N29730G01X160.050Y67.084F200.0
N29740X159.950Y66.984
N29750X160.050Y66.884
N29760X160.150Y66.984
N29770G01Z-2.825F30.0
N29780G01X160.050Y67.084F200.0
N29790X159.950Y66.984
N29800X160.050Y66.884
N29810X160.150Y66.984
N29820G01Z-2.850F30.0
N29830G01X160.050Y67.084F200.0
N29840X159.950Y66.984
N29850X160.050Y66.884
N29860X160.150Y66.984
N29870G01Z-2.875F30.0
N29880G01X160.050Y67.084F200.0
N29890X159.950Y66.984
N29900X160.050Y66.884
N29910X160.150Y66.984
N29920G01Z-2.900F30.0
N29930G01X160.050Y67.084F200.0
N29940X159.950Y66.984
N29950X160.050Y66.884
N29960X160.150Y66.984
N29970G01Z-2.925F30.0
N29980G01X160.050Y67.084F200.0
N29990X159.950Y66.984
N30000X160.050Y66.884
N30010X160.150Y66.984
N30020G01Z-2.950F30.0
N30030G01X160.050Y67.084F200.0
N30040X159.950Y66.984
N30050X160.050Y66.884
N30060X160.150Y66.984
N30070G01Z-2.975F30.0
N30080G01X160.050Y67.084F200.0
N30090X159.950Y66.984
N30100X160.050Y66.884
N30110X160.150Y66.984
N30120G01Z-3.000F30.0
N30130G01X160.050Y67.084F200.0
N30140X159.950Y66.984
N30150X160.050Y66.884
N30160X160.150Y66.984
N30170G00Z6.000
N30180G00X163.671Y77.933
N30190G01Z-0.025F30.0
N30200G3X163.021Y78.583I-0.650J0.000F200.0
N30210G3X162.371Y77.933I0.000J-0.650
N30220G3X163.021Y77.283I0.650J0.000
N30230G3X163.671Y77.933I0.000J0.650
N30240G01Z-0.050F30.0
N30250G3X163.021Y78.583I-0.650J0.000F200.0
N30260G3X162.371Y77.933I0.000J-0.650
N30270G3X163.021Y77.283I0.650J0.000
N30280G3X163.671Y77.933I0.000J0.650
N30290G01Z-0.075F30.0
N30300G3X163.021Y78.583I-0.650J0.000F200.0
N30310G3X162.371Y77.933I0.000J-0.650
N30320G3X163.021Y77.283I0.650J0.000
N30330G3X163.671Y77.933I0.000J0.650
N30340G01Z-0.100F30.0
N30350G3X163.021Y78.583I-0.650J0.000F200.0
N30360G3X162.371Y77.933I0.000J-0.650
N30370G3X163.021Y77.283I0.650J0.000
N30380G3X163.671Y77.933I0.000J0.650
N30390G01Z-0.125F30.0
N30400G3X163.021Y78.583I-0.650J0.000F200.0
N30410G3X162.371Y77.933I0.000J-0.650
N30420G3X163.021Y77.283I0.650J0.000
N30430G3X163.671Y77.933I0.000J0.650
N30440G01Z-0.150F30.0
N30450G3X163.021Y78.583I-0.650J0.000F200.0
N30460G3X162.371Y77.933I0.000J-0.650
N30470G3X163.021Y77.283I0.650J0.000
N30480G3X163.671Y77.933I0.000J0.650
N30490G01Z-0.175F30.0
N30500G3X163.021Y78.583I-0.650J0.000F200.0
N30510G3X162.371Y77.933I0.000J-0.650
N30520G3X163.021Y77.283I0.650J0.000
N30530G3X163.671Y77.933I0.000J0.650
N30540G01Z-0.200F30.0
N30550G3X163.021Y78.583I-0.650J0.000F200.0
N30560G3X162.371Y77.933I0.000J-0.650
N30570G3X163.021Y77.283I0.650J0.000
N30580G3X163.671Y77.933I0.000J0.650
N30590G01Z-0.225F30.0
N30600G3X163.021Y78.583I-0.650J0.000F200.0
N30610G3X162.371Y77.933I0.000J-0.650
N30620G3X163.021Y77.283I0.650J0.000
N30630G3X163.671Y77.933I0.000J0.650
N30640G01Z-0.250F30.0
N30650G3X163.021Y78.583I-0.650J0.000F200.0
N30660G3X162.371Y77.933I0.000J-0.650
N30670G3X163.021Y77.283I0.650J0.000
N30680G3X163.671Y77.933I0.000J0.650
N30690G01Z-0.275F30.0
N30700G3X163.021Y78.583I-0.650J0.000F200.0
N30710G3X162.371Y77.933I0.000J-0.650
N30720G3X163.021Y77.283I0.650J0.000
N30730G3X163.671Y77.933I0.000J0.650
N30740G01Z-0.300F30.0
N30750G3X163.021Y78.583I-0.650J0.000F200.0
N30760G3X162.371Y77.933I0.000J-0.650
N30770G3X163.021Y77.283I0.650J0.000
N30780G3X163.671Y77.933I0.000J0.650
N30790G01Z-0.325F30.0
N30800G3X163.021Y78.583I-0.650J0.000F200.0
N30810G3X162.371Y77.933I0.000J-0.650
N30820G3X163.021Y77.283I0.650J0.000
N30830G3X163.671Y77.933I0.000J0.650
N30840G01Z-0.350F30.0
N30850G3X163.021Y78.583I-0.650J0.000F200.0
N30860G3X162.371Y77.933I0.000J-0.650
N30870G3X163.021Y77.283I0.650J0.000
N30880G3X163.671Y77.933I0.000J0.650
N30890G01Z-0.375F30.0
N30900G3X163.021Y78.583I-0.650J0.000F200.0
N30910G3X162.371Y77.933I0.000J-0.650
N30920G3X163.021Y77.283I0.650J0.000
N30930G3X163.671Y77.933I0.000J0.650
N30940G01Z-0.400F30.0
N30950G3X163.021Y78.583I-0.650J0.000F200.0
N30960G3X162.371Y77.933I0.000J-0.650
N30970G3X163.021Y77.283I0.650J0.000
N30980G3X163.671Y77.933I0.000J0.650
N30990G01Z-0.425F30.0
N31000G3X163.021Y78.583I-0.650J0.000F200.0
N31010G3X162.371Y77.933I0.000J-0.650
N31020G3X163.021Y77.283I0.650J0.000
N31030G3X163.671Y77.933I0.000J0.650
N31040G01Z-0.450F30.0
N31050G3X163.021Y78.583I-0.650J0.000F200.0
N31060G3X162.371Y77.933I0.000J-0.650
N31070G3X163.021Y77.283I0.650J0.000
N31080G3X163.671Y77.933I0.000J0.650
N31090G01Z-0.475F30.0
N31100G3X163.021Y78.583I-0.650J0.000F200.0
N31110G3X162.371Y77.933I0.000J-0.650
N31120G3X163.021Y77.283I0.650J0.000
N31130G3X163.671Y77.933I0.000J0.650
N31140G01Z-0.500F30.0
N31150G3X163.021Y78.583I-0.650J0.000F200.0
N31160G3X162.371Y77.933I0.000J-0.650
N31170G3X163.021Y77.283I0.650J0.000
N31180G3X163.671Y77.933I0.000J0.650
N31190G01Z-0.525F30.0
N31200G3X163.021Y78.583I-0.650J0.000F200.0
N31210G3X162.371Y77.933I0.000J-0.650
N31220G3X163.021Y77.283I0.650J0.000
N31230G3X163.671Y77.933I0.000J0.650
N31240G01Z-0.550F30.0
N31250G3X163.021Y78.583I-0.650J0.000F200.0
N31260G3X162.371Y77.933I0.000J-0.650
N31270G3X163.021Y77.283I0.650J0.000
N31280G3X163.671Y77.933I0.000J0.650
N31290G01Z-0.575F30.0
N31300G3X163.021Y78.583I-0.650J0.000F200.0
N31310G3X162.371Y77.933I0.000J-0.650
N31320G3X163.021Y77.283I0.650J0.000
N31330G3X163.671Y77.933I0.000J0.650
N31340G01Z-0.600F30.0
N31350G3X163.021Y78.583I-0.650J0.000F200.0
N31360G3X162.371Y77.933I0.000J-0.650
N31370G3X163.021Y77.283I0.650J0.000
N31380G3X163.671Y77.933I0.000J0.650
N31390G01Z-0.625F30.0
N31400G3X163.021Y78.583I-0.650J0.000F200.0
N31410G3X162.371Y77.933I0.000J-0.650
N31420G3X163.021Y77.283I0.650J0.000
N31430G3X163.671Y77.933I0.000J0.650
N31440G01Z-0.650F30.0
N31450G3X163.021Y78.583I-0.650J0.000F200.0
N31460G3X162.371Y77.933I0.000J-0.650
N31470G3X163.021Y77.283I0.650J0.000
N31480G3X163.671Y77.933I0.000J0.650
N31490G01Z-0.675F30.0
N31500G3X163.021Y78.583I-0.650J0.000F200.0
N31510G3X162.371Y77.933I0.000J-0.650
N31520G3X163.021Y77.283I0.650J0.000
N31530G3X163.671Y77.933I0.000J0.650
N31540G01Z-0.700F30.0
N31550G3X163.021Y78.583I-0.650J0.000F200.0
N31560G3X162.371Y77.933I0.000J-0.650
N31570G3X163.021Y77.283I0.650J0.000
N31580G3X163.671Y77.933I0.000J0.650
N31590G01Z-0.725F30.0
N31600G3X163.021Y78.583I-0.650J0.000F200.0
N31610G3X162.371Y77.933I0.000J-0.650
N31620G3X163.021Y77.283I0.650J0.000
N31630G3X163.671Y77.933I0.000J0.650
N31640G01Z-0.750F30.0
N31650G3X163.021Y78.583I-0.650J0.000F200.0
N31660G3X162.371Y77.933I0.000J-0.650
N31670G3X163.021Y77.283I0.650J0.000
N31680G3X163.671Y77.933I0.000J0.650
N31690G01Z-0.775F30.0
N31700G3X163.021Y78.583I-0.650J0.000F200.0
N31710G3X162.371Y77.933I0.000J-0.650
N31720G3X163.021Y77.283I0.650J0.000
N31730G3X163.671Y77.933I0.000J0.650
N31740G01Z-0.800F30.0
N31750G3X163.021Y78.583I-0.650J0.000F200.0
N31760G3X162.371Y77.933I0.000J-0.650
N31770G3X163.021Y77.283I0.650J0.000
N31780G3X163.671Y77.933I0.000J0.650
N31790G01Z-0.825F30.0
N31800G3X163.021Y78.583I-0.650J0.000F200.0
N31810G3X162.371Y77.933I0.000J-0.650
N31820G3X163.021Y77.283I0.650J0.000
N31830G3X163.671Y77.933I0.000J0.650
N31840G01Z-0.850F30.0
N31850G3X163.021Y78.583I-0.650J0.000F200.0
N31860G3X162.371Y77.933I0.000J-0.650
N31870G3X163.021Y77.283I0.650J0.000
N31880G3X163.671Y77.933I0.000J0.650
N31890G01Z-0.875F30.0
N31900G3X163.021Y78.583I-0.650J0.000F200.0
N31910G3X162.371Y77.933I0.000J-0.650
N31920G3X163.021Y77.283I0.650J0.000
N31930G3X163.671Y77.933I0.000J0.650
N31940G01Z-0.900F30.0
N31950G3X163.021Y78.583I-0.650J0.000F200.0
N31960G3X162.371Y77.933I0.000J-0.650
N31970G3X163.021Y77.283I0.650J0.000
N31980G3X163.671Y77.933I0.000J0.650
N31990G01Z-0.925F30.0
N32000G3X163.021Y78.583I-0.650J0.000F200.0
N32010G3X162.371Y77.933I0.000J-0.650
N32020G3X163.021Y77.283I0.650J0.000
N32030G3X163.671Y77.933I0.000J0.650
N32040G01Z-0.950F30.0
N32050G3X163.021Y78.583I-0.650J0.000F200.0
N32060G3X162.371Y77.933I0.000J-0.650
N32070G3X163.021Y77.283I0.650J0.000
N32080G3X163.671Y77.933I0.000J0.650
N32090G01Z-0.975F30.0
N32100G3X163.021Y78.583I-0.650J0.000F200.0
N32110G3X162.371Y77.933I0.000J-0.650
N32120G3X163.021Y77.283I0.650J0.000
N32130G3X163.671Y77.933I0.000J0.650
N32140G01Z-1.000F30.0
N32150G3X163.021Y78.583I-0.650J0.000F200.0
N32160G3X162.371Y77.933I0.000J-0.650
N32170G3X163.021Y77.283I0.650J0.000
N32180G3X163.671Y77.933I0.000J0.650
N32190G01Z-1.025F30.0
N32200G3X163.021Y78.583I-0.650J0.000F200.0
N32210G3X162.371Y77.933I0.000J-0.650
N32220G3X163.021Y77.283I0.650J0.000
N32230G3X163.671Y77.933I0.000J0.650
N32240G01Z-1.050F30.0
N32250G3X163.021Y78.583I-0.650J0.000F200.0
N32260G3X162.371Y77.933I0.000J-0.650
N32270G3X163.021Y77.283I0.650J0.000
N32280G3X163.671Y77.933I0.000J0.650
N32290G01Z-1.075F30.0
N32300G3X163.021Y78.583I-0.650J0.000F200.0
N32310G3X162.371Y77.933I0.000J-0.650
N32320G3X163.021Y77.283I0.650J0.000
N32330G3X163.671Y77.933I0.000J0.650
N32340G01Z-1.100F30.0
N32350G3X163.021Y78.583I-0.650J0.000F200.0
N32360G3X162.371Y77.933I0.000J-0.650
N32370G3X163.021Y77.283I0.650J0.000
N32380G3X163.671Y77.933I0.000J0.650
N32390G01Z-1.125F30.0
N32400G3X163.021Y78.583I-0.650J0.000F200.0
N32410G3X162.371Y77.933I0.000J-0.650
N32420G3X163.021Y77.283I0.650J0.000
N32430G3X163.671Y77.933I0.000J0.650
N32440G01Z-1.150F30.0
N32450G3X163.021Y78.583I-0.650J0.000F200.0
N32460G3X162.371Y77.933I0.000J-0.650
N32470G3X163.021Y77.283I0.650J0.000
N32480G3X163.671Y77.933I0.000J0.650
N32490G01Z-1.175F30.0
N32500G3X163.021Y78.583I-0.650J0.000F200.0
N32510G3X162.371Y77.933I0.000J-0.650
N32520G3X163.021Y77.283I0.650J0.000
N32530G3X163.671Y77.933I0.000J0.650
N32540G01Z-1.200F30.0
N32550G3X163.021Y78.583I-0.650J0.000F200.0
N32560G3X162.371Y77.933I0.000J-0.650
N32570G3X163.021Y77.283I0.650J0.000
N32580G3X163.671Y77.933I0.000J0.650
N32590G01Z-1.225F30.0
N32600G3X163.021Y78.583I-0.650J0.000F200.0
N32610G3X162.371Y77.933I0.000J-0.650
N32620G3X163.021Y77.283I0.650J0.000
N32630G3X163.671Y77.933I0.000J0.650
N32640G01Z-1.250F30.0
N32650G3X163.021Y78.583I-0.650J0.000F200.0
N32660G3X162.371Y77.933I0.000J-0.650
N32670G3X163.021Y77.283I0.650J0.000
N32680G3X163.671Y77.933I0.000J0.650
N32690G01Z-1.275F30.0
N32700G3X163.021Y78.583I-0.650J0.000F200.0
N32710G3X162.371Y77.933I0.000J-0.650
N32720G3X163.021Y77.283I0.650J0.000
N32730G3X163.671Y77.933I0.000J0.650
N32740G01Z-1.300F30.0
N32750G3X163.021Y78.583I-0.650J0.000F200.0
N32760G3X162.371Y77.933I0.000J-0.650
N32770G3X163.021Y77.283I0.650J0.000
N32780G3X163.671Y77.933I0.000J0.650
N32790G01Z-1.325F30.0
N32800G3X163.021Y78.583I-0.650J0.000F200.0
N32810G3X162.371Y77.933I0.000J-0.650
N32820G3X163.021Y77.283I0.650J0.000
N32830G3X163.671Y77.933I0.000J0.650
N32840G01Z-1.350F30.0
N32850G3X163.021Y78.583I-0.650J0.000F200.0
N32860G3X162.371Y77.933I0.000J-0.650
N32870G3X163.021Y77.283I0.650J0.000
N32880G3X163.671Y77.933I0.000J0.650
N32890G01Z-1.375F30.0
N32900G3X163.021Y78.583I-0.650J0.000F200.0
N32910G3X162.371Y77.933I0.000J-0.650
N32920G3X163.021Y77.283I0.650J0.000
N32930G3X163.671Y77.933I0.000J0.650
N32940G01Z-1.400F30.0
N32950G3X163.021Y78.583I-0.650J0.000F200.0
N32960G3X162.371Y77.933I0.000J-0.650
N32970G3X163.021Y77.283I0.650J0.000
N32980G3X163.671Y77.933I0.000J0.650
N32990G01Z-1.425F30.0
N33000G3X163.021Y78.583I-0.650J0.000F200.0
N33010G3X162.371Y77.933I0.000J-0.650
N33020G3X163.021Y77.283I0.650J0.000
N33030G3X163.671Y77.933I0.000J0.650
N33040G01Z-1.450F30.0
N33050G3X163.021Y78.583I-0.650J0.000F200.0
N33060G3X162.371Y77.933I0.000J-0.650
N33070G3X163.021Y77.283I0.650J0.000
N33080G3X163.671Y77.933I0.000J0.650
N33090G01Z-1.475F30.0
N33100G3X163.021Y78.583I-0.650J0.000F200.0
N33110G3X162.371Y77.933I0.000J-0.650
N33120G3X163.021Y77.283I0.650J0.000
N33130G3X163.671Y77.933I0.000J0.650
N33140G01Z-1.500F30.0
N33150G3X163.021Y78.583I-0.650J0.000F200.0
N33160G3X162.371Y77.933I0.000J-0.650
N33170G3X163.021Y77.283I0.650J0.000
N33180G3X163.671Y77.933I0.000J0.650
N33190G01Z-1.525F30.0
N33200G3X163.021Y78.583I-0.650J0.000F200.0
N33210G3X162.371Y77.933I0.000J-0.650
N33220G3X163.021Y77.283I0.650J0.000
N33230G3X163.671Y77.933I0.000J0.650
N33240G01Z-1.550F30.0
N33250G3X163.021Y78.583I-0.650J0.000F200.0
N33260G3X162.371Y77.933I0.000J-0.650
N33270G3X163.021Y77.283I0.650J0.000
N33280G3X163.671Y77.933I0.000J0.650
N33290G01Z-1.575F30.0
N33300G3X163.021Y78.583I-0.650J0.000F200.0
N33310G3X162.371Y77.933I0.000J-0.650
N33320G3X163.021Y77.283I0.650J0.000
N33330G3X163.671Y77.933I0.000J0.650
N33340G01Z-1.600F30.0
N33350G3X163.021Y78.583I-0.650J0.000F200.0
N33360G3X162.371Y77.933I0.000J-0.650
N33370G3X163.021Y77.283I0.650J0.000
N33380G3X163.671Y77.933I0.000J0.650
N33390G01Z-1.625F30.0
N33400G3X163.021Y78.583I-0.650J0.000F200.0
N33410G3X162.371Y77.933I0.000J-0.650
N33420G3X163.021Y77.283I0.650J0.000
N33430G3X163.671Y77.933I0.000J0.650
N33440G01Z-1.650F30.0
N33450G3X163.021Y78.583I-0.650J0.000F200.0
N33460G3X162.371Y77.933I0.000J-0.650
N33470G3X163.021Y77.283I0.650J0.000
N33480G3X163.671Y77.933I0.000J0.650
N33490G01Z-1.675F30.0
N33500G3X163.021Y78.583I-0.650J0.000F200.0
N33510G3X162.371Y77.933I0.000J-0.650
N33520G3X163.021Y77.283I0.650J0.000
N33530G3X163.671Y77.933I0.000J0.650
N33540G01Z-1.700F30.0
N33550G3X163.021Y78.583I-0.650J0.000F200.0
N33560G3X162.371Y77.933I0.000J-0.650
N33570G3X163.021Y77.283I0.650J0.000
N33580G3X163.671Y77.933I0.000J0.650
N33590G01Z-1.725F30.0
N33600G3X163.021Y78.583I-0.650J0.000F200.0
N33610G3X162.371Y77.933I0.000J-0.650
N33620G3X163.021Y77.283I0.650J0.000
N33630G3X163.671Y77.933I0.000J0.650
N33640G01Z-1.750F30.0
N33650G3X163.021Y78.583I-0.650J0.000F200.0
N33660G3X162.371Y77.933I0.000J-0.650
N33670G3X163.021Y77.283I0.650J0.000
N33680G3X163.671Y77.933I0.000J0.650
N33690G01Z-1.775F30.0
N33700G3X163.021Y78.583I-0.650J0.000F200.0
N33710G3X162.371Y77.933I0.000J-0.650
N33720G3X163.021Y77.283I0.650J0.000
N33730G3X163.671Y77.933I0.000J0.650
N33740G01Z-1.800F30.0
N33750G3X163.021Y78.583I-0.650J0.000F200.0
N33760G3X162.371Y77.933I0.000J-0.650
N33770G3X163.021Y77.283I0.650J0.000
N33780G3X163.671Y77.933I0.000J0.650
N33790G01Z-1.825F30.0
N33800G3X163.021Y78.583I-0.650J0.000F200.0
N33810G3X162.371Y77.933I0.000J-0.650
N33820G3X163.021Y77.283I0.650J0.000
N33830G3X163.671Y77.933I0.000J0.650
N33840G01Z-1.850F30.0
N33850G3X163.021Y78.583I-0.650J0.000F200.0
N33860G3X162.371Y77.933I0.000J-0.650
N33870G3X163.021Y77.283I0.650J0.000
N33880G3X163.671Y77.933I0.000J0.650
N33890G01Z-1.875F30.0
N33900G3X163.021Y78.583I-0.650J0.000F200.0
N33910G3X162.371Y77.933I0.000J-0.650
N33920G3X163.021Y77.283I0.650J0.000
N33930G3X163.671Y77.933I0.000J0.650
N33940G01Z-1.900F30.0
N33950G3X163.021Y78.583I-0.650J0.000F200.0
N33960G3X162.371Y77.933I0.000J-0.650
N33970G3X163.021Y77.283I0.650J0.000
N33980G3X163.671Y77.933I0.000J0.650
N33990G01Z-1.925F30.0
N34000G3X163.021Y78.583I-0.650J0.000F200.0
N34010G3X162.371Y77.933I0.000J-0.650
N34020G3X163.021Y77.283I0.650J0.000
N34030G3X163.671Y77.933I0.000J0.650
N34040G01Z-1.950F30.0
N34050G3X163.021Y78.583I-0.650J0.000F200.0
N34060G3X162.371Y77.933I0.000J-0.650
N34070G3X163.021Y77.283I0.650J0.000
N34080G3X163.671Y77.933I0.000J0.650
N34090G01Z-1.975F30.0
N34100G3X163.021Y78.583I-0.650J0.000F200.0
N34110G3X162.371Y77.933I0.000J-0.650
N34120G3X163.021Y77.283I0.650J0.000
N34130G3X163.671Y77.933I0.000J0.650
N34140G01Z-2.000F30.0
N34150G3X163.021Y78.583I-0.650J0.000F200.0
N34160G3X162.371Y77.933I0.000J-0.650
N34170G3X163.021Y77.283I0.650J0.000
N34180G3X163.671Y77.933I0.000J0.650
N34190G01Z-2.025F30.0
N34200G3X163.021Y78.583I-0.650J0.000F200.0
N34210G3X162.371Y77.933I0.000J-0.650
N34220G3X163.021Y77.283I0.650J0.000
N34230G3X163.671Y77.933I0.000J0.650
N34240G01Z-2.050F30.0
N34250G3X163.021Y78.583I-0.650J0.000F200.0
N34260G3X162.371Y77.933I0.000J-0.650
N34270G3X163.021Y77.283I0.650J0.000
N34280G3X163.671Y77.933I0.000J0.650
N34290G01Z-2.075F30.0
N34300G3X163.021Y78.583I-0.650J0.000F200.0
N34310G3X162.371Y77.933I0.000J-0.650
N34320G3X163.021Y77.283I0.650J0.000
N34330G3X163.671Y77.933I0.000J0.650
N34340G01Z-2.100F30.0
N34350G3X163.021Y78.583I-0.650J0.000F200.0
N34360G3X162.371Y77.933I0.000J-0.650
N34370G3X163.021Y77.283I0.650J0.000
N34380G3X163.671Y77.933I0.000J0.650
N34390G01Z-2.125F30.0
N34400G3X163.021Y78.583I-0.650J0.000F200.0
N34410G3X162.371Y77.933I0.000J-0.650
N34420G3X163.021Y77.283I0.650J0.000
N34430G3X163.671Y77.933I0.000J0.650
N34440G01Z-2.150F30.0
N34450G3X163.021Y78.583I-0.650J0.000F200.0
N34460G3X162.371Y77.933I0.000J-0.650
N34470G3X163.021Y77.283I0.650J0.000
N34480G3X163.671Y77.933I0.000J0.650
N34490G01Z-2.175F30.0
N34500G3X163.021Y78.583I-0.650J0.000F200.0
N34510G3X162.371Y77.933I0.000J-0.650
N34520G3X163.021Y77.283I0.650J0.000
N34530G3X163.671Y77.933I0.000J0.650
N34540G01Z-2.200F30.0
N34550G3X163.021Y78.583I-0.650J0.000F200.0
N34560G3X162.371Y77.933I0.000J-0.650
N34570G3X163.021Y77.283I0.650J0.000
N34580G3X163.671Y77.933I0.000J0.650
N34590G01Z-2.225F30.0
N34600G3X163.021Y78.583I-0.650J0.000F200.0
N34610G3X162.371Y77.933I0.000J-0.650
N34620G3X163.021Y77.283I0.650J0.000
N34630G3X163.671Y77.933I0.000J0.650
N34640G01Z-2.250F30.0
N34650G3X163.021Y78.583I-0.650J0.000F200.0
N34660G3X162.371Y77.933I0.000J-0.650
N34670G3X163.021Y77.283I0.650J0.000
N34680G3X163.671Y77.933I0.000J0.650
N34690G01Z-2.275F30.0
N34700G3X163.021Y78.583I-0.650J0.000F200.0
N34710G3X162.371Y77.933I0.000J-0.650
N34720G3X163.021Y77.283I0.650J0.000
N34730G3X163.671Y77.933I0.000J0.650
N34740G01Z-2.300F30.0
N34750G3X163.021Y78.583I-0.650J0.000F200.0
N34760G3X162.371Y77.933I0.000J-0.650
N34770G3X163.021Y77.283I0.650J0.000
N34780G3X163.671Y77.933I0.000J0.650
N34790G01Z-2.325F30.0
N34800G3X163.021Y78.583I-0.650J0.000F200.0
N34810G3X162.371Y77.933I0.000J-0.650
N34820G3X163.021Y77.283I0.650J0.000
N34830G3X163.671Y77.933I0.000J0.650
N34840G01Z-2.350F30.0
N34850G3X163.021Y78.583I-0.650J0.000F200.0
N34860G3X162.371Y77.933I0.000J-0.650
N34870G3X163.021Y77.283I0.650J0.000
N34880G3X163.671Y77.933I0.000J0.650
N34890G01Z-2.375F30.0
N34900G3X163.021Y78.583I-0.650J0.000F200.0
N34910G3X162.371Y77.933I0.000J-0.650
N34920G3X163.021Y77.283I0.650J0.000
N34930G3X163.671Y77.933I0.000J0.650
N34940G01Z-2.400F30.0
N34950G3X163.021Y78.583I-0.650J0.000F200.0
N34960G3X162.371Y77.933I0.000J-0.650
N34970G3X163.021Y77.283I0.650J0.000
N34980G3X163.671Y77.933I0.000J0.650
N34990G01Z-2.425F30.0
N35000G3X163.021Y78.583I-0.650J0.000F200.0
N35010G3X162.371Y77.933I0.000J-0.650
N35020G3X163.021Y77.283I0.650J0.000
N35030G3X163.671Y77.933I0.000J0.650
N35040G01Z-2.450F30.0
N35050G3X163.021Y78.583I-0.650J0.000F200.0
N35060G3X162.371Y77.933I0.000J-0.650
N35070G3X163.021Y77.283I0.650J0.000
N35080G3X163.671Y77.933I0.000J0.650
N35090G01Z-2.475F30.0
N35100G3X163.021Y78.583I-0.650J0.000F200.0
N35110G3X162.371Y77.933I0.000J-0.650
N35120G3X163.021Y77.283I0.650J0.000
N35130G3X163.671Y77.933I0.000J0.650
N35140G01Z-2.500F30.0
N35150G3X163.021Y78.583I-0.650J0.000F200.0
N35160G3X162.371Y77.933I0.000J-0.650
N35170G3X163.021Y77.283I0.650J0.000
N35180G3X163.671Y77.933I0.000J0.650
N35190G01Z-2.525F30.0
N35200G3X163.021Y78.583I-0.650J0.000F200.0
N35210G3X162.371Y77.933I0.000J-0.650
N35220G3X163.021Y77.283I0.650J0.000
N35230G3X163.671Y77.933I0.000J0.650
N35240G01Z-2.550F30.0
N35250G3X163.021Y78.583I-0.650J0.000F200.0
N35260G3X162.371Y77.933I0.000J-0.650
N35270G3X163.021Y77.283I0.650J0.000
N35280G3X163.671Y77.933I0.000J0.650
N35290G01Z-2.575F30.0
N35300G3X163.021Y78.583I-0.650J0.000F200.0
N35310G3X162.371Y77.933I0.000J-0.650
N35320G3X163.021Y77.283I0.650J0.000
N35330G3X163.671Y77.933I0.000J0.650
N35340G01Z-2.600F30.0
N35350G3X163.021Y78.583I-0.650J0.000F200.0
N35360G3X162.371Y77.933I0.000J-0.650
N35370G3X163.021Y77.283I0.650J0.000
N35380G3X163.671Y77.933I0.000J0.650
N35390G01Z-2.625F30.0
N35400G3X163.021Y78.583I-0.650J0.000F200.0
N35410G3X162.371Y77.933I0.000J-0.650
N35420G3X163.021Y77.283I0.650J0.000
N35430G3X163.671Y77.933I0.000J0.650
N35440G01Z-2.650F30.0
N35450G3X163.021Y78.583I-0.650J0.000F200.0
N35460G3X162.371Y77.933I0.000J-0.650
N35470G3X163.021Y77.283I0.650J0.000
N35480G3X163.671Y77.933I0.000J0.650
N35490G01Z-2.675F30.0
N35500G3X163.021Y78.583I-0.650J0.000F200.0
N35510G3X162.371Y77.933I0.000J-0.650
N35520G3X163.021Y77.283I0.650J0.000
N35530G3X163.671Y77.933I0.000J0.650
N35540G01Z-2.700F30.0
N35550G3X163.021Y78.583I-0.650J0.000F200.0
N35560G3X162.371Y77.933I0.000J-0.650
N35570G3X163.021Y77.283I0.650J0.000
N35580G3X163.671Y77.933I0.000J0.650
N35590G01Z-2.725F30.0
N35600G3X163.021Y78.583I-0.650J0.000F200.0
N35610G3X162.371Y77.933I0.000J-0.650
N35620G3X163.021Y77.283I0.650J0.000
N35630G3X163.671Y77.933I0.000J0.650
N35640G01Z-2.750F30.0
N35650G3X163.021Y78.583I-0.650J0.000F200.0
N35660G3X162.371Y77.933I0.000J-0.650
N35670G3X163.021Y77.283I0.650J0.000
N35680G3X163.671Y77.933I0.000J0.650
N35690G01Z-2.775F30.0
N35700G3X163.021Y78.583I-0.650J0.000F200.0
N35710G3X162.371Y77.933I0.000J-0.650
N35720G3X163.021Y77.283I0.650J0.000
N35730G3X163.671Y77.933I0.000J0.650
N35740G01Z-2.800F30.0
N35750G3X163.021Y78.583I-0.650J0.000F200.0
N35760G3X162.371Y77.933I0.000J-0.650
N35770G3X163.021Y77.283I0.650J0.000
N35780G3X163.671Y77.933I0.000J0.650
N35790G01Z-2.825F30.0
N35800G3X163.021Y78.583I-0.650J0.000F200.0
N35810G3X162.371Y77.933I0.000J-0.650
N35820G3X163.021Y77.283I0.650J0.000
N35830G3X163.671Y77.933I0.000J0.650
N35840G01Z-2.850F30.0
N35850G3X163.021Y78.583I-0.650J0.000F200.0
N35860G3X162.371Y77.933I0.000J-0.650
N35870G3X163.021Y77.283I0.650J0.000
N35880G3X163.671Y77.933I0.000J0.650
N35890G01Z-2.875F30.0
N35900G3X163.021Y78.583I-0.650J0.000F200.0
N35910G3X162.371Y77.933I0.000J-0.650
N35920G3X163.021Y77.283I0.650J0.000
N35930G3X163.671Y77.933I0.000J0.650
N35940G01Z-2.900F30.0
N35950G3X163.021Y78.583I-0.650J0.000F200.0
N35960G3X162.371Y77.933I0.000J-0.650
N35970G3X163.021Y77.283I0.650J0.000
N35980G3X163.671Y77.933I0.000J0.650
N35990G01Z-2.925F30.0
N36000G3X163.021Y78.583I-0.650J0.000F200.0
N36010G3X162.371Y77.933I0.000J-0.650
N36020G3X163.021Y77.283I0.650J0.000
N36030G3X163.671Y77.933I0.000J0.650
N36040G01Z-2.950F30.0
N36050G3X163.021Y78.583I-0.650J0.000F200.0
N36060G3X162.371Y77.933I0.000J-0.650
N36070G3X163.021Y77.283I0.650J0.000
N36080G3X163.671Y77.933I0.000J0.650
N36090G01Z-2.975F30.0
N36100G3X163.021Y78.583I-0.650J0.000F200.0
N36110G3X162.371Y77.933I0.000J-0.650
N36120G3X163.021Y77.283I0.650J0.000
N36130G3X163.671Y77.933I0.000J0.650
N36140G01Z-3.000F30.0
N36150G3X163.021Y78.583I-0.650J0.000F200.0
N36160G3X162.371Y77.933I0.000J-0.650
N36170G3X163.021Y77.283I0.650J0.000
N36180G3X163.671Y77.933I0.000J0.650
N36190G00Z6.000
N36200G00X171.671Y69.933
N36210G01Z-0.025F30.0
N36220G3X171.021Y70.583I-0.650J0.000F200.0
N36230G3X170.371Y69.933I0.000J-0.650
N36240G3X171.021Y69.283I0.650J0.000
N36250G3X171.671Y69.933I0.000J0.650
N36260G01Z-0.050F30.0
N36270G3X171.021Y70.583I-0.650J0.000F200.0
N36280G3X170.371Y69.933I0.000J-0.650
N36290G3X171.021Y69.283I0.650J0.000
N36300G3X171.671Y69.933I0.000J0.650
N36310G01Z-0.075F30.0
N36320G3X171.021Y70.583I-0.650J0.000F200.0
N36330G3X170.371Y69.933I0.000J-0.650
N36340G3X171.021Y69.283I0.650J0.000
N36350G3X171.671Y69.933I0.000J0.650
N36360G01Z-0.100F30.0
N36370G3X171.021Y70.583I-0.650J0.000F200.0
N36380G3X170.371Y69.933I0.000J-0.650
N36390G3X171.021Y69.283I0.650J0.000
N36400G3X171.671Y69.933I0.000J0.650
N36410G01Z-0.125F30.0
N36420G3X171.021Y70.583I-0.650J0.000F200.0
N36430G3X170.371Y69.933I0.000J-0.650
N36440G3X171.021Y69.283I0.650J0.000
N36450G3X171.671Y69.933I0.000J0.650
N36460G01Z-0.150F30.0
N36470G3X171.021Y70.583I-0.650J0.000F200.0
N36480G3X170.371Y69.933I0.000J-0.650
N36490G3X171.021Y69.283I0.650J0.000
N36500G3X171.671Y69.933I0.000J0.650
N36510G01Z-0.175F30.0
N36520G3X171.021Y70.583I-0.650J0.000F200.0
N36530G3X170.371Y69.933I0.000J-0.650
N36540G3X171.021Y69.283I0.650J0.000
N36550G3X171.671Y69.933I0.000J0.650
N36560G01Z-0.200F30.0
N36570G3X171.021Y70.583I-0.650J0.000F200.0
N36580G3X170.371Y69.933I0.000J-0.650
N36590G3X171.021Y69.283I0.650J0.000
N36600G3X171.671Y69.933I0.000J0.650
N36610G01Z-0.225F30.0
N36620G3X171.021Y70.583I-0.650J0.000F200.0
N36630G3X170.371Y69.933I0.000J-0.650
N36640G3X171.021Y69.283I0.650J0.000
N36650G3X171.671Y69.933I0.000J0.650
N36660G01Z-0.250F30.0
N36670G3X171.021Y70.583I-0.650J0.000F200.0
N36680G3X170.371Y69.933I0.000J-0.650
N36690G3X171.021Y69.283I0.650J0.000
N36700G3X171.671Y69.933I0.000J0.650
N36710G01Z-0.275F30.0
N36720G3X171.021Y70.583I-0.650J0.000F200.0
N36730G3X170.371Y69.933I0.000J-0.650
N36740G3X171.021Y69.283I0.650J0.000
N36750G3X171.671Y69.933I0.000J0.650
N36760G01Z-0.300F30.0
N36770G3X171.021Y70.583I-0.650J0.000F200.0
N36780G3X170.371Y69.933I0.000J-0.650
N36790G3X171.021Y69.283I0.650J0.000
N36800G3X171.671Y69.933I0.000J0.650
N36810G01Z-0.325F30.0
N36820G3X171.021Y70.583I-0.650J0.000F200.0
N36830G3X170.371Y69.933I0.000J-0.650
N36840G3X171.021Y69.283I0.650J0.000
N36850G3X171.671Y69.933I0.000J0.650
N36860G01Z-0.350F30.0
N36870G3X171.021Y70.583I-0.650J0.000F200.0
N36880G3X170.371Y69.933I0.000J-0.650
N36890G3X171.021Y69.283I0.650J0.000
N36900G3X171.671Y69.933I0.000J0.650
N36910G01Z-0.375F30.0
N36920G3X171.021Y70.583I-0.650J0.000F200.0
N36930G3X170.371Y69.933I0.000J-0.650
N36940G3X171.021Y69.283I0.650J0.000
N36950G3X171.671Y69.933I0.000J0.650
N36960G01Z-0.400F30.0
N36970G3X171.021Y70.583I-0.650J0.000F200.0
N36980G3X170.371Y69.933I0.000J-0.650
N36990G3X171.021Y69.283I0.650J0.000
N37000G3X171.671Y69.933I0.000J0.650
N37010G01Z-0.425F30.0
N37020G3X171.021Y70.583I-0.650J0.000F200.0
N37030G3X170.371Y69.933I0.000J-0.650
N37040G3X171.021Y69.283I0.650J0.000
N37050G3X171.671Y69.933I0.000J0.650
N37060G01Z-0.450F30.0
N37070G3X171.021Y70.583I-0.650J0.000F200.0
N37080G3X170.371Y69.933I0.000J-0.650
N37090G3X171.021Y69.283I0.650J0.000
N37100G3X171.671Y69.933I0.000J0.650
N37110G01Z-0.475F30.0
N37120G3X171.021Y70.583I-0.650J0.000F200.0
N37130G3X170.371Y69.933I0.000J-0.650
N37140G3X171.021Y69.283I0.650J0.000
N37150G3X171.671Y69.933I0.000J0.650
N37160G01Z-0.500F30.0
N37170G3X171.021Y70.583I-0.650J0.000F200.0
N37180G3X170.371Y69.933I0.000J-0.650
N37190G3X171.021Y69.283I0.650J0.000
N37200G3X171.671Y69.933I0.000J0.650
N37210G01Z-0.525F30.0
N37220G3X171.021Y70.583I-0.650J0.000F200.0
N37230G3X170.371Y69.933I0.000J-0.650
N37240G3X171.021Y69.283I0.650J0.000
N37250G3X171.671Y69.933I0.000J0.650
N37260G01Z-0.550F30.0
N37270G3X171.021Y70.583I-0.650J0.000F200.0
N37280G3X170.371Y69.933I0.000J-0.650
N37290G3X171.021Y69.283I0.650J0.000
N37300G3X171.671Y69.933I0.000J0.650
N37310G01Z-0.575F30.0
N37320G3X171.021Y70.583I-0.650J0.000F200.0
N37330G3X170.371Y69.933I0.000J-0.650
N37340G3X171.021Y69.283I0.650J0.000
N37350G3X171.671Y69.933I0.000J0.650
N37360G01Z-0.600F30.0
N37370G3X171.021Y70.583I-0.650J0.000F200.0
N37380G3X170.371Y69.933I0.000J-0.650
N37390G3X171.021Y69.283I0.650J0.000
N37400G3X171.671Y69.933I0.000J0.650
N37410G01Z-0.625F30.0
N37420G3X171.021Y70.583I-0.650J0.000F200.0
N37430G3X170.371Y69.933I0.000J-0.650
N37440G3X171.021Y69.283I0.650J0.000
N37450G3X171.671Y69.933I0.000J0.650
N37460G01Z-0.650F30.0
N37470G3X171.021Y70.583I-0.650J0.000F200.0
N37480G3X170.371Y69.933I0.000J-0.650
N37490G3X171.021Y69.283I0.650J0.000
N37500G3X171.671Y69.933I0.000J0.650
N37510G01Z-0.675F30.0
N37520G3X171.021Y70.583I-0.650J0.000F200.0
N37530G3X170.371Y69.933I0.000J-0.650
N37540G3X171.021Y69.283I0.650J0.000
N37550G3X171.671Y69.933I0.000J0.650
N37560G01Z-0.700F30.0
N37570G3X171.021Y70.583I-0.650J0.000F200.0
N37580G3X170.371Y69.933I0.000J-0.650
N37590G3X171.021Y69.283I0.650J0.000
N37600G3X171.671Y69.933I0.000J0.650
N37610G01Z-0.725F30.0
N37620G3X171.021Y70.583I-0.650J0.000F200.0
N37630G3X170.371Y69.933I0.000J-0.650
N37640G3X171.021Y69.283I0.650J0.000
N37650G3X171.671Y69.933I0.000J0.650
N37660G01Z-0.750F30.0
N37670G3X171.021Y70.583I-0.650J0.000F200.0
N37680G3X170.371Y69.933I0.000J-0.650
N37690G3X171.021Y69.283I0.650J0.000
N37700G3X171.671Y69.933I0.000J0.650
N37710G01Z-0.775F30.0
N37720G3X171.021Y70.583I-0.650J0.000F200.0
N37730G3X170.371Y69.933I0.000J-0.650
N37740G3X171.021Y69.283I0.650J0.000
N37750G3X171.671Y69.933I0.000J0.650
N37760G01Z-0.800F30.0
N37770G3X171.021Y70.583I-0.650J0.000F200.0
N37780G3X170.371Y69.933I0.000J-0.650
N37790G3X171.021Y69.283I0.650J0.000
N37800G3X171.671Y69.933I0.000J0.650
N37810G01Z-0.825F30.0
N37820G3X171.021Y70.583I-0.650J0.000F200.0
N37830G3X170.371Y69.933I0.000J-0.650
N37840G3X171.021Y69.283I0.650J0.000
N37850G3X171.671Y69.933I0.000J0.650
N37860G01Z-0.850F30.0
N37870G3X171.021Y70.583I-0.650J0.000F200.0
N37880G3X170.371Y69.933I0.000J-0.650
N37890G3X171.021Y69.283I0.650J0.000
N37900G3X171.671Y69.933I0.000J0.650
N37910G01Z-0.875F30.0
N37920G3X171.021Y70.583I-0.650J0.000F200.0
N37930G3X170.371Y69.933I0.000J-0.650
N37940G3X171.021Y69.283I0.650J0.000
N37950G3X171.671Y69.933I0.000J0.650
N37960G01Z-0.900F30.0
N37970G3X171.021Y70.583I-0.650J0.000F200.0
N37980G3X170.371Y69.933I0.000J-0.650
N37990G3X171.021Y69.283I0.650J0.000
N38000G3X171.671Y69.933I0.000J0.650
N38010G01Z-0.925F30.0
N38020G3X171.021Y70.583I-0.650J0.000F200.0
N38030G3X170.371Y69.933I0.000J-0.650
N38040G3X171.021Y69.283I0.650J0.000
N38050G3X171.671Y69.933I0.000J0.650
N38060G01Z-0.950F30.0
N38070G3X171.021Y70.583I-0.650J0.000F200.0
N38080G3X170.371Y69.933I0.000J-0.650
N38090G3X171.021Y69.283I0.650J0.000
N38100G3X171.671Y69.933I0.000J0.650
N38110G01Z-0.975F30.0
N38120G3X171.021Y70.583I-0.650J0.000F200.0
N38130G3X170.371Y69.933I0.000J-0.650
N38140G3X171.021Y69.283I0.650J0.000
N38150G3X171.671Y69.933I0.000J0.650
N38160G01Z-1.000F30.0
N38170G3X171.021Y70.583I-0.650J0.000F200.0
N38180G3X170.371Y69.933I0.000J-0.650
N38190G3X171.021Y69.283I0.650J0.000
N38200G3X171.671Y69.933I0.000J0.650
N38210G01Z-1.025F30.0
N38220G3X171.021Y70.583I-0.650J0.000F200.0
N38230G3X170.371Y69.933I0.000J-0.650
N38240G3X171.021Y69.283I0.650J0.000
N38250G3X171.671Y69.933I0.000J0.650
N38260G01Z-1.050F30.0
N38270G3X171.021Y70.583I-0.650J0.000F200.0
N38280G3X170.371Y69.933I0.000J-0.650
N38290G3X171.021Y69.283I0.650J0.000
N38300G3X171.671Y69.933I0.000J0.650
N38310G01Z-1.075F30.0
N38320G3X171.021Y70.583I-0.650J0.000F200.0
N38330G3X170.371Y69.933I0.000J-0.650
N38340G3X171.021Y69.283I0.650J0.000
N38350G3X171.671Y69.933I0.000J0.650
N38360G01Z-1.100F30.0
N38370G3X171.021Y70.583I-0.650J0.000F200.0
N38380G3X170.371Y69.933I0.000J-0.650
N38390G3X171.021Y69.283I0.650J0.000
N38400G3X171.671Y69.933I0.000J0.650
N38410G01Z-1.125F30.0
N38420G3X171.021Y70.583I-0.650J0.000F200.0
N38430G3X170.371Y69.933I0.000J-0.650
N38440G3X171.021Y69.283I0.650J0.000
N38450G3X171.671Y69.933I0.000J0.650
N38460G01Z-1.150F30.0
N38470G3X171.021Y70.583I-0.650J0.000F200.0
N38480G3X170.371Y69.933I0.000J-0.650
N38490G3X171.021Y69.283I0.650J0.000
N38500G3X171.671Y69.933I0.000J0.650
N38510G01Z-1.175F30.0
N38520G3X171.021Y70.583I-0.650J0.000F200.0
N38530G3X170.371Y69.933I0.000J-0.650
N38540G3X171.021Y69.283I0.650J0.000
N38550G3X171.671Y69.933I0.000J0.650
N38560G01Z-1.200F30.0
N38570G3X171.021Y70.583I-0.650J0.000F200.0
N38580G3X170.371Y69.933I0.000J-0.650
N38590G3X171.021Y69.283I0.650J0.000
N38600G3X171.671Y69.933I0.000J0.650
N38610G01Z-1.225F30.0
N38620G3X171.021Y70.583I-0.650J0.000F200.0
N38630G3X170.371Y69.933I0.000J-0.650
N38640G3X171.021Y69.283I0.650J0.000
N38650G3X171.671Y69.933I0.000J0.650
N38660G01Z-1.250F30.0
N38670G3X171.021Y70.583I-0.650J0.000F200.0
N38680G3X170.371Y69.933I0.000J-0.650
N38690G3X171.021Y69.283I0.650J0.000
N38700G3X171.671Y69.933I0.000J0.650
N38710G01Z-1.275F30.0
N38720G3X171.021Y70.583I-0.650J0.000F200.0
N38730G3X170.371Y69.933I0.000J-0.650
N38740G3X171.021Y69.283I0.650J0.000
N38750G3X171.671Y69.933I0.000J0.650
N38760G01Z-1.300F30.0
N38770G3X171.021Y70.583I-0.650J0.000F200.0
N38780G3X170.371Y69.933I0.000J-0.650
N38790G3X171.021Y69.283I0.650J0.000
N38800G3X171.671Y69.933I0.000J0.650
N38810G01Z-1.325F30.0
N38820G3X171.021Y70.583I-0.650J0.000F200.0
N38830G3X170.371Y69.933I0.000J-0.650
N38840G3X171.021Y69.283I0.650J0.000
N38850G3X171.671Y69.933I0.000J0.650
N38860G01Z-1.350F30.0
N38870G3X171.021Y70.583I-0.650J0.000F200.0
N38880G3X170.371Y69.933I0.000J-0.650
N38890G3X171.021Y69.283I0.650J0.000
N38900G3X171.671Y69.933I0.000J0.650
N38910G01Z-1.375F30.0
N38920G3X171.021Y70.583I-0.650J0.000F200.0
N38930G3X170.371Y69.933I0.000J-0.650
N38940G3X171.021Y69.283I0.650J0.000
N38950G3X171.671Y69.933I0.000J0.650
N38960G01Z-1.400F30.0
N38970G3X171.021Y70.583I-0.650J0.000F200.0
N38980G3X170.371Y69.933I0.000J-0.650
N38990G3X171.021Y69.283I0.650J0.000
N39000G3X171.671Y69.933I0.000J0.650
N39010G01Z-1.425F30.0
N39020G3X171.021Y70.583I-0.650J0.000F200.0
