( Profile 2 )
( USBCNC Postprocessor )
N20G00G21G17G90G40G49
N30G80
N40G00G43Z20.000H5
N50S8000M03
N60G94
N70X0.000Y0.000F200.0
N80G00X22.500Y24.000Z6.000
N90G01Z-0.025F30.0
N100G3X24.000Y22.500I1.500J0.000F200.0
N110G01X38.781
N120X42.781
N130X53.757
N140G3X54.818Y25.061I0.000J1.500
N150G01X41.006Y38.872
N160X38.178Y41.701
N170X25.061Y54.818
N180G3X22.500Y53.757I-1.061J-1.061
N190G01Y38.920
N200Y34.920
N210Y24.000
N220G01Z-0.050F30.0
N230G3X24.000Y22.500I1.500J0.000F200.0
N240G01X38.781
N250X42.781
N260X53.757
N270G3X54.818Y25.061I0.000J1.500
N280G01X41.006Y38.872
N290X38.178Y41.701
N300X25.061Y54.818
N310G3X22.500Y53.757I-1.061J-1.061
N320G01Y38.920
N330Y34.920
N340Y24.000
N350G01Z-0.075F30.0
N360G3X24.000Y22.500I1.500J0.000F200.0
N370G01X38.781
N380X42.781
N390X53.757
N400G3X54.818Y25.061I0.000J1.500
N410G01X41.006Y38.872
N420X38.178Y41.701
N430X25.061Y54.818
N440G3X22.500Y53.757I-1.061J-1.061
N450G01Y38.920
N460Y34.920
N470Y24.000
N480G01Z-0.100F30.0
N490G3X24.000Y22.500I1.500J0.000F200.0
N500G01X38.781
N510X42.781
N520X53.757
N530G3X54.818Y25.061I0.000J1.500
N540G01X41.006Y38.872
N550X38.178Y41.701
N560X25.061Y54.818
N570G3X22.500Y53.757I-1.061J-1.061
N580G01Y38.920
N590Y34.920
N600Y24.000
N610G01Z-0.125F30.0
N620G3X24.000Y22.500I1.500J0.000F200.0
N630G01X38.781
N640X42.781
N650X53.757
N660G3X54.818Y25.061I0.000J1.500
N670G01X41.006Y38.872
N680X38.178Y41.701
N690X25.061Y54.818
N700G3X22.500Y53.757I-1.061J-1.061
N710G01Y38.920
N720Y34.920
N730Y24.000
N740G01Z-0.150F30.0
N750G3X24.000Y22.500I1.500J0.000F200.0
N760G01X38.781
N770X42.781
N780X53.757
N790G3X54.818Y25.061I0.000J1.500
N800G01X41.006Y38.872
N810X38.178Y41.701
N820X25.061Y54.818
N830G3X22.500Y53.757I-1.061J-1.061
N840G01Y38.920
N850Y34.920
N860Y24.000
N870G01Z-0.175F30.0
N880G3X24.000Y22.500I1.500J0.000F200.0
N890G01X38.781
N900X42.781
N910X53.757
N920G3X54.818Y25.061I0.000J1.500
N930G01X41.006Y38.872
N940X38.178Y41.701
N950X25.061Y54.818
N960G3X22.500Y53.757I-1.061J-1.061
N970G01Y38.920
N980Y34.920
N990Y24.000
N1000G01Z-0.200F30.0
N1010G3X24.000Y22.500I1.500J0.000F200.0
N1020G01X38.781
N1030X42.781
N1040X53.757
N1050G3X54.818Y25.061I0.000J1.500
N1060G01X41.006Y38.872
N1070X38.178Y41.701
N1080X25.061Y54.818
N1090G3X22.500Y53.757I-1.061J-1.061
N1100G01Y38.920
N1110Y34.920
N1120Y24.000
N1130G01Z-0.225F30.0
N1140G3X24.000Y22.500I1.500J0.000F200.0
N1150G01X38.781
N1160X42.781
N1170X53.757
N1180G3X54.818Y25.061I0.000J1.500
N1190G01X41.006Y38.872
N1200X38.178Y41.701
N1210X25.061Y54.818
N1220G3X22.500Y53.757I-1.061J-1.061
N1230G01Y38.920
N1240Y34.920
N1250Y24.000
N1260G01Z-0.250F30.0
N1270G3X24.000Y22.500I1.500J0.000F200.0
N1280G01X38.781
N1290X42.781
N1300X53.757
N1310G3X54.818Y25.061I0.000J1.500
N1320G01X41.006Y38.872
N1330X38.178Y41.701
N1340X25.061Y54.818
N1350G3X22.500Y53.757I-1.061J-1.061
N1360G01Y38.920
N1370Y34.920
N1380Y24.000
N1390G01Z-0.275F30.0
N1400G3X24.000Y22.500I1.500J0.000F200.0
N1410G01X38.781
N1420X42.781
N1430X53.757
N1440G3X54.818Y25.061I0.000J1.500
N1450G01X41.006Y38.872
N1460X38.178Y41.701
N1470X25.061Y54.818
N1480G3X22.500Y53.757I-1.061J-1.061
N1490G01Y38.920
N1500Y34.920
N1510Y24.000
N1520G01Z-0.300F30.0
N1530G3X24.000Y22.500I1.500J0.000F200.0
N1540G01X38.781
N1550X42.781
N1560X53.757
N1570G3X54.818Y25.061I0.000J1.500
N1580G01X41.006Y38.872
N1590X38.178Y41.701
N1600X25.061Y54.818
N1610G3X22.500Y53.757I-1.061J-1.061
N1620G01Y38.920
N1630Y34.920
N1640Y24.000
N1650G01Z-0.325F30.0
N1660G3X24.000Y22.500I1.500J0.000F200.0
N1670G01X38.781
N1680X42.781
N1690X53.757
N1700G3X54.818Y25.061I0.000J1.500
N1710G01X41.006Y38.872
N1720X38.178Y41.701
N1730X25.061Y54.818
N1740G3X22.500Y53.757I-1.061J-1.061
N1750G01Y38.920
N1760Y34.920
N1770Y24.000
N1780G01Z-0.350F30.0
N1790G3X24.000Y22.500I1.500J0.000F200.0
N1800G01X38.781
N1810X42.781
N1820X53.757
N1830G3X54.818Y25.061I0.000J1.500
N1840G01X41.006Y38.872
N1850X38.178Y41.701
N1860X25.061Y54.818
N1870G3X22.500Y53.757I-1.061J-1.061
N1880G01Y38.920
N1890Y34.920
N1900Y24.000
N1910G01Z-0.375F30.0
N1920G3X24.000Y22.500I1.500J0.000F200.0
N1930G01X38.781
N1940X42.781
N1950X53.757
N1960G3X54.818Y25.061I0.000J1.500
N1970G01X41.006Y38.872
N1980X38.178Y41.701
N1990X25.061Y54.818
N2000G3X22.500Y53.757I-1.061J-1.061
N2010G01Y38.920
N2020Y34.920
N2030Y24.000
N2040G01Z-0.400F30.0
N2050G3X24.000Y22.500I1.500J0.000F200.0
N2060G01X38.781
N2070X42.781
N2080X53.757
N2090G3X54.818Y25.061I0.000J1.500
N2100G01X41.006Y38.872
N2110X38.178Y41.701
N2120X25.061Y54.818
N2130G3X22.500Y53.757I-1.061J-1.061
N2140G01Y38.920
N2150Y34.920
N2160Y24.000
N2170G01Z-0.425F30.0
N2180G3X24.000Y22.500I1.500J0.000F200.0
N2190G01X38.781
N2200X42.781
N2210X53.757
N2220G3X54.818Y25.061I0.000J1.500
N2230G01X41.006Y38.872
N2240X38.178Y41.701
N2250X25.061Y54.818
N2260G3X22.500Y53.757I-1.061J-1.061
N2270G01Y38.920
N2280Y34.920
N2290Y24.000
N2300G01Z-0.450F30.0
N2310G3X24.000Y22.500I1.500J0.000F200.0
N2320G01X38.781
N2330X42.781
N2340X53.757
N2350G3X54.818Y25.061I0.000J1.500
N2360G01X41.006Y38.872
N2370X38.178Y41.701
N2380X25.061Y54.818
N2390G3X22.500Y53.757I-1.061J-1.061
N2400G01Y38.920
N2410Y34.920
N2420Y24.000
N2430G01Z-0.475F30.0
N2440G3X24.000Y22.500I1.500J0.000F200.0
N2450G01X38.781
N2460X42.781
N2470X53.757
N2480G3X54.818Y25.061I0.000J1.500
N2490G01X41.006Y38.872
N2500X38.178Y41.701
N2510X25.061Y54.818
N2520G3X22.500Y53.757I-1.061J-1.061
N2530G01Y38.920
N2540Y34.920
N2550Y24.000
N2560G01Z-0.500F30.0
N2570G3X24.000Y22.500I1.500J0.000F200.0
N2580G01X38.781
N2590X42.781
N2600X53.757
N2610G3X54.818Y25.061I0.000J1.500
N2620G01X41.006Y38.872
N2630X38.178Y41.701
N2640X25.061Y54.818
N2650G3X22.500Y53.757I-1.061J-1.061
N2660G01Y38.920
N2670Y34.920
N2680Y24.000
N2690G01Z-0.525F30.0
N2700G3X24.000Y22.500I1.500J0.000F200.0
N2710G01X38.781
N2720X42.781
N2730X53.757
N2740G3X54.818Y25.061I0.000J1.500
N2750G01X41.006Y38.872
N2760X38.178Y41.701
N2770X25.061Y54.818
N2780G3X22.500Y53.757I-1.061J-1.061
N2790G01Y38.920
N2800Y34.920
N2810Y24.000
N2820G01Z-0.550F30.0
N2830G3X24.000Y22.500I1.500J0.000F200.0
N2840G01X38.781
N2850X42.781
N2860X53.757
N2870G3X54.818Y25.061I0.000J1.500
N2880G01X41.006Y38.872
N2890X38.178Y41.701
N2900X25.061Y54.818
N2910G3X22.500Y53.757I-1.061J-1.061
N2920G01Y38.920
N2930Y34.920
N2940Y24.000
N2950G01Z-0.575F30.0
N2960G3X24.000Y22.500I1.500J0.000F200.0
N2970G01X38.781
N2980X42.781
N2990X53.757
N3000G3X54.818Y25.061I0.000J1.500
N3010G01X41.006Y38.872
N3020X38.178Y41.701
N3030X25.061Y54.818
N3040G3X22.500Y53.757I-1.061J-1.061
N3050G01Y38.920
N3060Y34.920
N3070Y24.000
N3080G01Z-0.600F30.0
N3090G3X24.000Y22.500I1.500J0.000F200.0
N3100G01X38.781
N3110X42.781
N3120X53.757
N3130G3X54.818Y25.061I0.000J1.500
N3140G01X41.006Y38.872
N3150X38.178Y41.701
N3160X25.061Y54.818
N3170G3X22.500Y53.757I-1.061J-1.061
N3180G01Y38.920
N3190Y34.920
N3200Y24.000
N3210G01Z-0.625F30.0
N3220G3X24.000Y22.500I1.500J0.000F200.0
N3230G01X38.781
N3240X42.781
N3250X53.757
N3260G3X54.818Y25.061I0.000J1.500
N3270G01X41.006Y38.872
N3280X38.178Y41.701
N3290X25.061Y54.818
N3300G3X22.500Y53.757I-1.061J-1.061
N3310G01Y38.920
N3320Y34.920
N3330Y24.000
N3340G01Z-0.650F30.0
N3350G3X24.000Y22.500I1.500J0.000F200.0
N3360G01X38.781
N3370X42.781
N3380X53.757
N3390G3X54.818Y25.061I0.000J1.500
N3400G01X41.006Y38.872
N3410X38.178Y41.701
N3420X25.061Y54.818
N3430G3X22.500Y53.757I-1.061J-1.061
N3440G01Y38.920
N3450Y34.920
N3460Y24.000
N3470G01Z-0.675F30.0
N3480G3X24.000Y22.500I1.500J0.000F200.0
N3490G01X38.781
N3500X42.781
N3510X53.757
N3520G3X54.818Y25.061I0.000J1.500
N3530G01X41.006Y38.872
N3540X38.178Y41.701
N3550X25.061Y54.818
N3560G3X22.500Y53.757I-1.061J-1.061
N3570G01Y38.920
N3580Y34.920
N3590Y24.000
N3600G01Z-0.700F30.0
N3610G3X24.000Y22.500I1.500J0.000F200.0
N3620G01X38.781
N3630X42.781
N3640X53.757
N3650G3X54.818Y25.061I0.000J1.500
N3660G01X41.006Y38.872
N3670X38.178Y41.701
N3680X25.061Y54.818
N3690G3X22.500Y53.757I-1.061J-1.061
N3700G01Y38.920
N3710Y34.920
N3720Y24.000
N3730G01Z-0.725F30.0
N3740G3X24.000Y22.500I1.500J0.000F200.0
N3750G01X38.781
N3760X42.781
N3770X53.757
N3780G3X54.818Y25.061I0.000J1.500
N3790G01X41.006Y38.872
N3800X38.178Y41.701
N3810X25.061Y54.818
N3820G3X22.500Y53.757I-1.061J-1.061
N3830G01Y38.920
N3840Y34.920
N3850Y24.000
N3860G01Z-0.750F30.0
N3870G3X24.000Y22.500I1.500J0.000F200.0
N3880G01X38.781
N3890X42.781
N3900X53.757
N3910G3X54.818Y25.061I0.000J1.500
N3920G01X41.006Y38.872
N3930X38.178Y41.701
N3940X25.061Y54.818
N3950G3X22.500Y53.757I-1.061J-1.061
N3960G01Y38.920
N3970Y34.920
N3980Y24.000
N3990G01Z-0.775F30.0
N4000G3X24.000Y22.500I1.500J0.000F200.0
N4010G01X38.781
N4020X42.781
N4030X53.757
N4040G3X54.818Y25.061I0.000J1.500
N4050G01X41.006Y38.872
N4060X38.178Y41.701
N4070X25.061Y54.818
N4080G3X22.500Y53.757I-1.061J-1.061
N4090G01Y38.920
N4100Y34.920
N4110Y24.000
N4120G01Z-0.800F30.0
N4130G3X24.000Y22.500I1.500J0.000F200.0
N4140G01X38.781
N4150X42.781
N4160X53.757
N4170G3X54.818Y25.061I0.000J1.500
N4180G01X41.006Y38.872
N4190X38.178Y41.701
N4200X25.061Y54.818
N4210G3X22.500Y53.757I-1.061J-1.061
N4220G01Y38.920
N4230Y34.920
N4240Y24.000
N4250G01Z-0.825F30.0
N4260G3X24.000Y22.500I1.500J0.000F200.0
N4270G01X38.781
N4280X42.781
N4290X53.757
N4300G3X54.818Y25.061I0.000J1.500
N4310G01X41.006Y38.872
N4320X38.178Y41.701
N4330X25.061Y54.818
N4340G3X22.500Y53.757I-1.061J-1.061
N4350G01Y38.920
N4360Y34.920
N4370Y24.000
N4380G01Z-0.850F30.0
N4390G3X24.000Y22.500I1.500J0.000F200.0
N4400G01X38.781
N4410X42.781
N4420X53.757
N4430G3X54.818Y25.061I0.000J1.500
N4440G01X41.006Y38.872
N4450X38.178Y41.701
N4460X25.061Y54.818
N4470G3X22.500Y53.757I-1.061J-1.061
N4480G01Y38.920
N4490Y34.920
N4500Y24.000
N4510G01Z-0.875F30.0
N4520G3X24.000Y22.500I1.500J0.000F200.0
N4530G01X38.781
N4540X42.781
N4550X53.757
N4560G3X54.818Y25.061I0.000J1.500
N4570G01X41.006Y38.872
N4580X38.178Y41.701
N4590X25.061Y54.818
N4600G3X22.500Y53.757I-1.061J-1.061
N4610G01Y38.920
N4620Y34.920
N4630Y24.000
N4640G01Z-0.900F30.0
N4650G3X24.000Y22.500I1.500J0.000F200.0
N4660G01X38.781
N4670X42.781
N4680X53.757
N4690G3X54.818Y25.061I0.000J1.500
N4700G01X41.006Y38.872
N4710X38.178Y41.701
N4720X25.061Y54.818
N4730G3X22.500Y53.757I-1.061J-1.061
N4740G01Y38.920
N4750Y34.920
N4760Y24.000
N4770G01Z-0.925F30.0
N4780G3X24.000Y22.500I1.500J0.000F200.0
N4790G01X38.781
N4800X42.781
N4810X53.757
N4820G3X54.818Y25.061I0.000J1.500
N4830G01X41.006Y38.872
N4840X38.178Y41.701
N4850X25.061Y54.818
N4860G3X22.500Y53.757I-1.061J-1.061
N4870G01Y38.920
N4880Y34.920
N4890Y24.000
N4900G01Z-0.950F30.0
N4910G3X24.000Y22.500I1.500J0.000F200.0
N4920G01X38.781
N4930X42.781
N4940X53.757
N4950G3X54.818Y25.061I0.000J1.500
N4960G01X41.006Y38.872
N4970X38.178Y41.701
N4980X25.061Y54.818
N4990G3X22.500Y53.757I-1.061J-1.061
N5000G01Y38.920
N5010Y34.920
N5020Y24.000
N5030G01Z-0.975F30.0
N5040G3X24.000Y22.500I1.500J0.000F200.0
N5050G01X38.781
N5060X42.781
N5070X53.757
N5080G3X54.818Y25.061I0.000J1.500
N5090G01X41.006Y38.872
N5100X38.178Y41.701
N5110X25.061Y54.818
N5120G3X22.500Y53.757I-1.061J-1.061
N5130G01Y38.920
N5140Y34.920
N5150Y24.000
N5160G01Z-1.000F30.0
N5170G3X24.000Y22.500I1.500J0.000F200.0
N5180G01X38.781
N5190X42.781
N5200X53.757
N5210G3X54.818Y25.061I0.000J1.500
N5220G01X41.006Y38.872
N5230X38.178Y41.701
N5240X25.061Y54.818
N5250G3X22.500Y53.757I-1.061J-1.061
N5260G01Y38.920
N5270Y34.920
N5280Y24.000
N5290G01Z-1.025F30.0
N5300G3X24.000Y22.500I1.500J0.000F200.0
N5310G01X38.781
N5320X42.781
N5330X53.757
N5340G3X54.818Y25.061I0.000J1.500
N5350G01X41.006Y38.872
N5360X38.178Y41.701
N5370X25.061Y54.818
N5380G3X22.500Y53.757I-1.061J-1.061
N5390G01Y38.920
N5400Y34.920
N5410Y24.000
N5420G01Z-1.050F30.0
N5430G3X24.000Y22.500I1.500J0.000F200.0
N5440G01X38.781
N5450X42.781
N5460X53.757
N5470G3X54.818Y25.061I0.000J1.500
N5480G01X41.006Y38.872
N5490X38.178Y41.701
N5500X25.061Y54.818
N5510G3X22.500Y53.757I-1.061J-1.061
N5520G01Y38.920
N5530Y34.920
N5540Y24.000
N5550G01Z-1.075F30.0
N5560G3X24.000Y22.500I1.500J0.000F200.0
N5570G01X38.781
N5580X42.781
N5590X53.757
N5600G3X54.818Y25.061I0.000J1.500
N5610G01X41.006Y38.872
N5620X38.178Y41.701
N5630X25.061Y54.818
N5640G3X22.500Y53.757I-1.061J-1.061
N5650G01Y38.920
N5660Y34.920
N5670Y24.000
N5680G01Z-1.100F30.0
N5690G3X24.000Y22.500I1.500J0.000F200.0
N5700G01X38.781
N5710X42.781
N5720X53.757
N5730G3X54.818Y25.061I0.000J1.500
N5740G01X41.006Y38.872
N5750X38.178Y41.701
N5760X25.061Y54.818
N5770G3X22.500Y53.757I-1.061J-1.061
N5780G01Y38.920
N5790Y34.920
N5800Y24.000
N5810G01Z-1.125F30.0
N5820G3X24.000Y22.500I1.500J0.000F200.0
N5830G01X38.781
N5840X42.781
N5850X53.757
N5860G3X54.818Y25.061I0.000J1.500
N5870G01X41.006Y38.872
N5880X38.178Y41.701
N5890X25.061Y54.818
N5900G3X22.500Y53.757I-1.061J-1.061
N5910G01Y38.920
N5920Y34.920
N5930Y24.000
N5940G01Z-1.150F30.0
N5950G3X24.000Y22.500I1.500J0.000F200.0
N5960G01X38.781
N5970X42.781
N5980X53.757
N5990G3X54.818Y25.061I0.000J1.500
N6000G01X41.006Y38.872
N6010X38.178Y41.701
N6020X25.061Y54.818
N6030G3X22.500Y53.757I-1.061J-1.061
N6040G01Y38.920
N6050Y34.920
N6060Y24.000
N6070G01Z-1.175F30.0
N6080G3X24.000Y22.500I1.500J0.000F200.0
N6090G01X38.781
N6100X42.781
N6110X53.757
N6120G3X54.818Y25.061I0.000J1.500
N6130G01X41.006Y38.872
N6140X38.178Y41.701
N6150X25.061Y54.818
N6160G3X22.500Y53.757I-1.061J-1.061
N6170G01Y38.920
N6180Y34.920
N6190Y24.000
N6200G01Z-1.200F30.0
N6210G3X24.000Y22.500I1.500J0.000F200.0
N6220G01X38.781
N6230X42.781
N6240X53.757
N6250G3X54.818Y25.061I0.000J1.500
N6260G01X41.006Y38.872
N6270X38.178Y41.701
N6280X25.061Y54.818
N6290G3X22.500Y53.757I-1.061J-1.061
N6300G01Y38.920
N6310Y34.920
N6320Y24.000
N6330G01Z-1.225F30.0
N6340G3X24.000Y22.500I1.500J0.000F200.0
N6350G01X38.781
N6360X42.781
N6370X53.757
N6380G3X54.818Y25.061I0.000J1.500
N6390G01X41.006Y38.872
N6400X38.178Y41.701
N6410X25.061Y54.818
N6420G3X22.500Y53.757I-1.061J-1.061
N6430G01Y38.920
N6440Y34.920
N6450Y24.000
N6460G01Z-1.250F30.0
N6470G3X24.000Y22.500I1.500J0.000F200.0
N6480G01X38.781
N6490X42.781
N6500X53.757
N6510G3X54.818Y25.061I0.000J1.500
N6520G01X41.006Y38.872
N6530X38.178Y41.701
N6540X25.061Y54.818
N6550G3X22.500Y53.757I-1.061J-1.061
N6560G01Y38.920
N6570Y34.920
N6580Y24.000
N6590G01Z-1.275F30.0
N6600G3X24.000Y22.500I1.500J0.000F200.0
N6610G01X38.781
N6620X42.781
N6630X53.757
N6640G3X54.818Y25.061I0.000J1.500
N6650G01X41.006Y38.872
N6660X38.178Y41.701
N6670X25.061Y54.818
N6680G3X22.500Y53.757I-1.061J-1.061
N6690G01Y38.920
N6700Y34.920
N6710Y24.000
N6720G01Z-1.300F30.0
N6730G3X24.000Y22.500I1.500J0.000F200.0
N6740G01X38.781
N6750X42.781
N6760X53.757
N6770G3X54.818Y25.061I0.000J1.500
N6780G01X41.006Y38.872
N6790X38.178Y41.701
N6800X25.061Y54.818
N6810G3X22.500Y53.757I-1.061J-1.061
N6820G01Y38.920
N6830Y34.920
N6840Y24.000
N6850G01Z-1.325F30.0
N6860G3X24.000Y22.500I1.500J0.000F200.0
N6870G01X38.781
N6880X42.781
N6890X53.757
N6900G3X54.818Y25.061I0.000J1.500
N6910G01X41.006Y38.872
N6920X38.178Y41.701
N6930X25.061Y54.818
N6940G3X22.500Y53.757I-1.061J-1.061
N6950G01Y38.920
N6960Y34.920
N6970Y24.000
N6980G01Z-1.350F30.0
N6990G3X24.000Y22.500I1.500J0.000F200.0
N7000G01X38.781
N7010X42.781
N7020X53.757
N7030G3X54.818Y25.061I0.000J1.500
N7040G01X41.006Y38.872
N7050X38.178Y41.701
N7060X25.061Y54.818
N7070G3X22.500Y53.757I-1.061J-1.061
N7080G01Y38.920
N7090Y34.920
N7100Y24.000
N7110G01Z-1.375F30.0
N7120G3X24.000Y22.500I1.500J0.000F200.0
N7130G01X38.781
N7140X42.781
N7150X53.757
N7160G3X54.818Y25.061I0.000J1.500
N7170G01X41.006Y38.872
N7180X38.178Y41.701
N7190X25.061Y54.818
N7200G3X22.500Y53.757I-1.061J-1.061
N7210G01Y38.920
N7220Y34.920
N7230Y24.000
N7240G01Z-1.400F30.0
N7250G3X24.000Y22.500I1.500J0.000F200.0
N7260G01X38.781
N7270X42.781
N7280X53.757
N7290G3X54.818Y25.061I0.000J1.500
N7300G01X41.006Y38.872
N7310X38.178Y41.701
N7320X25.061Y54.818
N7330G3X22.500Y53.757I-1.061J-1.061
N7340G01Y38.920
N7350Y34.920
N7360Y24.000
N7370G01Z-1.425F30.0
N7380G3X24.000Y22.500I1.500J0.000F200.0
N7390G01X38.781
N7400X42.781
N7410X53.757
N7420G3X54.818Y25.061I0.000J1.500
N7430G01X41.006Y38.872
N7440X38.178Y41.701
N7450X25.061Y54.818
N7460G3X22.500Y53.757I-1.061J-1.061
N7470G01Y38.920
N7480Y34.920
N7490Y24.000
N7500G01Z-1.450F30.0
N7510G3X24.000Y22.500I1.500J0.000F200.0
N7520G01X38.781
N7530X42.781
N7540X53.757
N7550G3X54.818Y25.061I0.000J1.500
N7560G01X41.006Y38.872
N7570X38.178Y41.701
N7580X25.061Y54.818
N7590G3X22.500Y53.757I-1.061J-1.061
N7600G01Y38.920
N7610Y34.920
N7620Y24.000
N7630G01Z-1.475F30.0
N7640G3X24.000Y22.500I1.500J0.000F200.0
N7650G01X38.781
N7660X42.781
N7670X53.757
N7680G3X54.818Y25.061I0.000J1.500
N7690G01X41.006Y38.872
N7700X38.178Y41.701
N7710X25.061Y54.818
N7720G3X22.500Y53.757I-1.061J-1.061
N7730G01Y38.920
N7740Y34.920
N7750Y24.000
N7760G01Z-1.500F30.0
N7770G3X24.000Y22.500I1.500J0.000F200.0
N7780G01X38.781
N7790X42.781
N7800X53.757
N7810G3X54.818Y25.061I0.000J1.500
N7820G01X41.006Y38.872
N7830X38.178Y41.701
N7840X25.061Y54.818
N7850G3X22.500Y53.757I-1.061J-1.061
N7860G01Y38.920
N7870Y34.920
N7880Y24.000
N7890G01Z-1.525F30.0
N7900G3X24.000Y22.500I1.500J0.000F200.0
N7910G01X38.781
N7920X42.781
N7930X53.757
N7940G3X54.818Y25.061I0.000J1.500
N7950G01X41.006Y38.872
N7960X38.178Y41.701
N7970X25.061Y54.818
N7980G3X22.500Y53.757I-1.061J-1.061
N7990G01Y38.920
N8000Y34.920
N8010Y24.000
N8020G01Z-1.550F30.0
N8030G3X24.000Y22.500I1.500J0.000F200.0
N8040G01X38.781
N8050X42.781
N8060X53.757
N8070G3X54.818Y25.061I0.000J1.500
N8080G01X41.006Y38.872
N8090X38.178Y41.701
N8100X25.061Y54.818
N8110G3X22.500Y53.757I-1.061J-1.061
N8120G01Y38.920
N8130Y34.920
N8140Y24.000
N8150G01Z-1.575F30.0
N8160G3X24.000Y22.500I1.500J0.000F200.0
N8170G01X38.781
N8180X42.781
N8190X53.757
N8200G3X54.818Y25.061I0.000J1.500
N8210G01X41.006Y38.872
N8220X38.178Y41.701
N8230X25.061Y54.818
N8240G3X22.500Y53.757I-1.061J-1.061
N8250G01Y38.920
N8260Y34.920
N8270Y24.000
N8280G01Z-1.600F30.0
N8290G3X24.000Y22.500I1.500J0.000F200.0
N8300G01X38.781
N8310X42.781
N8320X53.757
N8330G3X54.818Y25.061I0.000J1.500
N8340G01X41.006Y38.872
N8350X38.178Y41.701
N8360X25.061Y54.818
N8370G3X22.500Y53.757I-1.061J-1.061
N8380G01Y38.920
N8390Y34.920
N8400Y24.000
N8410G01Z-1.625F30.0
N8420G3X24.000Y22.500I1.500J0.000F200.0
N8430G01X38.781
N8440X42.781
N8450X53.757
N8460G3X54.818Y25.061I0.000J1.500
N8470G01X41.006Y38.872
N8480X38.178Y41.701
N8490X25.061Y54.818
N8500G3X22.500Y53.757I-1.061J-1.061
N8510G01Y38.920
N8520Y34.920
N8530Y24.000
N8540G01Z-1.650F30.0
N8550G3X24.000Y22.500I1.500J0.000F200.0
N8560G01X38.781
N8570X42.781
N8580X53.757
N8590G3X54.818Y25.061I0.000J1.500
N8600G01X41.006Y38.872
N8610X38.178Y41.701
N8620X25.061Y54.818
N8630G3X22.500Y53.757I-1.061J-1.061
N8640G01Y38.920
N8650Y34.920
N8660Y24.000
N8670G01Z-1.675F30.0
N8680G3X24.000Y22.500I1.500J0.000F200.0
N8690G01X38.781
N8700X42.781
N8710X53.757
N8720G3X54.818Y25.061I0.000J1.500
N8730G01X41.006Y38.872
N8740X38.178Y41.701
N8750X25.061Y54.818
N8760G3X22.500Y53.757I-1.061J-1.061
N8770G01Y38.920
N8780Y34.920
N8790Y24.000
N8800G01Z-1.700F30.0
N8810G3X24.000Y22.500I1.500J0.000F200.0
N8820G01X38.781
N8830X42.781
N8840X53.757
N8850G3X54.818Y25.061I0.000J1.500
N8860G01X41.006Y38.872
N8870X38.178Y41.701
N8880X25.061Y54.818
N8890G3X22.500Y53.757I-1.061J-1.061
N8900G01Y38.920
N8910Y34.920
N8920Y24.000
N8930G01Z-1.725F30.0
N8940G3X24.000Y22.500I1.500J0.000F200.0
N8950G01X38.781
N8960X42.781
N8970X53.757
N8980G3X54.818Y25.061I0.000J1.500
N8990G01X41.006Y38.872
N9000X38.178Y41.701
N9010X25.061Y54.818
N9020G3X22.500Y53.757I-1.061J-1.061
N9030G01Y38.920
N9040Y34.920
N9050Y24.000
N9060G01Z-1.750F30.0
N9070G3X24.000Y22.500I1.500J0.000F200.0
N9080G01X38.781
N9090X42.781
N9100X53.757
N9110G3X54.818Y25.061I0.000J1.500
N9120G01X41.006Y38.872
N9130X38.178Y41.701
N9140X25.061Y54.818
N9150G3X22.500Y53.757I-1.061J-1.061
N9160G01Y38.920
N9170Y34.920
N9180Y24.000
N9190G01Z-1.775F30.0
N9200G3X24.000Y22.500I1.500J0.000F200.0
N9210G01X38.781
N9220X42.781
N9230X53.757
N9240G3X54.818Y25.061I0.000J1.500
N9250G01X41.006Y38.872
N9260X38.178Y41.701
N9270X25.061Y54.818
N9280G3X22.500Y53.757I-1.061J-1.061
N9290G01Y38.920
N9300Y34.920
N9310Y24.000
N9320G01Z-1.800F30.0
N9330G3X24.000Y22.500I1.500J0.000F200.0
N9340G01X38.781
N9350X42.781
N9360X53.757
N9370G3X54.818Y25.061I0.000J1.500
N9380G01X41.006Y38.872
N9390X38.178Y41.701
N9400X25.061Y54.818
N9410G3X22.500Y53.757I-1.061J-1.061
N9420G01Y38.920
N9430Y34.920
N9440Y24.000
N9450G01Z-1.825F30.0
N9460G3X24.000Y22.500I1.500J0.000F200.0
N9470G01X38.781
N9480X42.781
N9490X53.757
N9500G3X54.818Y25.061I0.000J1.500
N9510G01X41.006Y38.872
N9520X38.178Y41.701
N9530X25.061Y54.818
N9540G3X22.500Y53.757I-1.061J-1.061
N9550G01Y38.920
N9560Y34.920
N9570Y24.000
N9580G01Z-1.850F30.0
N9590G3X24.000Y22.500I1.500J0.000F200.0
N9600G01X38.781
N9610X42.781
N9620X53.757
N9630G3X54.818Y25.061I0.000J1.500
N9640G01X41.006Y38.872
N9650X38.178Y41.701
N9660X25.061Y54.818
N9670G3X22.500Y53.757I-1.061J-1.061
N9680G01Y38.920
N9690Y34.920
N9700Y24.000
N9710G01Z-1.875F30.0
N9720G3X24.000Y22.500I1.500J0.000F200.0
N9730G01X38.781
N9740X42.781
N9750X53.757
N9760G3X54.818Y25.061I0.000J1.500
N9770G01X41.006Y38.872
N9780X38.178Y41.701
N9790X25.061Y54.818
N9800G3X22.500Y53.757I-1.061J-1.061
N9810G01Y38.920
N9820Y34.920
N9830Y24.000
N9840G01Z-1.900F30.0
N9850G3X24.000Y22.500I1.500J0.000F200.0
N9860G01X38.781
N9870X42.781
N9880X53.757
N9890G3X54.818Y25.061I0.000J1.500
N9900G01X41.006Y38.872
N9910X38.178Y41.701
N9920X25.061Y54.818
N9930G3X22.500Y53.757I-1.061J-1.061
N9940G01Y38.920
N9950Y34.920
N9960Y24.000
N9970G01Z-1.925F30.0
N9980G3X24.000Y22.500I1.500J0.000F200.0
N9990G01X38.781
N10000X42.781
N10010X53.757
N10020G3X54.818Y25.061I0.000J1.500
N10030G01X41.006Y38.872
N10040X38.178Y41.701
N10050X25.061Y54.818
N10060G3X22.500Y53.757I-1.061J-1.061
N10070G01Y38.920
N10080Y34.920
N10090Y24.000
N10100G01Z-1.950F30.0
N10110G3X24.000Y22.500I1.500J0.000F200.0
N10120G01X38.781
N10130X42.781
N10140X53.757
N10150G3X54.818Y25.061I0.000J1.500
N10160G01X41.006Y38.872
N10170X38.178Y41.701
N10180X25.061Y54.818
N10190G3X22.500Y53.757I-1.061J-1.061
N10200G01Y38.920
N10210Y34.920
N10220Y24.000
N10230G01Z-1.975F30.0
N10240G3X24.000Y22.500I1.500J0.000F200.0
N10250G01X38.781
N10260X42.781
N10270X53.757
N10280G3X54.818Y25.061I0.000J1.500
N10290G01X41.006Y38.872
N10300X38.178Y41.701
N10310X25.061Y54.818
N10320G3X22.500Y53.757I-1.061J-1.061
N10330G01Y38.920
N10340Y34.920
N10350Y24.000
N10360G01Z-2.000F30.0
N10370G3X24.000Y22.500I1.500J0.000F200.0
N10380G01X38.781
N10390X42.781
N10400X53.757
N10410G3X54.818Y25.061I0.000J1.500
N10420G01X41.006Y38.872
N10430X38.178Y41.701
N10440X25.061Y54.818
N10450G3X22.500Y53.757I-1.061J-1.061
N10460G01Y38.920
N10470Y34.920
N10480Y24.000
N10490G01Z-2.025F30.0
N10500G3X24.000Y22.500I1.500J0.000F200.0
N10510G01X38.781
N10520X42.781
N10530X53.757
N10540G3X54.818Y25.061I0.000J1.500
N10550G01X41.006Y38.872
N10560X38.178Y41.701
N10570X25.061Y54.818
N10580G3X22.500Y53.757I-1.061J-1.061
N10590G01Y38.920
N10600Y34.920
N10610Y24.000
N10620G01Z-2.050F30.0
N10630G3X24.000Y22.500I1.500J0.000F200.0
N10640G01X38.781
N10650X42.781
N10660X53.757
N10670G3X54.818Y25.061I0.000J1.500
N10680G01X41.006Y38.872
N10690X38.178Y41.701
N10700X25.061Y54.818
N10710G3X22.500Y53.757I-1.061J-1.061
N10720G01Y38.920
N10730Y34.920
N10740Y24.000
N10750G01Z-2.075F30.0
N10760G3X24.000Y22.500I1.500J0.000F200.0
N10770G01X38.781
N10780X42.781
N10790X53.757
N10800G3X54.818Y25.061I0.000J1.500
N10810G01X41.006Y38.872
N10820X38.178Y41.701
N10830X25.061Y54.818
N10840G3X22.500Y53.757I-1.061J-1.061
N10850G01Y38.920
N10860Y34.920
N10870Y24.000
N10880G01Z-2.100F30.0
N10890G3X24.000Y22.500I1.500J0.000F200.0
N10900G01X38.781
N10910X42.781
N10920X53.757
N10930G3X54.818Y25.061I0.000J1.500
N10940G01X41.006Y38.872
N10950X38.178Y41.701
N10960X25.061Y54.818
N10970G3X22.500Y53.757I-1.061J-1.061
N10980G01Y38.920
N10990Y34.920
N11000Y24.000
N11010G01Z-2.125F30.0
N11020G3X24.000Y22.500I1.500J0.000F200.0
N11030G01X38.781
N11040X42.781
N11050X53.757
N11060G3X54.818Y25.061I0.000J1.500
N11070G01X41.006Y38.872
N11080X38.178Y41.701
N11090X25.061Y54.818
N11100G3X22.500Y53.757I-1.061J-1.061
N11110G01Y38.920
N11120Y34.920
N11130Y24.000
N11140G01Z-2.150F30.0
N11150G3X24.000Y22.500I1.500J0.000F200.0
N11160G01X38.781
N11170X42.781
N11180X53.757
N11190G3X54.818Y25.061I0.000J1.500
N11200G01X41.006Y38.872
N11210X38.178Y41.701
N11220X25.061Y54.818
N11230G3X22.500Y53.757I-1.061J-1.061
N11240G01Y38.920
N11250Y34.920
N11260Y24.000
N11270G01Z-2.175F30.0
N11280G3X24.000Y22.500I1.500J0.000F200.0
N11290G01X38.781
N11300X42.781
N11310X53.757
N11320G3X54.818Y25.061I0.000J1.500
N11330G01X41.006Y38.872
N11340X38.178Y41.701
N11350X25.061Y54.818
N11360G3X22.500Y53.757I-1.061J-1.061
N11370G01Y38.920
N11380Y34.920
N11390Y24.000
N11400G01Z-2.200F30.0
N11410G3X24.000Y22.500I1.500J0.000F200.0
N11420G01X38.781
N11430X42.781
N11440X53.757
N11450G3X54.818Y25.061I0.000J1.500
N11460G01X41.006Y38.872
N11470X38.178Y41.701
N11480X25.061Y54.818
N11490G3X22.500Y53.757I-1.061J-1.061
N11500G01Y38.920
N11510Y34.920
N11520Y24.000
N11530G01Z-2.225F30.0
N11540G3X24.000Y22.500I1.500J0.000F200.0
N11550G01X38.781
N11560X42.781
N11570X53.757
N11580G3X54.818Y25.061I0.000J1.500
N11590G01X41.006Y38.872
N11600X38.178Y41.701
N11610X25.061Y54.818
N11620G3X22.500Y53.757I-1.061J-1.061
N11630G01Y38.920
N11640Y34.920
N11650Y24.000
N11660G01Z-2.250F30.0
N11670G3X24.000Y22.500I1.500J0.000F200.0
N11680G01X38.781
N11690X42.781
N11700X53.757
N11710G3X54.818Y25.061I0.000J1.500
N11720G01X41.006Y38.872
N11730X38.178Y41.701
N11740X25.061Y54.818
N11750G3X22.500Y53.757I-1.061J-1.061
N11760G01Y38.920
N11770Y34.920
N11780Y24.000
N11790G01Z-2.275F30.0
N11800G3X24.000Y22.500I1.500J0.000F200.0
N11810G01X38.781
N11820X42.781
N11830X53.757
N11840G3X54.818Y25.061I0.000J1.500
N11850G01X41.006Y38.872
N11860X38.178Y41.701
N11870X25.061Y54.818
N11880G3X22.500Y53.757I-1.061J-1.061
N11890G01Y38.920
N11900Y34.920
N11910Y24.000
N11920G01Z-2.300F30.0
N11930G3X24.000Y22.500I1.500J0.000F200.0
N11940G01X38.781
N11950X42.781
N11960X53.757
N11970G3X54.818Y25.061I0.000J1.500
N11980G01X41.006Y38.872
N11990X38.178Y41.701
N12000X25.061Y54.818
N12010G3X22.500Y53.757I-1.061J-1.061
N12020G01Y38.920
N12030Y34.920
N12040Y24.000
N12050G01Z-2.325F30.0
N12060G3X24.000Y22.500I1.500J0.000F200.0
N12070G01X38.781
N12080X42.781
N12090X53.757
N12100G3X54.818Y25.061I0.000J1.500
N12110G01X41.006Y38.872
N12120X38.178Y41.701
N12130X25.061Y54.818
N12140G3X22.500Y53.757I-1.061J-1.061
N12150G01Y38.920
N12160Y34.920
N12170Y24.000
N12180G01Z-2.350F30.0
N12190G3X24.000Y22.500I1.500J0.000F200.0
N12200G01X38.781
N12210X42.781
N12220X53.757
N12230G3X54.818Y25.061I0.000J1.500
N12240G01X41.006Y38.872
N12250X38.178Y41.701
N12260X25.061Y54.818
N12270G3X22.500Y53.757I-1.061J-1.061
N12280G01Y38.920
N12290Y34.920
N12300Y24.000
N12310G01Z-2.375F30.0
N12320G3X24.000Y22.500I1.500J0.000F200.0
N12330G01X38.781
N12340X42.781
N12350X53.757
N12360G3X54.818Y25.061I0.000J1.500
N12370G01X41.006Y38.872
N12380X38.178Y41.701
N12390X25.061Y54.818
N12400G3X22.500Y53.757I-1.061J-1.061
N12410G01Y38.920
N12420Y34.920
N12430Y24.000
N12440G01Z-2.400F30.0
N12450G3X24.000Y22.500I1.500J0.000F200.0
N12460G01X38.781
N12470X42.781
N12480X53.757
N12490G3X54.818Y25.061I0.000J1.500
N12500G01X41.006Y38.872
N12510X38.178Y41.701
N12520X25.061Y54.818
N12530G3X22.500Y53.757I-1.061J-1.061
N12540G01Y38.920
N12550Y34.920
N12560Y24.000
N12570G01Z-2.425F30.0
N12580G3X24.000Y22.500I1.500J0.000F200.0
N12590G01X38.781
N12600X42.781
N12610X53.757
N12620G3X54.818Y25.061I0.000J1.500
N12630G01X41.006Y38.872
N12640X38.178Y41.701
N12650X25.061Y54.818
N12660G3X22.500Y53.757I-1.061J-1.061
N12670G01Y38.920
N12680Y34.920
N12690Y24.000
N12700G01Z-2.450F30.0
N12710G3X24.000Y22.500I1.500J0.000F200.0
N12720G01X38.781
N12730X42.781
N12740X53.757
N12750G3X54.818Y25.061I0.000J1.500
N12760G01X41.006Y38.872
N12770X38.178Y41.701
N12780X25.061Y54.818
N12790G3X22.500Y53.757I-1.061J-1.061
N12800G01Y38.920
N12810Y34.920
N12820Y24.000
N12830G01Z-2.475F30.0
N12840G3X24.000Y22.500I1.500J0.000F200.0
N12850G01X38.781
N12860X42.781
N12870X53.757
N12880G3X54.818Y25.061I0.000J1.500
N12890G01X41.006Y38.872
N12900X38.178Y41.701
N12910X25.061Y54.818
N12920G3X22.500Y53.757I-1.061J-1.061
N12930G01Y38.920
N12940Y34.920
N12950Y24.000
N12960G01Z-2.500F30.0
N12970G3X24.000Y22.500I1.500J0.000F200.0
N12980G01X38.781
N12990X42.781
N13000X53.757
N13010G3X54.818Y25.061I0.000J1.500
N13020G01X41.006Y38.872
N13030X38.178Y41.701
N13040X25.061Y54.818
N13050G3X22.500Y53.757I-1.061J-1.061
N13060G01Y38.920
N13070Y34.920
N13080Y24.000
N13090G01Z-2.525F30.0
N13100G3X24.000Y22.500I1.500J0.000F200.0
N13110G01X38.781
N13120X42.781
N13130X53.757
N13140G3X54.818Y25.061I0.000J1.500
N13150G01X41.006Y38.872
N13160X38.178Y41.701
N13170X25.061Y54.818
N13180G3X22.500Y53.757I-1.061J-1.061
N13190G01Y38.920
N13200Y34.920
N13210Y24.000
N13220G01Z-2.550F30.0
N13230G3X24.000Y22.500I1.500J0.000F200.0
N13240G01X38.781
N13250X42.781
N13260X53.757
N13270G3X54.818Y25.061I0.000J1.500
N13280G01X41.006Y38.872
N13290X38.178Y41.701
N13300X25.061Y54.818
N13310G3X22.500Y53.757I-1.061J-1.061
N13320G01Y38.920
N13330Y34.920
N13340Y24.000
N13350G01Z-2.575F30.0
N13360G3X24.000Y22.500I1.500J0.000F200.0
N13370G01X38.781
N13380X42.781
N13390X53.757
N13400G3X54.818Y25.061I0.000J1.500
N13410G01X41.006Y38.872
N13420X38.178Y41.701
N13430X25.061Y54.818
N13440G3X22.500Y53.757I-1.061J-1.061
N13450G01Y38.920
N13460Y34.920
N13470Y24.000
N13480G01Z-2.600F30.0
N13490G3X24.000Y22.500I1.500J0.000F200.0
N13500G01X38.781
N13510X42.781
N13520X53.757
N13530G3X54.818Y25.061I0.000J1.500
N13540G01X41.006Y38.872
N13550X38.178Y41.701
N13560X25.061Y54.818
N13570G3X22.500Y53.757I-1.061J-1.061
N13580G01Y38.920
N13590Y34.920
N13600Y24.000
N13610G01Z-2.625F30.0
N13620G3X24.000Y22.500I1.500J0.000F200.0
N13630G01X38.781
N13640X42.781
N13650X53.757
N13660G3X54.818Y25.061I0.000J1.500
N13670G01X41.006Y38.872
N13680X38.178Y41.701
N13690X25.061Y54.818
N13700G3X22.500Y53.757I-1.061J-1.061
N13710G01Y38.920
N13720Y34.920
N13730Y24.000
N13740G01Z-2.650F30.0
N13750G3X24.000Y22.500I1.500J0.000F200.0
N13760G01X38.781
N13770X42.781
N13780X53.757
N13790G3X54.818Y25.061I0.000J1.500
N13800G01X41.006Y38.872
N13810X38.178Y41.701
N13820X25.061Y54.818
N13830G3X22.500Y53.757I-1.061J-1.061
N13840G01Y38.920
N13850Y34.920
N13860Y24.000
N13870G01Z-2.675F30.0
N13880G3X24.000Y22.500I1.500J0.000F200.0
N13890G01X38.781
N13900X42.781
N13910X53.757
N13920G3X54.818Y25.061I0.000J1.500
N13930G01X41.006Y38.872
N13940X38.178Y41.701
N13950X25.061Y54.818
N13960G3X22.500Y53.757I-1.061J-1.061
N13970G01Y38.920
N13980Y34.920
N13990Y24.000
N14000G01Z-2.700F30.0
N14010G3X24.000Y22.500I1.500J0.000F200.0
N14020G01X38.781
N14030X42.781
N14040X53.757
N14050G3X54.818Y25.061I0.000J1.500
N14060G01X41.006Y38.872
N14070X38.178Y41.701
N14080X25.061Y54.818
N14090G3X22.500Y53.757I-1.061J-1.061
N14100G01Y38.920
N14110Y34.920
N14120Y24.000
N14130G01Z-2.725F30.0
N14140G3X24.000Y22.500I1.500J0.000F200.0
N14150G01X38.781
N14160X42.781
N14170X53.757
N14180G3X54.818Y25.061I0.000J1.500
N14190G01X41.006Y38.872
N14200X38.178Y41.701
N14210X25.061Y54.818
N14220G3X22.500Y53.757I-1.061J-1.061
N14230G01Y38.920
N14240Y34.920
N14250Y24.000
N14260G01Z-2.750F30.0
N14270G3X24.000Y22.500I1.500J0.000F200.0
N14280G01X38.781
N14290X42.781
N14300X53.757
N14310G3X54.818Y25.061I0.000J1.500
N14320G01X41.006Y38.872
N14330X38.178Y41.701
N14340X25.061Y54.818
N14350G3X22.500Y53.757I-1.061J-1.061
N14360G01Y38.920
N14370Y34.920
N14380Y24.000
N14390G01Z-2.775F30.0
N14400G3X24.000Y22.500I1.500J0.000F200.0
N14410G01X38.781
N14420X42.781
N14430X53.757
N14440G3X54.818Y25.061I0.000J1.500
N14450G01X41.006Y38.872
N14460X38.178Y41.701
N14470X25.061Y54.818
N14480G3X22.500Y53.757I-1.061J-1.061
N14490G01Y38.920
N14500Y34.920
N14510Y24.000
N14520G01Z-2.800F30.0
N14530G3X24.000Y22.500I1.500J0.000F200.0
N14540G01X38.781
N14550X42.781
N14560X53.757
N14570G3X54.818Y25.061I0.000J1.500
N14580G01X41.006Y38.872
N14590X38.178Y41.701
N14600X25.061Y54.818
N14610G3X22.500Y53.757I-1.061J-1.061
N14620G01Y38.920
N14630Y34.920
N14640Y24.000
N14650G01Z-2.825F30.0
N14660G3X24.000Y22.500I1.500J0.000F200.0
N14670G01X38.781
N14680X42.781
N14690X53.757
N14700G3X54.818Y25.061I0.000J1.500
N14710G01X41.006Y38.872
N14720X38.178Y41.701
N14730X25.061Y54.818
N14740G3X22.500Y53.757I-1.061J-1.061
N14750G01Y38.920
N14760Y34.920
N14770Y24.000
N14780G01Z-2.850F30.0
N14790G3X24.000Y22.500I1.500J0.000F200.0
N14800G01X38.781
N14810X42.781
N14820X53.757
N14830G3X54.818Y25.061I0.000J1.500
N14840G01X41.006Y38.872
N14850X38.178Y41.701
N14860X25.061Y54.818
N14870G3X22.500Y53.757I-1.061J-1.061
N14880G01Y38.920
N14890Y34.920
N14900Y24.000
N14910G01Z-2.875F30.0
N14920G3X24.000Y22.500I1.500J0.000F200.0
N14930G01X38.781
N14940X42.781
N14950X53.757
N14960G3X54.818Y25.061I0.000J1.500
N14970G01X41.006Y38.872
N14980X38.178Y41.701
N14990X25.061Y54.818
N15000G3X22.500Y53.757I-1.061J-1.061
N15010G01Y38.920
N15020Y34.920
N15030Y24.000
N15040G01Z-2.900F30.0
N15050G3X24.000Y22.500I1.500J0.000F200.0
N15060G01X38.781
N15070X42.781Z-2.900
N15080X53.757Z-2.900
N15090G3X54.818Y25.061I0.000J1.500
N15100G01X41.006Y38.872
N15110X38.178Y41.701Z-2.900
N15120X25.061Y54.818Z-2.900
N15130G3X22.500Y53.757I-1.061J-1.061
N15140G01Y38.920
N15150Y34.920Z-2.900
N15160Y24.000Z-2.900
N15170G01Z-2.925F30.0
N15180G3X24.000Y22.500I1.500J0.000F200.0
N15190G01X38.781
N15200Z-2.900
N15210X42.781
N15220G01Z-2.925F30.0
N15230G01X53.757F200.0
N15240G3X54.818Y25.061I0.000J1.500
N15250G01X41.006Y38.872
N15260Z-2.900
N15270X38.178Y41.701
N15280G01Z-2.925F30.0
N15290G01X25.061Y54.818F200.0
N15300G3X22.500Y53.757I-1.061J-1.061
N15310G01Y38.920
N15320Z-2.900
N15330Y34.920
N15340G01Z-2.925F30.0
N15350G01Y24.000F200.0
N15360G01Z-2.950F30.0
N15370G3X24.000Y22.500I1.500J0.000F200.0
N15380G01X38.781
N15390Z-2.900
N15400X42.781
N15410G01Z-2.950F30.0
N15420G01X53.757F200.0
N15430G3X54.818Y25.061I0.000J1.500
N15440G01X41.006Y38.872
N15450Z-2.900
N15460X38.178Y41.701
N15470G01Z-2.950F30.0
N15480G01X25.061Y54.818F200.0
N15490G3X22.500Y53.757I-1.061J-1.061
N15500G01Y38.920
N15510Z-2.900
N15520Y34.920
N15530G01Z-2.950F30.0
N15540G01Y24.000F200.0
N15550G01Z-2.975F30.0
N15560G3X24.000Y22.500I1.500J0.000F200.0
N15570G01X38.781
N15580Z-2.900
N15590X42.781
N15600G01Z-2.975F30.0
N15610G01X53.757F200.0
N15620G3X54.818Y25.061I0.000J1.500
N15630G01X41.006Y38.872
N15640Z-2.900
N15650X38.178Y41.701
N15660G01Z-2.975F30.0
N15670G01X25.061Y54.818F200.0
N15680G3X22.500Y53.757I-1.061J-1.061
N15690G01Y38.920
N15700Z-2.900
N15710Y34.920
N15720G01Z-2.975F30.0
N15730G01Y24.000F200.0
N15740G01Z-3.000F30.0
N15750G3X24.000Y22.500I1.500J0.000F200.0
N15760G01X38.781
N15770Z-2.900
N15780X42.781
N15790G01Z-3.000F30.0
N15800G01X53.757F200.0
N15810G3X54.818Y25.061I0.000J1.500
N15820G01X41.006Y38.872
N15830Z-2.900
N15840X38.178Y41.701
N15850G01Z-3.000F30.0
N15860G01X25.061Y54.818F200.0
N15870G3X22.500Y53.757I-1.061J-1.061
N15880G01Y38.920
N15890Z-2.900
N15900Y34.920
N15910G01Z-3.000F30.0
N15920G01Y24.000F200.0
N15930G01Z-3.025F30.0
N15940G3X24.000Y22.500I1.500J0.000F200.0
N15950G01X38.781
N15960Z-2.900
N15970X42.781
N15980G01Z-3.025F30.0
N15990G01X53.757F200.0
N16000G3X54.818Y25.061I0.000J1.500
N16010G01X41.006Y38.872
N16020Z-2.900
N16030X38.178Y41.701
N16040G01Z-3.025F30.0
N16050G01X25.061Y54.818F200.0
N16060G3X22.500Y53.757I-1.061J-1.061
N16070G01Y38.920
N16080Z-2.900
N16090Y34.920
N16100G01Z-3.025F30.0
N16110G01Y24.000F200.0
N16120G01Z-3.050F30.0
N16130G3X24.000Y22.500I1.500J0.000F200.0
N16140G01X38.781
N16150Z-2.900
N16160X42.781
N16170G01Z-3.050F30.0
N16180G01X53.757F200.0
N16190G3X54.818Y25.061I0.000J1.500
N16200G01X41.006Y38.872
N16210Z-2.900
N16220X38.178Y41.701
N16230G01Z-3.050F30.0
N16240G01X25.061Y54.818F200.0
N16250G3X22.500Y53.757I-1.061J-1.061
N16260G01Y38.920
N16270Z-2.900
N16280Y34.920
N16290G01Z-3.050F30.0
N16300G01Y24.000F200.0
N16310G01Z-3.075F30.0
N16320G3X24.000Y22.500I1.500J0.000F200.0
N16330G01X38.781
N16340Z-2.900
N16350X42.781
N16360G01Z-3.075F30.0
N16370G01X53.757F200.0
N16380G3X54.818Y25.061I0.000J1.500
N16390G01X41.006Y38.872
N16400Z-2.900
N16410X38.178Y41.701
N16420G01Z-3.075F30.0
N16430G01X25.061Y54.818F200.0
N16440G3X22.500Y53.757I-1.061J-1.061
N16450G01Y38.920
N16460Z-2.900
N16470Y34.920
N16480G01Z-3.075F30.0
N16490G01Y24.000F200.0
N16500G01Z-3.100F30.0
N16510G3X24.000Y22.500I1.500J0.000F200.0
N16520G01X38.781
N16530Z-2.900
N16540X42.781
N16550G01Z-3.100F30.0
N16560G01X53.757F200.0
N16570G3X54.818Y25.061I0.000J1.500
N16580G01X41.006Y38.872
N16590Z-2.900
N16600X38.178Y41.701
N16610G01Z-3.100F30.0
N16620G01X25.061Y54.818F200.0
N16630G3X22.500Y53.757I-1.061J-1.061
N16640G01Y38.920
N16650Z-2.900
N16660Y34.920
N16670G01Z-3.100F30.0
N16680G01Y24.000F200.0
N16690G00Z6.000
N16700G00X13.600Y31.000
N16710G01Z-0.025F30.0
N16720G01X13.500Y31.100F200.0
N16730X13.400Y31.000
N16740X13.500Y30.900
N16750X13.600Y31.000
N16760G01Z-0.050F30.0
N16770G01X13.500Y31.100F200.0
N16780X13.400Y31.000
N16790X13.500Y30.900
N16800X13.600Y31.000
N16810G01Z-0.075F30.0
N16820G01X13.500Y31.100F200.0
N16830X13.400Y31.000
N16840X13.500Y30.900
N16850X13.600Y31.000
N16860G01Z-0.100F30.0
N16870G01X13.500Y31.100F200.0
N16880X13.400Y31.000
N16890X13.500Y30.900
N16900X13.600Y31.000
N16910G01Z-0.125F30.0
N16920G01X13.500Y31.100F200.0
N16930X13.400Y31.000
N16940X13.500Y30.900
N16950X13.600Y31.000
N16960G01Z-0.150F30.0
N16970G01X13.500Y31.100F200.0
N16980X13.400Y31.000
N16990X13.500Y30.900
N17000X13.600Y31.000
N17010G01Z-0.175F30.0
N17020G01X13.500Y31.100F200.0
N17030X13.400Y31.000
N17040X13.500Y30.900
N17050X13.600Y31.000
N17060G01Z-0.200F30.0
N17070G01X13.500Y31.100F200.0
N17080X13.400Y31.000
N17090X13.500Y30.900
N17100X13.600Y31.000
N17110G01Z-0.225F30.0
N17120G01X13.500Y31.100F200.0
N17130X13.400Y31.000
N17140X13.500Y30.900
N17150X13.600Y31.000
N17160G01Z-0.250F30.0
N17170G01X13.500Y31.100F200.0
N17180X13.400Y31.000
N17190X13.500Y30.900
N17200X13.600Y31.000
N17210G01Z-0.275F30.0
N17220G01X13.500Y31.100F200.0
N17230X13.400Y31.000
N17240X13.500Y30.900
N17250X13.600Y31.000
N17260G01Z-0.300F30.0
N17270G01X13.500Y31.100F200.0
N17280X13.400Y31.000
N17290X13.500Y30.900
N17300X13.600Y31.000
N17310G01Z-0.325F30.0
N17320G01X13.500Y31.100F200.0
N17330X13.400Y31.000
N17340X13.500Y30.900
N17350X13.600Y31.000
N17360G01Z-0.350F30.0
N17370G01X13.500Y31.100F200.0
N17380X13.400Y31.000
N17390X13.500Y30.900
N17400X13.600Y31.000
N17410G01Z-0.375F30.0
N17420G01X13.500Y31.100F200.0
N17430X13.400Y31.000
N17440X13.500Y30.900
N17450X13.600Y31.000
N17460G01Z-0.400F30.0
N17470G01X13.500Y31.100F200.0
N17480X13.400Y31.000
N17490X13.500Y30.900
N17500X13.600Y31.000
N17510G01Z-0.425F30.0
N17520G01X13.500Y31.100F200.0
N17530X13.400Y31.000
N17540X13.500Y30.900
N17550X13.600Y31.000
N17560G01Z-0.450F30.0
N17570G01X13.500Y31.100F200.0
N17580X13.400Y31.000
N17590X13.500Y30.900
N17600X13.600Y31.000
N17610G01Z-0.475F30.0
N17620G01X13.500Y31.100F200.0
N17630X13.400Y31.000
N17640X13.500Y30.900
N17650X13.600Y31.000
N17660G01Z-0.500F30.0
N17670G01X13.500Y31.100F200.0
N17680X13.400Y31.000
N17690X13.500Y30.900
N17700X13.600Y31.000
N17710G01Z-0.525F30.0
N17720G01X13.500Y31.100F200.0
N17730X13.400Y31.000
N17740X13.500Y30.900
N17750X13.600Y31.000
N17760G01Z-0.550F30.0
N17770G01X13.500Y31.100F200.0
N17780X13.400Y31.000
N17790X13.500Y30.900
N17800X13.600Y31.000
N17810G01Z-0.575F30.0
N17820G01X13.500Y31.100F200.0
N17830X13.400Y31.000
N17840X13.500Y30.900
N17850X13.600Y31.000
N17860G01Z-0.600F30.0
N17870G01X13.500Y31.100F200.0
N17880X13.400Y31.000
N17890X13.500Y30.900
N17900X13.600Y31.000
N17910G01Z-0.625F30.0
N17920G01X13.500Y31.100F200.0
N17930X13.400Y31.000
N17940X13.500Y30.900
N17950X13.600Y31.000
N17960G01Z-0.650F30.0
N17970G01X13.500Y31.100F200.0
N17980X13.400Y31.000
N17990X13.500Y30.900
N18000X13.600Y31.000
N18010G01Z-0.675F30.0
N18020G01X13.500Y31.100F200.0
N18030X13.400Y31.000
N18040X13.500Y30.900
N18050X13.600Y31.000
N18060G01Z-0.700F30.0
N18070G01X13.500Y31.100F200.0
N18080X13.400Y31.000
N18090X13.500Y30.900
N18100X13.600Y31.000
N18110G01Z-0.725F30.0
N18120G01X13.500Y31.100F200.0
N18130X13.400Y31.000
N18140X13.500Y30.900
N18150X13.600Y31.000
N18160G01Z-0.750F30.0
N18170G01X13.500Y31.100F200.0
N18180X13.400Y31.000
N18190X13.500Y30.900
N18200X13.600Y31.000
N18210G01Z-0.775F30.0
N18220G01X13.500Y31.100F200.0
N18230X13.400Y31.000
N18240X13.500Y30.900
N18250X13.600Y31.000
N18260G01Z-0.800F30.0
N18270G01X13.500Y31.100F200.0
N18280X13.400Y31.000
N18290X13.500Y30.900
N18300X13.600Y31.000
N18310G01Z-0.825F30.0
N18320G01X13.500Y31.100F200.0
N18330X13.400Y31.000
N18340X13.500Y30.900
N18350X13.600Y31.000
N18360G01Z-0.850F30.0
N18370G01X13.500Y31.100F200.0
N18380X13.400Y31.000
N18390X13.500Y30.900
N18400X13.600Y31.000
N18410G01Z-0.875F30.0
N18420G01X13.500Y31.100F200.0
N18430X13.400Y31.000
N18440X13.500Y30.900
N18450X13.600Y31.000
N18460G01Z-0.900F30.0
N18470G01X13.500Y31.100F200.0
N18480X13.400Y31.000
N18490X13.500Y30.900
N18500X13.600Y31.000
N18510G01Z-0.925F30.0
N18520G01X13.500Y31.100F200.0
N18530X13.400Y31.000
N18540X13.500Y30.900
N18550X13.600Y31.000
N18560G01Z-0.950F30.0
N18570G01X13.500Y31.100F200.0
N18580X13.400Y31.000
N18590X13.500Y30.900
N18600X13.600Y31.000
N18610G01Z-0.975F30.0
N18620G01X13.500Y31.100F200.0
N18630X13.400Y31.000
N18640X13.500Y30.900
N18650X13.600Y31.000
N18660G01Z-1.000F30.0
N18670G01X13.500Y31.100F200.0
N18680X13.400Y31.000
N18690X13.500Y30.900
N18700X13.600Y31.000
N18710G01Z-1.025F30.0
N18720G01X13.500Y31.100F200.0
N18730X13.400Y31.000
N18740X13.500Y30.900
N18750X13.600Y31.000
N18760G01Z-1.050F30.0
N18770G01X13.500Y31.100F200.0
N18780X13.400Y31.000
N18790X13.500Y30.900
N18800X13.600Y31.000
N18810G01Z-1.075F30.0
N18820G01X13.500Y31.100F200.0
N18830X13.400Y31.000
N18840X13.500Y30.900
N18850X13.600Y31.000
N18860G01Z-1.100F30.0
N18870G01X13.500Y31.100F200.0
N18880X13.400Y31.000
N18890X13.500Y30.900
N18900X13.600Y31.000
N18910G01Z-1.125F30.0
N18920G01X13.500Y31.100F200.0
N18930X13.400Y31.000
N18940X13.500Y30.900
N18950X13.600Y31.000
N18960G01Z-1.150F30.0
N18970G01X13.500Y31.100F200.0
N18980X13.400Y31.000
N18990X13.500Y30.900
N19000X13.600Y31.000
N19010G01Z-1.175F30.0
N19020G01X13.500Y31.100F200.0
N19030X13.400Y31.000
N19040X13.500Y30.900
N19050X13.600Y31.000
N19060G01Z-1.200F30.0
N19070G01X13.500Y31.100F200.0
N19080X13.400Y31.000
N19090X13.500Y30.900
N19100X13.600Y31.000
N19110G01Z-1.225F30.0
N19120G01X13.500Y31.100F200.0
N19130X13.400Y31.000
N19140X13.500Y30.900
N19150X13.600Y31.000
N19160G01Z-1.250F30.0
N19170G01X13.500Y31.100F200.0
N19180X13.400Y31.000
N19190X13.500Y30.900
N19200X13.600Y31.000
N19210G01Z-1.275F30.0
N19220G01X13.500Y31.100F200.0
N19230X13.400Y31.000
N19240X13.500Y30.900
N19250X13.600Y31.000
N19260G01Z-1.300F30.0
N19270G01X13.500Y31.100F200.0
N19280X13.400Y31.000
N19290X13.500Y30.900
N19300X13.600Y31.000
N19310G01Z-1.325F30.0
N19320G01X13.500Y31.100F200.0
N19330X13.400Y31.000
N19340X13.500Y30.900
N19350X13.600Y31.000
N19360G01Z-1.350F30.0
N19370G01X13.500Y31.100F200.0
N19380X13.400Y31.000
N19390X13.500Y30.900
N19400X13.600Y31.000
N19410G01Z-1.375F30.0
N19420G01X13.500Y31.100F200.0
N19430X13.400Y31.000
N19440X13.500Y30.900
N19450X13.600Y31.000
N19460G01Z-1.400F30.0
N19470G01X13.500Y31.100F200.0
N19480X13.400Y31.000
N19490X13.500Y30.900
N19500X13.600Y31.000
N19510G01Z-1.425F30.0
N19520G01X13.500Y31.100F200.0
N19530X13.400Y31.000
N19540X13.500Y30.900
N19550X13.600Y31.000
N19560G01Z-1.450F30.0
N19570G01X13.500Y31.100F200.0
N19580X13.400Y31.000
N19590X13.500Y30.900
N19600X13.600Y31.000
N19610G01Z-1.475F30.0
N19620G01X13.500Y31.100F200.0
N19630X13.400Y31.000
N19640X13.500Y30.900
N19650X13.600Y31.000
N19660G01Z-1.500F30.0
N19670G01X13.500Y31.100F200.0
N19680X13.400Y31.000
N19690X13.500Y30.900
N19700X13.600Y31.000
N19710G01Z-1.525F30.0
N19720G01X13.500Y31.100F200.0
N19730X13.400Y31.000
N19740X13.500Y30.900
N19750X13.600Y31.000
N19760G01Z-1.550F30.0
N19770G01X13.500Y31.100F200.0
N19780X13.400Y31.000
N19790X13.500Y30.900
N19800X13.600Y31.000
N19810G01Z-1.575F30.0
N19820G01X13.500Y31.100F200.0
N19830X13.400Y31.000
N19840X13.500Y30.900
N19850X13.600Y31.000
N19860G01Z-1.600F30.0
N19870G01X13.500Y31.100F200.0
N19880X13.400Y31.000
N19890X13.500Y30.900
N19900X13.600Y31.000
N19910G01Z-1.625F30.0
N19920G01X13.500Y31.100F200.0
N19930X13.400Y31.000
N19940X13.500Y30.900
N19950X13.600Y31.000
N19960G01Z-1.650F30.0
N19970G01X13.500Y31.100F200.0
N19980X13.400Y31.000
N19990X13.500Y30.900
N20000X13.600Y31.000
N20010G01Z-1.675F30.0
N20020G01X13.500Y31.100F200.0
N20030X13.400Y31.000
N20040X13.500Y30.900
N20050X13.600Y31.000
N20060G01Z-1.700F30.0
N20070G01X13.500Y31.100F200.0
N20080X13.400Y31.000
N20090X13.500Y30.900
N20100X13.600Y31.000
N20110G01Z-1.725F30.0
N20120G01X13.500Y31.100F200.0
N20130X13.400Y31.000
N20140X13.500Y30.900
N20150X13.600Y31.000
N20160G01Z-1.750F30.0
N20170G01X13.500Y31.100F200.0
N20180X13.400Y31.000
N20190X13.500Y30.900
N20200X13.600Y31.000
N20210G01Z-1.775F30.0
N20220G01X13.500Y31.100F200.0
N20230X13.400Y31.000
N20240X13.500Y30.900
N20250X13.600Y31.000
N20260G01Z-1.800F30.0
N20270G01X13.500Y31.100F200.0
N20280X13.400Y31.000
N20290X13.500Y30.900
N20300X13.600Y31.000
N20310G01Z-1.825F30.0
N20320G01X13.500Y31.100F200.0
N20330X13.400Y31.000
N20340X13.500Y30.900
N20350X13.600Y31.000
N20360G01Z-1.850F30.0
N20370G01X13.500Y31.100F200.0
N20380X13.400Y31.000
N20390X13.500Y30.900
N20400X13.600Y31.000
N20410G01Z-1.875F30.0
N20420G01X13.500Y31.100F200.0
N20430X13.400Y31.000
N20440X13.500Y30.900
N20450X13.600Y31.000
N20460G01Z-1.900F30.0
N20470G01X13.500Y31.100F200.0
N20480X13.400Y31.000
N20490X13.500Y30.900
N20500X13.600Y31.000
N20510G01Z-1.925F30.0
N20520G01X13.500Y31.100F200.0
N20530X13.400Y31.000
N20540X13.500Y30.900
N20550X13.600Y31.000
N20560G01Z-1.950F30.0
N20570G01X13.500Y31.100F200.0
N20580X13.400Y31.000
N20590X13.500Y30.900
N20600X13.600Y31.000
N20610G01Z-1.975F30.0
N20620G01X13.500Y31.100F200.0
N20630X13.400Y31.000
N20640X13.500Y30.900
N20650X13.600Y31.000
N20660G01Z-2.000F30.0
N20670G01X13.500Y31.100F200.0
N20680X13.400Y31.000
N20690X13.500Y30.900
N20700X13.600Y31.000
N20710G01Z-2.025F30.0
N20720G01X13.500Y31.100F200.0
N20730X13.400Y31.000
N20740X13.500Y30.900
N20750X13.600Y31.000
N20760G01Z-2.050F30.0
N20770G01X13.500Y31.100F200.0
N20780X13.400Y31.000
N20790X13.500Y30.900
N20800X13.600Y31.000
N20810G01Z-2.075F30.0
N20820G01X13.500Y31.100F200.0
N20830X13.400Y31.000
N20840X13.500Y30.900
N20850X13.600Y31.000
N20860G01Z-2.100F30.0
N20870G01X13.500Y31.100F200.0
N20880X13.400Y31.000
N20890X13.500Y30.900
N20900X13.600Y31.000
N20910G01Z-2.125F30.0
N20920G01X13.500Y31.100F200.0
N20930X13.400Y31.000
N20940X13.500Y30.900
N20950X13.600Y31.000
N20960G01Z-2.150F30.0
N20970G01X13.500Y31.100F200.0
N20980X13.400Y31.000
N20990X13.500Y30.900
N21000X13.600Y31.000
N21010G01Z-2.175F30.0
N21020G01X13.500Y31.100F200.0
N21030X13.400Y31.000
N21040X13.500Y30.900
N21050X13.600Y31.000
N21060G01Z-2.200F30.0
N21070G01X13.500Y31.100F200.0
N21080X13.400Y31.000
N21090X13.500Y30.900
N21100X13.600Y31.000
N21110G01Z-2.225F30.0
N21120G01X13.500Y31.100F200.0
N21130X13.400Y31.000
N21140X13.500Y30.900
N21150X13.600Y31.000
N21160G01Z-2.250F30.0
N21170G01X13.500Y31.100F200.0
N21180X13.400Y31.000
N21190X13.500Y30.900
N21200X13.600Y31.000
N21210G01Z-2.275F30.0
N21220G01X13.500Y31.100F200.0
N21230X13.400Y31.000
N21240X13.500Y30.900
N21250X13.600Y31.000
N21260G01Z-2.300F30.0
N21270G01X13.500Y31.100F200.0
N21280X13.400Y31.000
N21290X13.500Y30.900
N21300X13.600Y31.000
N21310G01Z-2.325F30.0
N21320G01X13.500Y31.100F200.0
N21330X13.400Y31.000
N21340X13.500Y30.900
N21350X13.600Y31.000
N21360G01Z-2.350F30.0
N21370G01X13.500Y31.100F200.0
N21380X13.400Y31.000
N21390X13.500Y30.900
N21400X13.600Y31.000
N21410G01Z-2.375F30.0
N21420G01X13.500Y31.100F200.0
N21430X13.400Y31.000
N21440X13.500Y30.900
N21450X13.600Y31.000
N21460G01Z-2.400F30.0
N21470G01X13.500Y31.100F200.0
N21480X13.400Y31.000
N21490X13.500Y30.900
N21500X13.600Y31.000
N21510G01Z-2.425F30.0
N21520G01X13.500Y31.100F200.0
N21530X13.400Y31.000
N21540X13.500Y30.900
N21550X13.600Y31.000
N21560G01Z-2.450F30.0
N21570G01X13.500Y31.100F200.0
N21580X13.400Y31.000
N21590X13.500Y30.900
N21600X13.600Y31.000
N21610G01Z-2.475F30.0
N21620G01X13.500Y31.100F200.0
N21630X13.400Y31.000
N21640X13.500Y30.900
N21650X13.600Y31.000
N21660G01Z-2.500F30.0
N21670G01X13.500Y31.100F200.0
N21680X13.400Y31.000
N21690X13.500Y30.900
N21700X13.600Y31.000
N21710G01Z-2.525F30.0
N21720G01X13.500Y31.100F200.0
N21730X13.400Y31.000
N21740X13.500Y30.900
N21750X13.600Y31.000
N21760G01Z-2.550F30.0
N21770G01X13.500Y31.100F200.0
N21780X13.400Y31.000
N21790X13.500Y30.900
N21800X13.600Y31.000
N21810G01Z-2.575F30.0
N21820G01X13.500Y31.100F200.0
N21830X13.400Y31.000
N21840X13.500Y30.900
N21850X13.600Y31.000
N21860G01Z-2.600F30.0
N21870G01X13.500Y31.100F200.0
N21880X13.400Y31.000
N21890X13.500Y30.900
N21900X13.600Y31.000
N21910G01Z-2.625F30.0
N21920G01X13.500Y31.100F200.0
N21930X13.400Y31.000
N21940X13.500Y30.900
N21950X13.600Y31.000
N21960G01Z-2.650F30.0
N21970G01X13.500Y31.100F200.0
N21980X13.400Y31.000
N21990X13.500Y30.900
N22000X13.600Y31.000
N22010G01Z-2.675F30.0
N22020G01X13.500Y31.100F200.0
N22030X13.400Y31.000
N22040X13.500Y30.900
N22050X13.600Y31.000
N22060G01Z-2.700F30.0
N22070G01X13.500Y31.100F200.0
N22080X13.400Y31.000
N22090X13.500Y30.900
N22100X13.600Y31.000
N22110G01Z-2.725F30.0
N22120G01X13.500Y31.100F200.0
N22130X13.400Y31.000
N22140X13.500Y30.900
N22150X13.600Y31.000
N22160G01Z-2.750F30.0
N22170G01X13.500Y31.100F200.0
N22180X13.400Y31.000
N22190X13.500Y30.900
N22200X13.600Y31.000
N22210G01Z-2.775F30.0
N22220G01X13.500Y31.100F200.0
N22230X13.400Y31.000
N22240X13.500Y30.900
N22250X13.600Y31.000
N22260G01Z-2.800F30.0
N22270G01X13.500Y31.100F200.0
N22280X13.400Y31.000
N22290X13.500Y30.900
N22300X13.600Y31.000
N22310G01Z-2.825F30.0
N22320G01X13.500Y31.100F200.0
N22330X13.400Y31.000
N22340X13.500Y30.900
N22350X13.600Y31.000
N22360G01Z-2.850F30.0
N22370G01X13.500Y31.100F200.0
N22380X13.400Y31.000
N22390X13.500Y30.900
N22400X13.600Y31.000
N22410G01Z-2.875F30.0
N22420G01X13.500Y31.100F200.0
N22430X13.400Y31.000
N22440X13.500Y30.900
N22450X13.600Y31.000
N22460G01Z-2.900F30.0
N22470G01X13.500Y31.100F200.0
N22480X13.400Y31.000
N22490X13.500Y30.900
N22500X13.600Y31.000
N22510G01Z-2.925F30.0
N22520G01X13.500Y31.100F200.0
N22530X13.400Y31.000
N22540X13.500Y30.900
N22550X13.600Y31.000
N22560G01Z-2.950F30.0
N22570G01X13.500Y31.100F200.0
N22580X13.400Y31.000
N22590X13.500Y30.900
N22600X13.600Y31.000
N22610G01Z-2.975F30.0
N22620G01X13.500Y31.100F200.0
N22630X13.400Y31.000
N22640X13.500Y30.900
N22650X13.600Y31.000
N22660G01Z-3.000F30.0
N22670G01X13.500Y31.100F200.0
N22680X13.400Y31.000
N22690X13.500Y30.900
N22700X13.600Y31.000
N22710G01Z-3.025F30.0
N22720G01X13.500Y31.100F200.0
N22730X13.400Y31.000
N22740X13.500Y30.900
N22750X13.600Y31.000
N22760G01Z-3.050F30.0
N22770G01X13.500Y31.100F200.0
N22780X13.400Y31.000
N22790X13.500Y30.900
N22800X13.600Y31.000
N22810G01Z-3.075F30.0
N22820G01X13.500Y31.100F200.0
N22830X13.400Y31.000
N22840X13.500Y30.900
N22850X13.600Y31.000
N22860G01Z-3.100F30.0
N22870G01X13.500Y31.100F200.0
N22880X13.400Y31.000
N22890X13.500Y30.900
N22900X13.600Y31.000
N22910G00Z6.000
N22920G00Y41.000
N22930G01Z-0.025F30.0
N22940G01X13.500Y41.100F200.0
N22950X13.400Y41.000
N22960X13.500Y40.900
N22970X13.600Y41.000
N22980G01Z-0.050F30.0
N22990G01X13.500Y41.100F200.0
N23000X13.400Y41.000
N23010X13.500Y40.900
N23020X13.600Y41.000
N23030G01Z-0.075F30.0
N23040G01X13.500Y41.100F200.0
N23050X13.400Y41.000
N23060X13.500Y40.900
N23070X13.600Y41.000
N23080G01Z-0.100F30.0
N23090G01X13.500Y41.100F200.0
N23100X13.400Y41.000
N23110X13.500Y40.900
N23120X13.600Y41.000
N23130G01Z-0.125F30.0
N23140G01X13.500Y41.100F200.0
N23150X13.400Y41.000
N23160X13.500Y40.900
N23170X13.600Y41.000
N23180G01Z-0.150F30.0
N23190G01X13.500Y41.100F200.0
N23200X13.400Y41.000
N23210X13.500Y40.900
N23220X13.600Y41.000
N23230G01Z-0.175F30.0
N23240G01X13.500Y41.100F200.0
N23250X13.400Y41.000
N23260X13.500Y40.900
N23270X13.600Y41.000
N23280G01Z-0.200F30.0
N23290G01X13.500Y41.100F200.0
N23300X13.400Y41.000
N23310X13.500Y40.900
N23320X13.600Y41.000
N23330G01Z-0.225F30.0
N23340G01X13.500Y41.100F200.0
N23350X13.400Y41.000
N23360X13.500Y40.900
N23370X13.600Y41.000
N23380G01Z-0.250F30.0
N23390G01X13.500Y41.100F200.0
N23400X13.400Y41.000
N23410X13.500Y40.900
N23420X13.600Y41.000
N23430G01Z-0.275F30.0
N23440G01X13.500Y41.100F200.0
N23450X13.400Y41.000
N23460X13.500Y40.900
N23470X13.600Y41.000
N23480G01Z-0.300F30.0
N23490G01X13.500Y41.100F200.0
N23500X13.400Y41.000
N23510X13.500Y40.900
N23520X13.600Y41.000
N23530G01Z-0.325F30.0
N23540G01X13.500Y41.100F200.0
N23550X13.400Y41.000
N23560X13.500Y40.900
N23570X13.600Y41.000
N23580G01Z-0.350F30.0
N23590G01X13.500Y41.100F200.0
N23600X13.400Y41.000
N23610X13.500Y40.900
N23620X13.600Y41.000
N23630G01Z-0.375F30.0
N23640G01X13.500Y41.100F200.0
N23650X13.400Y41.000
N23660X13.500Y40.900
N23670X13.600Y41.000
N23680G01Z-0.400F30.0
N23690G01X13.500Y41.100F200.0
N23700X13.400Y41.000
N23710X13.500Y40.900
N23720X13.600Y41.000
N23730G01Z-0.425F30.0
N23740G01X13.500Y41.100F200.0
N23750X13.400Y41.000
N23760X13.500Y40.900
N23770X13.600Y41.000
N23780G01Z-0.450F30.0
N23790G01X13.500Y41.100F200.0
N23800X13.400Y41.000
N23810X13.500Y40.900
N23820X13.600Y41.000
N23830G01Z-0.475F30.0
N23840G01X13.500Y41.100F200.0
N23850X13.400Y41.000
N23860X13.500Y40.900
N23870X13.600Y41.000
N23880G01Z-0.500F30.0
N23890G01X13.500Y41.100F200.0
N23900X13.400Y41.000
N23910X13.500Y40.900
N23920X13.600Y41.000
N23930G01Z-0.525F30.0
N23940G01X13.500Y41.100F200.0
N23950X13.400Y41.000
N23960X13.500Y40.900
N23970X13.600Y41.000
N23980G01Z-0.550F30.0
N23990G01X13.500Y41.100F200.0
N24000X13.400Y41.000
N24010X13.500Y40.900
N24020X13.600Y41.000
N24030G01Z-0.575F30.0
N24040G01X13.500Y41.100F200.0
N24050X13.400Y41.000
N24060X13.500Y40.900
N24070X13.600Y41.000
N24080G01Z-0.600F30.0
N24090G01X13.500Y41.100F200.0
N24100X13.400Y41.000
N24110X13.500Y40.900
N24120X13.600Y41.000
N24130G01Z-0.625F30.0
N24140G01X13.500Y41.100F200.0
N24150X13.400Y41.000
N24160X13.500Y40.900
N24170X13.600Y41.000
N24180G01Z-0.650F30.0
N24190G01X13.500Y41.100F200.0
N24200X13.400Y41.000
N24210X13.500Y40.900
N24220X13.600Y41.000
N24230G01Z-0.675F30.0
N24240G01X13.500Y41.100F200.0
N24250X13.400Y41.000
N24260X13.500Y40.900
N24270X13.600Y41.000
N24280G01Z-0.700F30.0
N24290G01X13.500Y41.100F200.0
N24300X13.400Y41.000
N24310X13.500Y40.900
N24320X13.600Y41.000
N24330G01Z-0.725F30.0
N24340G01X13.500Y41.100F200.0
N24350X13.400Y41.000
N24360X13.500Y40.900
N24370X13.600Y41.000
N24380G01Z-0.750F30.0
N24390G01X13.500Y41.100F200.0
N24400X13.400Y41.000
N24410X13.500Y40.900
N24420X13.600Y41.000
N24430G01Z-0.775F30.0
N24440G01X13.500Y41.100F200.0
N24450X13.400Y41.000
N24460X13.500Y40.900
N24470X13.600Y41.000
N24480G01Z-0.800F30.0
N24490G01X13.500Y41.100F200.0
N24500X13.400Y41.000
N24510X13.500Y40.900
N24520X13.600Y41.000
N24530G01Z-0.825F30.0
N24540G01X13.500Y41.100F200.0
N24550X13.400Y41.000
N24560X13.500Y40.900
N24570X13.600Y41.000
N24580G01Z-0.850F30.0
N24590G01X13.500Y41.100F200.0
N24600X13.400Y41.000
N24610X13.500Y40.900
N24620X13.600Y41.000
N24630G01Z-0.875F30.0
N24640G01X13.500Y41.100F200.0
N24650X13.400Y41.000
N24660X13.500Y40.900
N24670X13.600Y41.000
N24680G01Z-0.900F30.0
N24690G01X13.500Y41.100F200.0
N24700X13.400Y41.000
N24710X13.500Y40.900
N24720X13.600Y41.000
N24730G01Z-0.925F30.0
N24740G01X13.500Y41.100F200.0
N24750X13.400Y41.000
N24760X13.500Y40.900
N24770X13.600Y41.000
N24780G01Z-0.950F30.0
N24790G01X13.500Y41.100F200.0
N24800X13.400Y41.000
N24810X13.500Y40.900
N24820X13.600Y41.000
N24830G01Z-0.975F30.0
N24840G01X13.500Y41.100F200.0
N24850X13.400Y41.000
N24860X13.500Y40.900
N24870X13.600Y41.000
N24880G01Z-1.000F30.0
N24890G01X13.500Y41.100F200.0
N24900X13.400Y41.000
N24910X13.500Y40.900
N24920X13.600Y41.000
N24930G01Z-1.025F30.0
N24940G01X13.500Y41.100F200.0
N24950X13.400Y41.000
N24960X13.500Y40.900
N24970X13.600Y41.000
N24980G01Z-1.050F30.0
N24990G01X13.500Y41.100F200.0
N25000X13.400Y41.000
N25010X13.500Y40.900
N25020X13.600Y41.000
N25030G01Z-1.075F30.0
N25040G01X13.500Y41.100F200.0
N25050X13.400Y41.000
N25060X13.500Y40.900
N25070X13.600Y41.000
N25080G01Z-1.100F30.0
N25090G01X13.500Y41.100F200.0
N25100X13.400Y41.000
N25110X13.500Y40.900
N25120X13.600Y41.000
N25130G01Z-1.125F30.0
N25140G01X13.500Y41.100F200.0
N25150X13.400Y41.000
N25160X13.500Y40.900
N25170X13.600Y41.000
N25180G01Z-1.150F30.0
N25190G01X13.500Y41.100F200.0
N25200X13.400Y41.000
N25210X13.500Y40.900
N25220X13.600Y41.000
N25230G01Z-1.175F30.0
N25240G01X13.500Y41.100F200.0
N25250X13.400Y41.000
N25260X13.500Y40.900
N25270X13.600Y41.000
N25280G01Z-1.200F30.0
N25290G01X13.500Y41.100F200.0
N25300X13.400Y41.000
N25310X13.500Y40.900
N25320X13.600Y41.000
N25330G01Z-1.225F30.0
N25340G01X13.500Y41.100F200.0
N25350X13.400Y41.000
N25360X13.500Y40.900
N25370X13.600Y41.000
N25380G01Z-1.250F30.0
N25390G01X13.500Y41.100F200.0
N25400X13.400Y41.000
N25410X13.500Y40.900
N25420X13.600Y41.000
N25430G01Z-1.275F30.0
N25440G01X13.500Y41.100F200.0
N25450X13.400Y41.000
N25460X13.500Y40.900
N25470X13.600Y41.000
N25480G01Z-1.300F30.0
N25490G01X13.500Y41.100F200.0
N25500X13.400Y41.000
N25510X13.500Y40.900
N25520X13.600Y41.000
N25530G01Z-1.325F30.0
N25540G01X13.500Y41.100F200.0
N25550X13.400Y41.000
N25560X13.500Y40.900
N25570X13.600Y41.000
N25580G01Z-1.350F30.0
N25590G01X13.500Y41.100F200.0
N25600X13.400Y41.000
N25610X13.500Y40.900
N25620X13.600Y41.000
N25630G01Z-1.375F30.0
N25640G01X13.500Y41.100F200.0
N25650X13.400Y41.000
N25660X13.500Y40.900
N25670X13.600Y41.000
N25680G01Z-1.400F30.0
N25690G01X13.500Y41.100F200.0
N25700X13.400Y41.000
N25710X13.500Y40.900
N25720X13.600Y41.000
N25730G01Z-1.425F30.0
N25740G01X13.500Y41.100F200.0
N25750X13.400Y41.000
N25760X13.500Y40.900
N25770X13.600Y41.000
N25780G01Z-1.450F30.0
N25790G01X13.500Y41.100F200.0
N25800X13.400Y41.000
N25810X13.500Y40.900
N25820X13.600Y41.000
N25830G01Z-1.475F30.0
N25840G01X13.500Y41.100F200.0
N25850X13.400Y41.000
N25860X13.500Y40.900
N25870X13.600Y41.000
N25880G01Z-1.500F30.0
N25890G01X13.500Y41.100F200.0
N25900X13.400Y41.000
N25910X13.500Y40.900
N25920X13.600Y41.000
N25930G01Z-1.525F30.0
N25940G01X13.500Y41.100F200.0
N25950X13.400Y41.000
N25960X13.500Y40.900
N25970X13.600Y41.000
N25980G01Z-1.550F30.0
N25990G01X13.500Y41.100F200.0
N26000X13.400Y41.000
N26010X13.500Y40.900
N26020X13.600Y41.000
N26030G01Z-1.575F30.0
N26040G01X13.500Y41.100F200.0
N26050X13.400Y41.000
N26060X13.500Y40.900
N26070X13.600Y41.000
N26080G01Z-1.600F30.0
N26090G01X13.500Y41.100F200.0
N26100X13.400Y41.000
N26110X13.500Y40.900
N26120X13.600Y41.000
N26130G01Z-1.625F30.0
N26140G01X13.500Y41.100F200.0
N26150X13.400Y41.000
N26160X13.500Y40.900
N26170X13.600Y41.000
N26180G01Z-1.650F30.0
N26190G01X13.500Y41.100F200.0
N26200X13.400Y41.000
N26210X13.500Y40.900
N26220X13.600Y41.000
N26230G01Z-1.675F30.0
N26240G01X13.500Y41.100F200.0
N26250X13.400Y41.000
N26260X13.500Y40.900
N26270X13.600Y41.000
N26280G01Z-1.700F30.0
N26290G01X13.500Y41.100F200.0
N26300X13.400Y41.000
N26310X13.500Y40.900
N26320X13.600Y41.000
N26330G01Z-1.725F30.0
N26340G01X13.500Y41.100F200.0
N26350X13.400Y41.000
N26360X13.500Y40.900
N26370X13.600Y41.000
N26380G01Z-1.750F30.0
N26390G01X13.500Y41.100F200.0
N26400X13.400Y41.000
N26410X13.500Y40.900
N26420X13.600Y41.000
N26430G01Z-1.775F30.0
N26440G01X13.500Y41.100F200.0
N26450X13.400Y41.000
N26460X13.500Y40.900
N26470X13.600Y41.000
N26480G01Z-1.800F30.0
N26490G01X13.500Y41.100F200.0
N26500X13.400Y41.000
N26510X13.500Y40.900
N26520X13.600Y41.000
N26530G01Z-1.825F30.0
N26540G01X13.500Y41.100F200.0
N26550X13.400Y41.000
N26560X13.500Y40.900
N26570X13.600Y41.000
N26580G01Z-1.850F30.0
N26590G01X13.500Y41.100F200.0
N26600X13.400Y41.000
N26610X13.500Y40.900
N26620X13.600Y41.000
N26630G01Z-1.875F30.0
N26640G01X13.500Y41.100F200.0
N26650X13.400Y41.000
N26660X13.500Y40.900
N26670X13.600Y41.000
N26680G01Z-1.900F30.0
N26690G01X13.500Y41.100F200.0
N26700X13.400Y41.000
N26710X13.500Y40.900
N26720X13.600Y41.000
N26730G01Z-1.925F30.0
N26740G01X13.500Y41.100F200.0
N26750X13.400Y41.000
N26760X13.500Y40.900
N26770X13.600Y41.000
N26780G01Z-1.950F30.0
N26790G01X13.500Y41.100F200.0
N26800X13.400Y41.000
N26810X13.500Y40.900
N26820X13.600Y41.000
N26830G01Z-1.975F30.0
N26840G01X13.500Y41.100F200.0
N26850X13.400Y41.000
N26860X13.500Y40.900
N26870X13.600Y41.000
N26880G01Z-2.000F30.0
N26890G01X13.500Y41.100F200.0
N26900X13.400Y41.000
N26910X13.500Y40.900
N26920X13.600Y41.000
N26930G01Z-2.025F30.0
N26940G01X13.500Y41.100F200.0
N26950X13.400Y41.000
N26960X13.500Y40.900
N26970X13.600Y41.000
N26980G01Z-2.050F30.0
N26990G01X13.500Y41.100F200.0
N27000X13.400Y41.000
N27010X13.500Y40.900
N27020X13.600Y41.000
N27030G01Z-2.075F30.0
N27040G01X13.500Y41.100F200.0
N27050X13.400Y41.000
N27060X13.500Y40.900
N27070X13.600Y41.000
N27080G01Z-2.100F30.0
N27090G01X13.500Y41.100F200.0
N27100X13.400Y41.000
N27110X13.500Y40.900
N27120X13.600Y41.000
N27130G01Z-2.125F30.0
N27140G01X13.500Y41.100F200.0
N27150X13.400Y41.000
N27160X13.500Y40.900
N27170X13.600Y41.000
N27180G01Z-2.150F30.0
N27190G01X13.500Y41.100F200.0
N27200X13.400Y41.000
N27210X13.500Y40.900
N27220X13.600Y41.000
N27230G01Z-2.175F30.0
N27240G01X13.500Y41.100F200.0
N27250X13.400Y41.000
N27260X13.500Y40.900
N27270X13.600Y41.000
N27280G01Z-2.200F30.0
N27290G01X13.500Y41.100F200.0
N27300X13.400Y41.000
N27310X13.500Y40.900
N27320X13.600Y41.000
N27330G01Z-2.225F30.0
N27340G01X13.500Y41.100F200.0
N27350X13.400Y41.000
N27360X13.500Y40.900
N27370X13.600Y41.000
N27380G01Z-2.250F30.0
N27390G01X13.500Y41.100F200.0
N27400X13.400Y41.000
N27410X13.500Y40.900
N27420X13.600Y41.000
N27430G01Z-2.275F30.0
N27440G01X13.500Y41.100F200.0
N27450X13.400Y41.000
N27460X13.500Y40.900
N27470X13.600Y41.000
N27480G01Z-2.300F30.0
N27490G01X13.500Y41.100F200.0
N27500X13.400Y41.000
N27510X13.500Y40.900
N27520X13.600Y41.000
N27530G01Z-2.325F30.0
N27540G01X13.500Y41.100F200.0
N27550X13.400Y41.000
N27560X13.500Y40.900
N27570X13.600Y41.000
N27580G01Z-2.350F30.0
N27590G01X13.500Y41.100F200.0
N27600X13.400Y41.000
N27610X13.500Y40.900
N27620X13.600Y41.000
N27630G01Z-2.375F30.0
N27640G01X13.500Y41.100F200.0
N27650X13.400Y41.000
N27660X13.500Y40.900
N27670X13.600Y41.000
N27680G01Z-2.400F30.0
N27690G01X13.500Y41.100F200.0
N27700X13.400Y41.000
N27710X13.500Y40.900
N27720X13.600Y41.000
N27730G01Z-2.425F30.0
N27740G01X13.500Y41.100F200.0
N27750X13.400Y41.000
N27760X13.500Y40.900
N27770X13.600Y41.000
N27780G01Z-2.450F30.0
N27790G01X13.500Y41.100F200.0
N27800X13.400Y41.000
N27810X13.500Y40.900
N27820X13.600Y41.000
N27830G01Z-2.475F30.0
N27840G01X13.500Y41.100F200.0
N27850X13.400Y41.000
N27860X13.500Y40.900
N27870X13.600Y41.000
N27880G01Z-2.500F30.0
N27890G01X13.500Y41.100F200.0
N27900X13.400Y41.000
N27910X13.500Y40.900
N27920X13.600Y41.000
N27930G01Z-2.525F30.0
N27940G01X13.500Y41.100F200.0
N27950X13.400Y41.000
N27960X13.500Y40.900
N27970X13.600Y41.000
N27980G01Z-2.550F30.0
N27990G01X13.500Y41.100F200.0
N28000X13.400Y41.000
N28010X13.500Y40.900
N28020X13.600Y41.000
N28030G01Z-2.575F30.0
N28040G01X13.500Y41.100F200.0
N28050X13.400Y41.000
N28060X13.500Y40.900
N28070X13.600Y41.000
N28080G01Z-2.600F30.0
N28090G01X13.500Y41.100F200.0
N28100X13.400Y41.000
N28110X13.500Y40.900
N28120X13.600Y41.000
N28130G01Z-2.625F30.0
N28140G01X13.500Y41.100F200.0
N28150X13.400Y41.000
N28160X13.500Y40.900
N28170X13.600Y41.000
N28180G01Z-2.650F30.0
N28190G01X13.500Y41.100F200.0
N28200X13.400Y41.000
N28210X13.500Y40.900
N28220X13.600Y41.000
N28230G01Z-2.675F30.0
N28240G01X13.500Y41.100F200.0
N28250X13.400Y41.000
N28260X13.500Y40.900
N28270X13.600Y41.000
N28280G01Z-2.700F30.0
N28290G01X13.500Y41.100F200.0
N28300X13.400Y41.000
N28310X13.500Y40.900
N28320X13.600Y41.000
N28330G01Z-2.725F30.0
N28340G01X13.500Y41.100F200.0
N28350X13.400Y41.000
N28360X13.500Y40.900
N28370X13.600Y41.000
N28380G01Z-2.750F30.0
N28390G01X13.500Y41.100F200.0
N28400X13.400Y41.000
N28410X13.500Y40.900
N28420X13.600Y41.000
N28430G01Z-2.775F30.0
N28440G01X13.500Y41.100F200.0
N28450X13.400Y41.000
N28460X13.500Y40.900
N28470X13.600Y41.000
N28480G01Z-2.800F30.0
N28490G01X13.500Y41.100F200.0
N28500X13.400Y41.000
N28510X13.500Y40.900
N28520X13.600Y41.000
N28530G01Z-2.825F30.0
N28540G01X13.500Y41.100F200.0
N28550X13.400Y41.000
N28560X13.500Y40.900
N28570X13.600Y41.000
N28580G01Z-2.850F30.0
N28590G01X13.500Y41.100F200.0
N28600X13.400Y41.000
N28610X13.500Y40.900
N28620X13.600Y41.000
N28630G01Z-2.875F30.0
N28640G01X13.500Y41.100F200.0
N28650X13.400Y41.000
N28660X13.500Y40.900
N28670X13.600Y41.000
N28680G01Z-2.900F30.0
N28690G01X13.500Y41.100F200.0
N28700X13.400Y41.000
N28710X13.500Y40.900
N28720X13.600Y41.000
N28730G01Z-2.925F30.0
N28740G01X13.500Y41.100F200.0
N28750X13.400Y41.000
N28760X13.500Y40.900
N28770X13.600Y41.000
N28780G01Z-2.950F30.0
N28790G01X13.500Y41.100F200.0
N28800X13.400Y41.000
N28810X13.500Y40.900
N28820X13.600Y41.000
N28830G01Z-2.975F30.0
N28840G01X13.500Y41.100F200.0
N28850X13.400Y41.000
N28860X13.500Y40.900
N28870X13.600Y41.000
N28880G01Z-3.000F30.0
N28890G01X13.500Y41.100F200.0
N28900X13.400Y41.000
N28910X13.500Y40.900
N28920X13.600Y41.000
N28930G01Z-3.025F30.0
N28940G01X13.500Y41.100F200.0
N28950X13.400Y41.000
N28960X13.500Y40.900
N28970X13.600Y41.000
N28980G01Z-3.050F30.0
N28990G01X13.500Y41.100F200.0
N29000X13.400Y41.000
N29010X13.500Y40.900
N29020X13.600Y41.000
N29030G01Z-3.075F30.0
N29040G01X13.500Y41.100F200.0
N29050X13.400Y41.000
N29060X13.500Y40.900
N29070X13.600Y41.000
N29080G01Z-3.100F30.0
N29090G01X13.500Y41.100F200.0
N29100X13.400Y41.000
N29110X13.500Y40.900
N29120X13.600Y41.000
N29130G00Z6.000
N29140G00Y51.000
N29150G01Z-0.025F30.0
N29160G01X13.500Y51.100F200.0
N29170X13.400Y51.000
N29180X13.500Y50.900
N29190X13.600Y51.000
N29200G01Z-0.050F30.0
N29210G01X13.500Y51.100F200.0
N29220X13.400Y51.000
N29230X13.500Y50.900
N29240X13.600Y51.000
N29250G01Z-0.075F30.0
N29260G01X13.500Y51.100F200.0
N29270X13.400Y51.000
N29280X13.500Y50.900
N29290X13.600Y51.000
N29300G01Z-0.100F30.0
N29310G01X13.500Y51.100F200.0
N29320X13.400Y51.000
N29330X13.500Y50.900
N29340X13.600Y51.000
N29350G01Z-0.125F30.0
N29360G01X13.500Y51.100F200.0
N29370X13.400Y51.000
N29380X13.500Y50.900
N29390X13.600Y51.000
N29400G01Z-0.150F30.0
N29410G01X13.500Y51.100F200.0
N29420X13.400Y51.000
N29430X13.500Y50.900
N29440X13.600Y51.000
N29450G01Z-0.175F30.0
N29460G01X13.500Y51.100F200.0
N29470X13.400Y51.000
N29480X13.500Y50.900
N29490X13.600Y51.000
N29500G01Z-0.200F30.0
N29510G01X13.500Y51.100F200.0
N29520X13.400Y51.000
N29530X13.500Y50.900
N29540X13.600Y51.000
N29550G01Z-0.225F30.0
N29560G01X13.500Y51.100F200.0
N29570X13.400Y51.000
N29580X13.500Y50.900
N29590X13.600Y51.000
N29600G01Z-0.250F30.0
N29610G01X13.500Y51.100F200.0
N29620X13.400Y51.000
N29630X13.500Y50.900
N29640X13.600Y51.000
N29650G01Z-0.275F30.0
N29660G01X13.500Y51.100F200.0
N29670X13.400Y51.000
N29680X13.500Y50.900
N29690X13.600Y51.000
N29700G01Z-0.300F30.0
N29710G01X13.500Y51.100F200.0
N29720X13.400Y51.000
N29730X13.500Y50.900
N29740X13.600Y51.000
N29750G01Z-0.325F30.0
N29760G01X13.500Y51.100F200.0
N29770X13.400Y51.000
N29780X13.500Y50.900
N29790X13.600Y51.000
N29800G01Z-0.350F30.0
N29810G01X13.500Y51.100F200.0
N29820X13.400Y51.000
N29830X13.500Y50.900
N29840X13.600Y51.000
N29850G01Z-0.375F30.0
N29860G01X13.500Y51.100F200.0
N29870X13.400Y51.000
N29880X13.500Y50.900
N29890X13.600Y51.000
N29900G01Z-0.400F30.0
N29910G01X13.500Y51.100F200.0
N29920X13.400Y51.000
N29930X13.500Y50.900
N29940X13.600Y51.000
N29950G01Z-0.425F30.0
N29960G01X13.500Y51.100F200.0
N29970X13.400Y51.000
N29980X13.500Y50.900
N29990X13.600Y51.000
N30000G01Z-0.450F30.0
N30010G01X13.500Y51.100F200.0
N30020X13.400Y51.000
N30030X13.500Y50.900
N30040X13.600Y51.000
N30050G01Z-0.475F30.0
N30060G01X13.500Y51.100F200.0
N30070X13.400Y51.000
N30080X13.500Y50.900
N30090X13.600Y51.000
N30100G01Z-0.500F30.0
N30110G01X13.500Y51.100F200.0
N30120X13.400Y51.000
N30130X13.500Y50.900
N30140X13.600Y51.000
N30150G01Z-0.525F30.0
N30160G01X13.500Y51.100F200.0
N30170X13.400Y51.000
N30180X13.500Y50.900
N30190X13.600Y51.000
N30200G01Z-0.550F30.0
N30210G01X13.500Y51.100F200.0
N30220X13.400Y51.000
N30230X13.500Y50.900
N30240X13.600Y51.000
N30250G01Z-0.575F30.0
N30260G01X13.500Y51.100F200.0
N30270X13.400Y51.000
N30280X13.500Y50.900
N30290X13.600Y51.000
N30300G01Z-0.600F30.0
N30310G01X13.500Y51.100F200.0
N30320X13.400Y51.000
N30330X13.500Y50.900
N30340X13.600Y51.000
N30350G01Z-0.625F30.0
N30360G01X13.500Y51.100F200.0
N30370X13.400Y51.000
N30380X13.500Y50.900
N30390X13.600Y51.000
N30400G01Z-0.650F30.0
N30410G01X13.500Y51.100F200.0
N30420X13.400Y51.000
N30430X13.500Y50.900
N30440X13.600Y51.000
N30450G01Z-0.675F30.0
N30460G01X13.500Y51.100F200.0
N30470X13.400Y51.000
N30480X13.500Y50.900
N30490X13.600Y51.000
N30500G01Z-0.700F30.0
N30510G01X13.500Y51.100F200.0
N30520X13.400Y51.000
N30530X13.500Y50.900
N30540X13.600Y51.000
N30550G01Z-0.725F30.0
N30560G01X13.500Y51.100F200.0
N30570X13.400Y51.000
N30580X13.500Y50.900
N30590X13.600Y51.000
N30600G01Z-0.750F30.0
N30610G01X13.500Y51.100F200.0
N30620X13.400Y51.000
N30630X13.500Y50.900
N30640X13.600Y51.000
N30650G01Z-0.775F30.0
N30660G01X13.500Y51.100F200.0
N30670X13.400Y51.000
N30680X13.500Y50.900
N30690X13.600Y51.000
N30700G01Z-0.800F30.0
N30710G01X13.500Y51.100F200.0
N30720X13.400Y51.000
N30730X13.500Y50.900
N30740X13.600Y51.000
N30750G01Z-0.825F30.0
N30760G01X13.500Y51.100F200.0
N30770X13.400Y51.000
N30780X13.500Y50.900
N30790X13.600Y51.000
N30800G01Z-0.850F30.0
N30810G01X13.500Y51.100F200.0
N30820X13.400Y51.000
N30830X13.500Y50.900
N30840X13.600Y51.000
N30850G01Z-0.875F30.0
N30860G01X13.500Y51.100F200.0
N30870X13.400Y51.000
N30880X13.500Y50.900
N30890X13.600Y51.000
N30900G01Z-0.900F30.0
N30910G01X13.500Y51.100F200.0
N30920X13.400Y51.000
N30930X13.500Y50.900
N30940X13.600Y51.000
N30950G01Z-0.925F30.0
N30960G01X13.500Y51.100F200.0
N30970X13.400Y51.000
N30980X13.500Y50.900
N30990X13.600Y51.000
N31000G01Z-0.950F30.0
N31010G01X13.500Y51.100F200.0
N31020X13.400Y51.000
N31030X13.500Y50.900
N31040X13.600Y51.000
N31050G01Z-0.975F30.0
N31060G01X13.500Y51.100F200.0
N31070X13.400Y51.000
N31080X13.500Y50.900
N31090X13.600Y51.000
N31100G01Z-1.000F30.0
N31110G01X13.500Y51.100F200.0
N31120X13.400Y51.000
N31130X13.500Y50.900
N31140X13.600Y51.000
N31150G01Z-1.025F30.0
N31160G01X13.500Y51.100F200.0
N31170X13.400Y51.000
N31180X13.500Y50.900
N31190X13.600Y51.000
N31200G01Z-1.050F30.0
N31210G01X13.500Y51.100F200.0
N31220X13.400Y51.000
N31230X13.500Y50.900
N31240X13.600Y51.000
N31250G01Z-1.075F30.0
N31260G01X13.500Y51.100F200.0
N31270X13.400Y51.000
N31280X13.500Y50.900
N31290X13.600Y51.000
N31300G01Z-1.100F30.0
N31310G01X13.500Y51.100F200.0
N31320X13.400Y51.000
N31330X13.500Y50.900
N31340X13.600Y51.000
N31350G01Z-1.125F30.0
N31360G01X13.500Y51.100F200.0
N31370X13.400Y51.000
N31380X13.500Y50.900
N31390X13.600Y51.000
N31400G01Z-1.150F30.0
N31410G01X13.500Y51.100F200.0
N31420X13.400Y51.000
N31430X13.500Y50.900
N31440X13.600Y51.000
N31450G01Z-1.175F30.0
N31460G01X13.500Y51.100F200.0
N31470X13.400Y51.000
N31480X13.500Y50.900
N31490X13.600Y51.000
N31500G01Z-1.200F30.0
N31510G01X13.500Y51.100F200.0
N31520X13.400Y51.000
N31530X13.500Y50.900
N31540X13.600Y51.000
N31550G01Z-1.225F30.0
N31560G01X13.500Y51.100F200.0
N31570X13.400Y51.000
N31580X13.500Y50.900
N31590X13.600Y51.000
N31600G01Z-1.250F30.0
N31610G01X13.500Y51.100F200.0
N31620X13.400Y51.000
N31630X13.500Y50.900
N31640X13.600Y51.000
N31650G01Z-1.275F30.0
N31660G01X13.500Y51.100F200.0
N31670X13.400Y51.000
N31680X13.500Y50.900
N31690X13.600Y51.000
N31700G01Z-1.300F30.0
N31710G01X13.500Y51.100F200.0
N31720X13.400Y51.000
N31730X13.500Y50.900
N31740X13.600Y51.000
N31750G01Z-1.325F30.0
N31760G01X13.500Y51.100F200.0
N31770X13.400Y51.000
N31780X13.500Y50.900
N31790X13.600Y51.000
N31800G01Z-1.350F30.0
N31810G01X13.500Y51.100F200.0
N31820X13.400Y51.000
N31830X13.500Y50.900
N31840X13.600Y51.000
N31850G01Z-1.375F30.0
N31860G01X13.500Y51.100F200.0
N31870X13.400Y51.000
N31880X13.500Y50.900
N31890X13.600Y51.000
N31900G01Z-1.400F30.0
N31910G01X13.500Y51.100F200.0
N31920X13.400Y51.000
N31930X13.500Y50.900
N31940X13.600Y51.000
N31950G01Z-1.425F30.0
N31960G01X13.500Y51.100F200.0
N31970X13.400Y51.000
N31980X13.500Y50.900
N31990X13.600Y51.000
N32000G01Z-1.450F30.0
N32010G01X13.500Y51.100F200.0
N32020X13.400Y51.000
N32030X13.500Y50.900
N32040X13.600Y51.000
N32050G01Z-1.475F30.0
N32060G01X13.500Y51.100F200.0
N32070X13.400Y51.000
N32080X13.500Y50.900
N32090X13.600Y51.000
N32100G01Z-1.500F30.0
N32110G01X13.500Y51.100F200.0
N32120X13.400Y51.000
N32130X13.500Y50.900
N32140X13.600Y51.000
N32150G01Z-1.525F30.0
N32160G01X13.500Y51.100F200.0
N32170X13.400Y51.000
N32180X13.500Y50.900
N32190X13.600Y51.000
N32200G01Z-1.550F30.0
N32210G01X13.500Y51.100F200.0
N32220X13.400Y51.000
N32230X13.500Y50.900
N32240X13.600Y51.000
N32250G01Z-1.575F30.0
N32260G01X13.500Y51.100F200.0
N32270X13.400Y51.000
N32280X13.500Y50.900
N32290X13.600Y51.000
N32300G01Z-1.600F30.0
N32310G01X13.500Y51.100F200.0
N32320X13.400Y51.000
N32330X13.500Y50.900
N32340X13.600Y51.000
N32350G01Z-1.625F30.0
N32360G01X13.500Y51.100F200.0
N32370X13.400Y51.000
N32380X13.500Y50.900
N32390X13.600Y51.000
N32400G01Z-1.650F30.0
N32410G01X13.500Y51.100F200.0
N32420X13.400Y51.000
N32430X13.500Y50.900
N32440X13.600Y51.000
N32450G01Z-1.675F30.0
N32460G01X13.500Y51.100F200.0
N32470X13.400Y51.000
N32480X13.500Y50.900
N32490X13.600Y51.000
N32500G01Z-1.700F30.0
N32510G01X13.500Y51.100F200.0
N32520X13.400Y51.000
N32530X13.500Y50.900
N32540X13.600Y51.000
N32550G01Z-1.725F30.0
N32560G01X13.500Y51.100F200.0
N32570X13.400Y51.000
N32580X13.500Y50.900
N32590X13.600Y51.000
N32600G01Z-1.750F30.0
N32610G01X13.500Y51.100F200.0
N32620X13.400Y51.000
N32630X13.500Y50.900
N32640X13.600Y51.000
N32650G01Z-1.775F30.0
N32660G01X13.500Y51.100F200.0
N32670X13.400Y51.000
N32680X13.500Y50.900
N32690X13.600Y51.000
N32700G01Z-1.800F30.0
N32710G01X13.500Y51.100F200.0
N32720X13.400Y51.000
N32730X13.500Y50.900
N32740X13.600Y51.000
N32750G01Z-1.825F30.0
N32760G01X13.500Y51.100F200.0
N32770X13.400Y51.000
N32780X13.500Y50.900
N32790X13.600Y51.000
N32800G01Z-1.850F30.0
N32810G01X13.500Y51.100F200.0
N32820X13.400Y51.000
N32830X13.500Y50.900
N32840X13.600Y51.000
N32850G01Z-1.875F30.0
N32860G01X13.500Y51.100F200.0
N32870X13.400Y51.000
N32880X13.500Y50.900
N32890X13.600Y51.000
N32900G01Z-1.900F30.0
N32910G01X13.500Y51.100F200.0
N32920X13.400Y51.000
N32930X13.500Y50.900
N32940X13.600Y51.000
N32950G01Z-1.925F30.0
N32960G01X13.500Y51.100F200.0
N32970X13.400Y51.000
N32980X13.500Y50.900
N32990X13.600Y51.000
N33000G01Z-1.950F30.0
N33010G01X13.500Y51.100F200.0
N33020X13.400Y51.000
N33030X13.500Y50.900
N33040X13.600Y51.000
N33050G01Z-1.975F30.0
N33060G01X13.500Y51.100F200.0
N33070X13.400Y51.000
N33080X13.500Y50.900
N33090X13.600Y51.000
N33100G01Z-2.000F30.0
N33110G01X13.500Y51.100F200.0
N33120X13.400Y51.000
N33130X13.500Y50.900
N33140X13.600Y51.000
N33150G01Z-2.025F30.0
N33160G01X13.500Y51.100F200.0
N33170X13.400Y51.000
N33180X13.500Y50.900
N33190X13.600Y51.000
N33200G01Z-2.050F30.0
N33210G01X13.500Y51.100F200.0
N33220X13.400Y51.000
N33230X13.500Y50.900
N33240X13.600Y51.000
N33250G01Z-2.075F30.0
N33260G01X13.500Y51.100F200.0
N33270X13.400Y51.000
N33280X13.500Y50.900
N33290X13.600Y51.000
N33300G01Z-2.100F30.0
N33310G01X13.500Y51.100F200.0
N33320X13.400Y51.000
N33330X13.500Y50.900
N33340X13.600Y51.000
N33350G01Z-2.125F30.0
N33360G01X13.500Y51.100F200.0
N33370X13.400Y51.000
N33380X13.500Y50.900
N33390X13.600Y51.000
N33400G01Z-2.150F30.0
N33410G01X13.500Y51.100F200.0
N33420X13.400Y51.000
N33430X13.500Y50.900
N33440X13.600Y51.000
N33450G01Z-2.175F30.0
N33460G01X13.500Y51.100F200.0
N33470X13.400Y51.000
N33480X13.500Y50.900
N33490X13.600Y51.000
N33500G01Z-2.200F30.0
N33510G01X13.500Y51.100F200.0
N33520X13.400Y51.000
N33530X13.500Y50.900
N33540X13.600Y51.000
N33550G01Z-2.225F30.0
N33560G01X13.500Y51.100F200.0
N33570X13.400Y51.000
N33580X13.500Y50.900
N33590X13.600Y51.000
N33600G01Z-2.250F30.0
N33610G01X13.500Y51.100F200.0
N33620X13.400Y51.000
N33630X13.500Y50.900
N33640X13.600Y51.000
N33650G01Z-2.275F30.0
N33660G01X13.500Y51.100F200.0
N33670X13.400Y51.000
N33680X13.500Y50.900
N33690X13.600Y51.000
N33700G01Z-2.300F30.0
N33710G01X13.500Y51.100F200.0
N33720X13.400Y51.000
N33730X13.500Y50.900
N33740X13.600Y51.000
N33750G01Z-2.325F30.0
N33760G01X13.500Y51.100F200.0
N33770X13.400Y51.000
N33780X13.500Y50.900
N33790X13.600Y51.000
N33800G01Z-2.350F30.0
N33810G01X13.500Y51.100F200.0
N33820X13.400Y51.000
N33830X13.500Y50.900
N33840X13.600Y51.000
N33850G01Z-2.375F30.0
N33860G01X13.500Y51.100F200.0
N33870X13.400Y51.000
N33880X13.500Y50.900
N33890X13.600Y51.000
N33900G01Z-2.400F30.0
N33910G01X13.500Y51.100F200.0
N33920X13.400Y51.000
N33930X13.500Y50.900
N33940X13.600Y51.000
N33950G01Z-2.425F30.0
N33960G01X13.500Y51.100F200.0
N33970X13.400Y51.000
N33980X13.500Y50.900
N33990X13.600Y51.000
N34000G01Z-2.450F30.0
N34010G01X13.500Y51.100F200.0
N34020X13.400Y51.000
N34030X13.500Y50.900
N34040X13.600Y51.000
N34050G01Z-2.475F30.0
N34060G01X13.500Y51.100F200.0
N34070X13.400Y51.000
N34080X13.500Y50.900
N34090X13.600Y51.000
N34100G01Z-2.500F30.0
N34110G01X13.500Y51.100F200.0
N34120X13.400Y51.000
N34130X13.500Y50.900
N34140X13.600Y51.000
N34150G01Z-2.525F30.0
N34160G01X13.500Y51.100F200.0
N34170X13.400Y51.000
N34180X13.500Y50.900
N34190X13.600Y51.000
N34200G01Z-2.550F30.0
N34210G01X13.500Y51.100F200.0
N34220X13.400Y51.000
N34230X13.500Y50.900
N34240X13.600Y51.000
N34250G01Z-2.575F30.0
N34260G01X13.500Y51.100F200.0
N34270X13.400Y51.000
N34280X13.500Y50.900
N34290X13.600Y51.000
N34300G01Z-2.600F30.0
N34310G01X13.500Y51.100F200.0
N34320X13.400Y51.000
N34330X13.500Y50.900
N34340X13.600Y51.000
N34350G01Z-2.625F30.0
N34360G01X13.500Y51.100F200.0
N34370X13.400Y51.000
N34380X13.500Y50.900
N34390X13.600Y51.000
N34400G01Z-2.650F30.0
N34410G01X13.500Y51.100F200.0
N34420X13.400Y51.000
N34430X13.500Y50.900
N34440X13.600Y51.000
N34450G01Z-2.675F30.0
N34460G01X13.500Y51.100F200.0
N34470X13.400Y51.000
N34480X13.500Y50.900
N34490X13.600Y51.000
N34500G01Z-2.700F30.0
N34510G01X13.500Y51.100F200.0
N34520X13.400Y51.000
N34530X13.500Y50.900
N34540X13.600Y51.000
N34550G01Z-2.725F30.0
N34560G01X13.500Y51.100F200.0
N34570X13.400Y51.000
N34580X13.500Y50.900
N34590X13.600Y51.000
N34600G01Z-2.750F30.0
N34610G01X13.500Y51.100F200.0
N34620X13.400Y51.000
N34630X13.500Y50.900
N34640X13.600Y51.000
N34650G01Z-2.775F30.0
N34660G01X13.500Y51.100F200.0
N34670X13.400Y51.000
N34680X13.500Y50.900
N34690X13.600Y51.000
N34700G01Z-2.800F30.0
N34710G01X13.500Y51.100F200.0
N34720X13.400Y51.000
N34730X13.500Y50.900
N34740X13.600Y51.000
N34750G01Z-2.825F30.0
N34760G01X13.500Y51.100F200.0
N34770X13.400Y51.000
N34780X13.500Y50.900
N34790X13.600Y51.000
N34800G01Z-2.850F30.0
N34810G01X13.500Y51.100F200.0
N34820X13.400Y51.000
N34830X13.500Y50.900
N34840X13.600Y51.000
N34850G01Z-2.875F30.0
N34860G01X13.500Y51.100F200.0
N34870X13.400Y51.000
N34880X13.500Y50.900
N34890X13.600Y51.000
N34900G01Z-2.900F30.0
N34910G01X13.500Y51.100F200.0
N34920X13.400Y51.000
N34930X13.500Y50.900
N34940X13.600Y51.000
N34950G01Z-2.925F30.0
N34960G01X13.500Y51.100F200.0
N34970X13.400Y51.000
N34980X13.500Y50.900
N34990X13.600Y51.000
N35000G01Z-2.950F30.0
N35010G01X13.500Y51.100F200.0
N35020X13.400Y51.000
N35030X13.500Y50.900
N35040X13.600Y51.000
N35050G01Z-2.975F30.0
N35060G01X13.500Y51.100F200.0
N35070X13.400Y51.000
N35080X13.500Y50.900
N35090X13.600Y51.000
N35100G01Z-3.000F30.0
N35110G01X13.500Y51.100F200.0
N35120X13.400Y51.000
N35130X13.500Y50.900
N35140X13.600Y51.000
N35150G01Z-3.025F30.0
N35160G01X13.500Y51.100F200.0
N35170X13.400Y51.000
N35180X13.500Y50.900
N35190X13.600Y51.000
N35200G01Z-3.050F30.0
N35210G01X13.500Y51.100F200.0
N35220X13.400Y51.000
N35230X13.500Y50.900
N35240X13.600Y51.000
N35250G01Z-3.075F30.0
N35260G01X13.500Y51.100F200.0
N35270X13.400Y51.000
N35280X13.500Y50.900
N35290X13.600Y51.000
N35300G01Z-3.100F30.0
N35310G01X13.500Y51.100F200.0
N35320X13.400Y51.000
N35330X13.500Y50.900
N35340X13.600Y51.000
N35350G00Z6.000
N35360G00Y91.000
N35370G01Z-0.025F30.0
N35380G01X13.500Y91.100F200.0
N35390X13.400Y91.000
N35400X13.500Y90.900
N35410X13.600Y91.000
N35420G01Z-0.050F30.0
N35430G01X13.500Y91.100F200.0
N35440X13.400Y91.000
N35450X13.500Y90.900
N35460X13.600Y91.000
N35470G01Z-0.075F30.0
N35480G01X13.500Y91.100F200.0
N35490X13.400Y91.000
N35500X13.500Y90.900
N35510X13.600Y91.000
N35520G01Z-0.100F30.0
N35530G01X13.500Y91.100F200.0
N35540X13.400Y91.000
N35550X13.500Y90.900
N35560X13.600Y91.000
N35570G01Z-0.125F30.0
N35580G01X13.500Y91.100F200.0
N35590X13.400Y91.000
N35600X13.500Y90.900
N35610X13.600Y91.000
N35620G01Z-0.150F30.0
N35630G01X13.500Y91.100F200.0
N35640X13.400Y91.000
N35650X13.500Y90.900
N35660X13.600Y91.000
N35670G01Z-0.175F30.0
N35680G01X13.500Y91.100F200.0
N35690X13.400Y91.000
N35700X13.500Y90.900
N35710X13.600Y91.000
N35720G01Z-0.200F30.0
N35730G01X13.500Y91.100F200.0
N35740X13.400Y91.000
N35750X13.500Y90.900
N35760X13.600Y91.000
N35770G01Z-0.225F30.0
N35780G01X13.500Y91.100F200.0
N35790X13.400Y91.000
N35800X13.500Y90.900
N35810X13.600Y91.000
N35820G01Z-0.250F30.0
N35830G01X13.500Y91.100F200.0
N35840X13.400Y91.000
N35850X13.500Y90.900
N35860X13.600Y91.000
N35870G01Z-0.275F30.0
N35880G01X13.500Y91.100F200.0
N35890X13.400Y91.000
N35900X13.500Y90.900
N35910X13.600Y91.000
N35920G01Z-0.300F30.0
N35930G01X13.500Y91.100F200.0
N35940X13.400Y91.000
N35950X13.500Y90.900
N35960X13.600Y91.000
N35970G01Z-0.325F30.0
N35980G01X13.500Y91.100F200.0
N35990X13.400Y91.000
N36000X13.500Y90.900
N36010X13.600Y91.000
N36020G01Z-0.350F30.0
N36030G01X13.500Y91.100F200.0
N36040X13.400Y91.000
N36050X13.500Y90.900
N36060X13.600Y91.000
N36070G01Z-0.375F30.0
N36080G01X13.500Y91.100F200.0
N36090X13.400Y91.000
N36100X13.500Y90.900
N36110X13.600Y91.000
N36120G01Z-0.400F30.0
N36130G01X13.500Y91.100F200.0
N36140X13.400Y91.000
N36150X13.500Y90.900
N36160X13.600Y91.000
N36170G01Z-0.425F30.0
N36180G01X13.500Y91.100F200.0
N36190X13.400Y91.000
N36200X13.500Y90.900
N36210X13.600Y91.000
N36220G01Z-0.450F30.0
N36230G01X13.500Y91.100F200.0
N36240X13.400Y91.000
N36250X13.500Y90.900
N36260X13.600Y91.000
N36270G01Z-0.475F30.0
N36280G01X13.500Y91.100F200.0
N36290X13.400Y91.000
N36300X13.500Y90.900
N36310X13.600Y91.000
N36320G01Z-0.500F30.0
N36330G01X13.500Y91.100F200.0
N36340X13.400Y91.000
N36350X13.500Y90.900
N36360X13.600Y91.000
N36370G01Z-0.525F30.0
N36380G01X13.500Y91.100F200.0
N36390X13.400Y91.000
N36400X13.500Y90.900
N36410X13.600Y91.000
N36420G01Z-0.550F30.0
N36430G01X13.500Y91.100F200.0
N36440X13.400Y91.000
N36450X13.500Y90.900
N36460X13.600Y91.000
N36470G01Z-0.575F30.0
N36480G01X13.500Y91.100F200.0
N36490X13.400Y91.000
N36500X13.500Y90.900
N36510X13.600Y91.000
N36520G01Z-0.600F30.0
N36530G01X13.500Y91.100F200.0
N36540X13.400Y91.000
N36550X13.500Y90.900
N36560X13.600Y91.000
N36570G01Z-0.625F30.0
N36580G01X13.500Y91.100F200.0
N36590X13.400Y91.000
N36600X13.500Y90.900
N36610X13.600Y91.000
N36620G01Z-0.650F30.0
N36630G01X13.500Y91.100F200.0
N36640X13.400Y91.000
N36650X13.500Y90.900
N36660X13.600Y91.000
N36670G01Z-0.675F30.0
N36680G01X13.500Y91.100F200.0
N36690X13.400Y91.000
N36700X13.500Y90.900
N36710X13.600Y91.000
N36720G01Z-0.700F30.0
N36730G01X13.500Y91.100F200.0
N36740X13.400Y91.000
N36750X13.500Y90.900
N36760X13.600Y91.000
N36770G01Z-0.725F30.0
N36780G01X13.500Y91.100F200.0
N36790X13.400Y91.000
N36800X13.500Y90.900
N36810X13.600Y91.000
N36820G01Z-0.750F30.0
N36830G01X13.500Y91.100F200.0
N36840X13.400Y91.000
N36850X13.500Y90.900
N36860X13.600Y91.000
N36870G01Z-0.775F30.0
N36880G01X13.500Y91.100F200.0
N36890X13.400Y91.000
N36900X13.500Y90.900
N36910X13.600Y91.000
N36920G01Z-0.800F30.0
N36930G01X13.500Y91.100F200.0
N36940X13.400Y91.000
N36950X13.500Y90.900
N36960X13.600Y91.000
N36970G01Z-0.825F30.0
N36980G01X13.500Y91.100F200.0
N36990X13.400Y91.000
N37000X13.500Y90.900
N37010X13.600Y91.000
N37020G01Z-0.850F30.0
N37030G01X13.500Y91.100F200.0
N37040X13.400Y91.000
N37050X13.500Y90.900
N37060X13.600Y91.000
N37070G01Z-0.875F30.0
N37080G01X13.500Y91.100F200.0
N37090X13.400Y91.000
N37100X13.500Y90.900
N37110X13.600Y91.000
N37120G01Z-0.900F30.0
N37130G01X13.500Y91.100F200.0
N37140X13.400Y91.000
N37150X13.500Y90.900
N37160X13.600Y91.000
N37170G01Z-0.925F30.0
N37180G01X13.500Y91.100F200.0
N37190X13.400Y91.000
N37200X13.500Y90.900
N37210X13.600Y91.000
N37220G01Z-0.950F30.0
N37230G01X13.500Y91.100F200.0
N37240X13.400Y91.000
N37250X13.500Y90.900
N37260X13.600Y91.000
N37270G01Z-0.975F30.0
N37280G01X13.500Y91.100F200.0
N37290X13.400Y91.000
N37300X13.500Y90.900
N37310X13.600Y91.000
N37320G01Z-1.000F30.0
N37330G01X13.500Y91.100F200.0
N37340X13.400Y91.000
N37350X13.500Y90.900
N37360X13.600Y91.000
N37370G01Z-1.025F30.0
N37380G01X13.500Y91.100F200.0
N37390X13.400Y91.000
N37400X13.500Y90.900
N37410X13.600Y91.000
N37420G01Z-1.050F30.0
N37430G01X13.500Y91.100F200.0
N37440X13.400Y91.000
N37450X13.500Y90.900
N37460X13.600Y91.000
N37470G01Z-1.075F30.0
N37480G01X13.500Y91.100F200.0
N37490X13.400Y91.000
N37500X13.500Y90.900
N37510X13.600Y91.000
N37520G01Z-1.100F30.0
N37530G01X13.500Y91.100F200.0
N37540X13.400Y91.000
N37550X13.500Y90.900
N37560X13.600Y91.000
N37570G01Z-1.125F30.0
N37580G01X13.500Y91.100F200.0
N37590X13.400Y91.000
N37600X13.500Y90.900
N37610X13.600Y91.000
N37620G01Z-1.150F30.0
N37630G01X13.500Y91.100F200.0
N37640X13.400Y91.000
N37650X13.500Y90.900
N37660X13.600Y91.000
N37670G01Z-1.175F30.0
N37680G01X13.500Y91.100F200.0
N37690X13.400Y91.000
N37700X13.500Y90.900
N37710X13.600Y91.000
N37720G01Z-1.200F30.0
N37730G01X13.500Y91.100F200.0
N37740X13.400Y91.000
N37750X13.500Y90.900
N37760X13.600Y91.000
N37770G01Z-1.225F30.0
N37780G01X13.500Y91.100F200.0
N37790X13.400Y91.000
N37800X13.500Y90.900
N37810X13.600Y91.000
N37820G01Z-1.250F30.0
N37830G01X13.500Y91.100F200.0
N37840X13.400Y91.000
N37850X13.500Y90.900
N37860X13.600Y91.000
N37870G01Z-1.275F30.0
N37880G01X13.500Y91.100F200.0
N37890X13.400Y91.000
N37900X13.500Y90.900
N37910X13.600Y91.000
N37920G01Z-1.300F30.0
N37930G01X13.500Y91.100F200.0
N37940X13.400Y91.000
N37950X13.500Y90.900
N37960X13.600Y91.000
N37970G01Z-1.325F30.0
N37980G01X13.500Y91.100F200.0
N37990X13.400Y91.000
N38000X13.500Y90.900
N38010X13.600Y91.000
N38020G01Z-1.350F30.0
N38030G01X13.500Y91.100F200.0
N38040X13.400Y91.000
N38050X13.500Y90.900
N38060X13.600Y91.000
N38070G01Z-1.375F30.0
N38080G01X13.500Y91.100F200.0
N38090X13.400Y91.000
N38100X13.500Y90.900
N38110X13.600Y91.000
N38120G01Z-1.400F30.0
N38130G01X13.500Y91.100F200.0
N38140X13.400Y91.000
N38150X13.500Y90.900
N38160X13.600Y91.000
N38170G01Z-1.425F30.0
N38180G01X13.500Y91.100F200.0
N38190X13.400Y91.000
N38200X13.500Y90.900
N38210X13.600Y91.000
N38220G01Z-1.450F30.0
N38230G01X13.500Y91.100F200.0
N38240X13.400Y91.000
N38250X13.500Y90.900
N38260X13.600Y91.000
N38270G01Z-1.475F30.0
N38280G01X13.500Y91.100F200.0
N38290X13.400Y91.000
N38300X13.500Y90.900
N38310X13.600Y91.000
N38320G01Z-1.500F30.0
N38330G01X13.500Y91.100F200.0
N38340X13.400Y91.000
N38350X13.500Y90.900
N38360X13.600Y91.000
N38370G01Z-1.525F30.0
N38380G01X13.500Y91.100F200.0
N38390X13.400Y91.000
N38400X13.500Y90.900
N38410X13.600Y91.000
N38420G01Z-1.550F30.0
N38430G01X13.500Y91.100F200.0
N38440X13.400Y91.000
N38450X13.500Y90.900
N38460X13.600Y91.000
N38470G01Z-1.575F30.0
N38480G01X13.500Y91.100F200.0
N38490X13.400Y91.000
N38500X13.500Y90.900
N38510X13.600Y91.000
N38520G01Z-1.600F30.0
N38530G01X13.500Y91.100F200.0
N38540X13.400Y91.000
N38550X13.500Y90.900
N38560X13.600Y91.000
N38570G01Z-1.625F30.0
N38580G01X13.500Y91.100F200.0
N38590X13.400Y91.000
N38600X13.500Y90.900
N38610X13.600Y91.000
N38620G01Z-1.650F30.0
N38630G01X13.500Y91.100F200.0
N38640X13.400Y91.000
N38650X13.500Y90.900
N38660X13.600Y91.000
N38670G01Z-1.675F30.0
N38680G01X13.500Y91.100F200.0
N38690X13.400Y91.000
N38700X13.500Y90.900
N38710X13.600Y91.000
N38720G01Z-1.700F30.0
N38730G01X13.500Y91.100F200.0
N38740X13.400Y91.000
N38750X13.500Y90.900
N38760X13.600Y91.000
N38770G01Z-1.725F30.0
N38780G01X13.500Y91.100F200.0
N38790X13.400Y91.000
N38800X13.500Y90.900
N38810X13.600Y91.000
N38820G01Z-1.750F30.0
N38830G01X13.500Y91.100F200.0
N38840X13.400Y91.000
N38850X13.500Y90.900
N38860X13.600Y91.000
N38870G01Z-1.775F30.0
N38880G01X13.500Y91.100F200.0
N38890X13.400Y91.000
N38900X13.500Y90.900
N38910X13.600Y91.000
N38920G01Z-1.800F30.0
N38930G01X13.500Y91.100F200.0
N38940X13.400Y91.000
N38950X13.500Y90.900
N38960X13.600Y91.000
N38970G01Z-1.825F30.0
N38980G01X13.500Y91.100F200.0
N38990X13.400Y91.000
N39000X13.500Y90.900
N39010X13.600Y91.000
N39020G01Z-1.850F30.0
N39030G01X13.500Y91.100F200.0
N39040X13.400Y91.000
N39050X13.500Y90.900
N39060X13.600Y91.000
N39070G01Z-1.875F30.0
N39080G01X13.500Y91.100F200.0
N39090X13.400Y91.000
N39100X13.500Y90.900
N39110X13.600Y91.000
N39120G01Z-1.900F30.0
N39130G01X13.500Y91.100F200.0
N39140X13.400Y91.000
N39150X13.500Y90.900
N39160X13.600Y91.000
N39170G01Z-1.925F30.0
N39180G01X13.500Y91.100F200.0
N39190X13.400Y91.000
N39200X13.500Y90.900
N39210X13.600Y91.000
N39220G01Z-1.950F30.0
N39230G01X13.500Y91.100F200.0
N39240X13.400Y91.000
N39250X13.500Y90.900
N39260X13.600Y91.000
N39270G01Z-1.975F30.0
N39280G01X13.500Y91.100F200.0
N39290X13.400Y91.000
N39300X13.500Y90.900
N39310X13.600Y91.000
N39320G01Z-2.000F30.0
N39330G01X13.500Y91.100F200.0
N39340X13.400Y91.000
N39350X13.500Y90.900
N39360X13.600Y91.000
N39370G01Z-2.025F30.0
N39380G01X13.500Y91.100F200.0
N39390X13.400Y91.000
N39400X13.500Y90.900
N39410X13.600Y91.000
N39420G01Z-2.050F30.0
N39430G01X13.500Y91.100F200.0
N39440X13.400Y91.000
N39450X13.500Y90.900
N39460X13.600Y91.000
N39470G01Z-2.075F30.0
N39480G01X13.500Y91.100F200.0
N39490X13.400Y91.000
N39500X13.500Y90.900
N39510X13.600Y91.000
N39520G01Z-2.100F30.0
N39530G01X13.500Y91.100F200.0
N39540X13.400Y91.000
N39550X13.500Y90.900
N39560X13.600Y91.000
N39570G01Z-2.125F30.0
N39580G01X13.500Y91.100F200.0
N39590X13.400Y91.000
N39600X13.500Y90.900
N39610X13.600Y91.000
N39620G01Z-2.150F30.0
N39630G01X13.500Y91.100F200.0
N39640X13.400Y91.000
N39650X13.500Y90.900
N39660X13.600Y91.000
N39670G01Z-2.175F30.0
N39680G01X13.500Y91.100F200.0
N39690X13.400Y91.000
N39700X13.500Y90.900
N39710X13.600Y91.000
N39720G01Z-2.200F30.0
N39730G01X13.500Y91.100F200.0
N39740X13.400Y91.000
N39750X13.500Y90.900
N39760X13.600Y91.000
N39770G01Z-2.225F30.0
N39780G01X13.500Y91.100F200.0
N39790X13.400Y91.000
N39800X13.500Y90.900
N39810X13.600Y91.000
N39820G01Z-2.250F30.0
N39830G01X13.500Y91.100F200.0
N39840X13.400Y91.000
N39850X13.500Y90.900
N39860X13.600Y91.000
N39870G01Z-2.275F30.0
N39880G01X13.500Y91.100F200.0
N39890X13.400Y91.000
N39900X13.500Y90.900
N39910X13.600Y91.000
N39920G01Z-2.300F30.0
N39930G01X13.500Y91.100F200.0
N39940X13.400Y91.000
N39950X13.500Y90.900
N39960X13.600Y91.000
N39970G01Z-2.325F30.0
N39980G01X13.500Y91.100F200.0
N39990X13.400Y91.000
N40000X13.500Y90.900
N40010X13.600Y91.000
N40020G01Z-2.350F30.0
N40030G01X13.500Y91.100F200.0
N40040X13.400Y91.000
N40050X13.500Y90.900
N40060X13.600Y91.000
N40070G01Z-2.375F30.0
N40080G01X13.500Y91.100F200.0
N40090X13.400Y91.000
N40100X13.500Y90.900
N40110X13.600Y91.000
N40120G01Z-2.400F30.0
N40130G01X13.500Y91.100F200.0
N40140X13.400Y91.000
N40150X13.500Y90.900
N40160X13.600Y91.000
N40170G01Z-2.425F30.0
N40180G01X13.500Y91.100F200.0
N40190X13.400Y91.000
N40200X13.500Y90.900
N40210X13.600Y91.000
N40220G01Z-2.450F30.0
N40230G01X13.500Y91.100F200.0
N40240X13.400Y91.000
N40250X13.500Y90.900
N40260X13.600Y91.000
N40270G01Z-2.475F30.0
N40280G01X13.500Y91.100F200.0
N40290X13.400Y91.000
N40300X13.500Y90.900
N40310X13.600Y91.000
N40320G01Z-2.500F30.0
N40330G01X13.500Y91.100F200.0
N40340X13.400Y91.000
N40350X13.500Y90.900
N40360X13.600Y91.000
N40370G01Z-2.525F30.0
N40380G01X13.500Y91.100F200.0
N40390X13.400Y91.000
N40400X13.500Y90.900
N40410X13.600Y91.000
N40420G01Z-2.550F30.0
N40430G01X13.500Y91.100F200.0
N40440X13.400Y91.000
N40450X13.500Y90.900
N40460X13.600Y91.000
N40470G01Z-2.575F30.0
N40480G01X13.500Y91.100F200.0
N40490X13.400Y91.000
N40500X13.500Y90.900
N40510X13.600Y91.000
N40520G01Z-2.600F30.0
N40530G01X13.500Y91.100F200.0
N40540X13.400Y91.000
N40550X13.500Y90.900
N40560X13.600Y91.000
N40570G01Z-2.625F30.0
N40580G01X13.500Y91.100F200.0
N40590X13.400Y91.000
N40600X13.500Y90.900
N40610X13.600Y91.000
N40620G01Z-2.650F30.0
N40630G01X13.500Y91.100F200.0
N40640X13.400Y91.000
N40650X13.500Y90.900
N40660X13.600Y91.000
N40670G01Z-2.675F30.0
N40680G01X13.500Y91.100F200.0
N40690X13.400Y91.000
N40700X13.500Y90.900
N40710X13.600Y91.000
N40720G01Z-2.700F30.0
N40730G01X13.500Y91.100F200.0
N40740X13.400Y91.000
N40750X13.500Y90.900
N40760X13.600Y91.000
N40770G01Z-2.725F30.0
N40780G01X13.500Y91.100F200.0
N40790X13.400Y91.000
N40800X13.500Y90.900
N40810X13.600Y91.000
N40820G01Z-2.750F30.0
N40830G01X13.500Y91.100F200.0
N40840X13.400Y91.000
N40850X13.500Y90.900
N40860X13.600Y91.000
N40870G01Z-2.775F30.0
N40880G01X13.500Y91.100F200.0
N40890X13.400Y91.000
N40900X13.500Y90.900
N40910X13.600Y91.000
N40920G01Z-2.800F30.0
N40930G01X13.500Y91.100F200.0
N40940X13.400Y91.000
N40950X13.500Y90.900
N40960X13.600Y91.000
N40970G01Z-2.825F30.0
N40980G01X13.500Y91.100F200.0
N40990X13.400Y91.000
N41000X13.500Y90.900
N41010X13.600Y91.000
N41020G01Z-2.850F30.0
N41030G01X13.500Y91.100F200.0
N41040X13.400Y91.000
N41050X13.500Y90.900
N41060X13.600Y91.000
N41070G01Z-2.875F30.0
N41080G01X13.500Y91.100F200.0
N41090X13.400Y91.000
N41100X13.500Y90.900
N41110X13.600Y91.000
N41120G01Z-2.900F30.0
N41130G01X13.500Y91.100F200.0
N41140X13.400Y91.000
N41150X13.500Y90.900
N41160X13.600Y91.000
N41170G01Z-2.925F30.0
N41180G01X13.500Y91.100F200.0
N41190X13.400Y91.000
N41200X13.500Y90.900
N41210X13.600Y91.000
N41220G01Z-2.950F30.0
N41230G01X13.500Y91.100F200.0
N41240X13.400Y91.000
N41250X13.500Y90.900
N41260X13.600Y91.000
N41270G01Z-2.975F30.0
N41280G01X13.500Y91.100F200.0
N41290X13.400Y91.000
N41300X13.500Y90.900
N41310X13.600Y91.000
N41320G01Z-3.000F30.0
N41330G01X13.500Y91.100F200.0
N41340X13.400Y91.000
N41350X13.500Y90.900
N41360X13.600Y91.000
N41370G01Z-3.025F30.0
N41380G01X13.500Y91.100F200.0
N41390X13.400Y91.000
N41400X13.500Y90.900
N41410X13.600Y91.000
N41420G01Z-3.050F30.0
N41430G01X13.500Y91.100F200.0
N41440X13.400Y91.000
N41450X13.500Y90.900
N41460X13.600Y91.000
N41470G01Z-3.075F30.0
N41480G01X13.500Y91.100F200.0
N41490X13.400Y91.000
N41500X13.500Y90.900
N41510X13.600Y91.000
N41520G01Z-3.100F30.0
N41530G01X13.500Y91.100F200.0
N41540X13.400Y91.000
N41550X13.500Y90.900
N41560X13.600Y91.000
N41570G00Z6.000
N41580G00Y101.000
N41590G01Z-0.025F30.0
N41600G01X13.500Y101.100F200.0
N41610X13.400Y101.000
N41620X13.500Y100.900
N41630X13.600Y101.000
N41640G01Z-0.050F30.0
N41650G01X13.500Y101.100F200.0
N41660X13.400Y101.000
N41670X13.500Y100.900
N41680X13.600Y101.000
N41690G01Z-0.075F30.0
N41700G01X13.500Y101.100F200.0
N41710X13.400Y101.000
N41720X13.500Y100.900
N41730X13.600Y101.000
N41740G01Z-0.100F30.0
N41750G01X13.500Y101.100F200.0
N41760X13.400Y101.000
N41770X13.500Y100.900
N41780X13.600Y101.000
N41790G01Z-0.125F30.0
N41800G01X13.500Y101.100F200.0
N41810X13.400Y101.000
N41820X13.500Y100.900
N41830X13.600Y101.000
N41840G01Z-0.150F30.0
N41850G01X13.500Y101.100F200.0
N41860X13.400Y101.000
N41870X13.500Y100.900
N41880X13.600Y101.000
N41890G01Z-0.175F30.0
N41900G01X13.500Y101.100F200.0
N41910X13.400Y101.000
N41920X13.500Y100.900
N41930X13.600Y101.000
N41940G01Z-0.200F30.0
N41950G01X13.500Y101.100F200.0
N41960X13.400Y101.000
N41970X13.500Y100.900
N41980X13.600Y101.000
N41990G01Z-0.225F30.0
N42000G01X13.500Y101.100F200.0
N42010X13.400Y101.000
N42020X13.500Y100.900
N42030X13.600Y101.000
N42040G01Z-0.250F30.0
N42050G01X13.500Y101.100F200.0
N42060X13.400Y101.000
N42070X13.500Y100.900
N42080X13.600Y101.000
N42090G01Z-0.275F30.0
N42100G01X13.500Y101.100F200.0
N42110X13.400Y101.000
N42120X13.500Y100.900
N42130X13.600Y101.000
N42140G01Z-0.300F30.0
N42150G01X13.500Y101.100F200.0
N42160X13.400Y101.000
N42170X13.500Y100.900
N42180X13.600Y101.000
N42190G01Z-0.325F30.0
N42200G01X13.500Y101.100F200.0
N42210X13.400Y101.000
N42220X13.500Y100.900
N42230X13.600Y101.000
N42240G01Z-0.350F30.0
N42250G01X13.500Y101.100F200.0
N42260X13.400Y101.000
N42270X13.500Y100.900
N42280X13.600Y101.000
N42290G01Z-0.375F30.0
N42300G01X13.500Y101.100F200.0
N42310X13.400Y101.000
N42320X13.500Y100.900
N42330X13.600Y101.000
N42340G01Z-0.400F30.0
N42350G01X13.500Y101.100F200.0
N42360X13.400Y101.000
N42370X13.500Y100.900
N42380X13.600Y101.000
N42390G01Z-0.425F30.0
N42400G01X13.500Y101.100F200.0
N42410X13.400Y101.000
N42420X13.500Y100.900
N42430X13.600Y101.000
N42440G01Z-0.450F30.0
N42450G01X13.500Y101.100F200.0
N42460X13.400Y101.000
N42470X13.500Y100.900
N42480X13.600Y101.000
N42490G01Z-0.475F30.0
N42500G01X13.500Y101.100F200.0
N42510X13.400Y101.000
N42520X13.500Y100.900
N42530X13.600Y101.000
N42540G01Z-0.500F30.0
N42550G01X13.500Y101.100F200.0
N42560X13.400Y101.000
N42570X13.500Y100.900
N42580X13.600Y101.000
N42590G01Z-0.525F30.0
N42600G01X13.500Y101.100F200.0
N42610X13.400Y101.000
N42620X13.500Y100.900
N42630X13.600Y101.000
N42640G01Z-0.550F30.0
N42650G01X13.500Y101.100F200.0
N42660X13.400Y101.000
N42670X13.500Y100.900
N42680X13.600Y101.000
N42690G01Z-0.575F30.0
N42700G01X13.500Y101.100F200.0
N42710X13.400Y101.000
N42720X13.500Y100.900
N42730X13.600Y101.000
N42740G01Z-0.600F30.0
N42750G01X13.500Y101.100F200.0
N42760X13.400Y101.000
N42770X13.500Y100.900
N42780X13.600Y101.000
N42790G01Z-0.625F30.0
N42800G01X13.500Y101.100F200.0
N42810X13.400Y101.000
N42820X13.500Y100.900
N42830X13.600Y101.000
N42840G01Z-0.650F30.0
N42850G01X13.500Y101.100F200.0
N42860X13.400Y101.000
N42870X13.500Y100.900
N42880X13.600Y101.000
N42890G01Z-0.675F30.0
N42900G01X13.500Y101.100F200.0
N42910X13.400Y101.000
N42920X13.500Y100.900
N42930X13.600Y101.000
N42940G01Z-0.700F30.0
N42950G01X13.500Y101.100F200.0
N42960X13.400Y101.000
N42970X13.500Y100.900
N42980X13.600Y101.000
N42990G01Z-0.725F30.0
N43000G01X13.500Y101.100F200.0
N43010X13.400Y101.000
N43020X13.500Y100.900
N43030X13.600Y101.000
N43040G01Z-0.750F30.0
N43050G01X13.500Y101.100F200.0
N43060X13.400Y101.000
N43070X13.500Y100.900
N43080X13.600Y101.000
N43090G01Z-0.775F30.0
N43100G01X13.500Y101.100F200.0
N43110X13.400Y101.000
N43120X13.500Y100.900
N43130X13.600Y101.000
N43140G01Z-0.800F30.0
N43150G01X13.500Y101.100F200.0
N43160X13.400Y101.000
N43170X13.500Y100.900
N43180X13.600Y101.000
N43190G01Z-0.825F30.0
N43200G01X13.500Y101.100F200.0
N43210X13.400Y101.000
N43220X13.500Y100.900
N43230X13.600Y101.000
N43240G01Z-0.850F30.0
N43250G01X13.500Y101.100F200.0
N43260X13.400Y101.000
N43270X13.500Y100.900
N43280X13.600Y101.000
N43290G01Z-0.875F30.0
N43300G01X13.500Y101.100F200.0
N43310X13.400Y101.000
N43320X13.500Y100.900
N43330X13.600Y101.000
N43340G01Z-0.900F30.0
N43350G01X13.500Y101.100F200.0
N43360X13.400Y101.000
N43370X13.500Y100.900
N43380X13.600Y101.000
N43390G01Z-0.925F30.0
N43400G01X13.500Y101.100F200.0
N43410X13.400Y101.000
N43420X13.500Y100.900
N43430X13.600Y101.000
N43440G01Z-0.950F30.0
N43450G01X13.500Y101.100F200.0
N43460X13.400Y101.000
N43470X13.500Y100.900
N43480X13.600Y101.000
N43490G01Z-0.975F30.0
N43500G01X13.500Y101.100F200.0
N43510X13.400Y101.000
N43520X13.500Y100.900
N43530X13.600Y101.000
N43540G01Z-1.000F30.0
N43550G01X13.500Y101.100F200.0
N43560X13.400Y101.000
N43570X13.500Y100.900
N43580X13.600Y101.000
N43590G01Z-1.025F30.0
N43600G01X13.500Y101.100F200.0
N43610X13.400Y101.000
N43620X13.500Y100.900
N43630X13.600Y101.000
N43640G01Z-1.050F30.0
N43650G01X13.500Y101.100F200.0
N43660X13.400Y101.000
N43670X13.500Y100.900
N43680X13.600Y101.000
N43690G01Z-1.075F30.0
N43700G01X13.500Y101.100F200.0
N43710X13.400Y101.000
N43720X13.500Y100.900
N43730X13.600Y101.000
N43740G01Z-1.100F30.0
N43750G01X13.500Y101.100F200.0
N43760X13.400Y101.000
N43770X13.500Y100.900
N43780X13.600Y101.000
N43790G01Z-1.125F30.0
N43800G01X13.500Y101.100F200.0
N43810X13.400Y101.000
N43820X13.500Y100.900
N43830X13.600Y101.000
N43840G01Z-1.150F30.0
N43850G01X13.500Y101.100F200.0
N43860X13.400Y101.000
N43870X13.500Y100.900
N43880X13.600Y101.000
N43890G01Z-1.175F30.0
N43900G01X13.500Y101.100F200.0
N43910X13.400Y101.000
N43920X13.500Y100.900
N43930X13.600Y101.000
N43940G01Z-1.200F30.0
N43950G01X13.500Y101.100F200.0
N43960X13.400Y101.000
N43970X13.500Y100.900
N43980X13.600Y101.000
N43990G01Z-1.225F30.0
N44000G01X13.500Y101.100F200.0
N44010X13.400Y101.000
N44020X13.500Y100.900
N44030X13.600Y101.000
N44040G01Z-1.250F30.0
N44050G01X13.500Y101.100F200.0
N44060X13.400Y101.000
N44070X13.500Y100.900
N44080X13.600Y101.000
N44090G01Z-1.275F30.0
N44100G01X13.500Y101.100F200.0
N44110X13.400Y101.000
N44120X13.500Y100.900
N44130X13.600Y101.000
N44140G01Z-1.300F30.0
N44150G01X13.500Y101.100F200.0
N44160X13.400Y101.000
N44170X13.500Y100.900
N44180X13.600Y101.000
N44190G01Z-1.325F30.0
N44200G01X13.500Y101.100F200.0
N44210X13.400Y101.000
N44220X13.500Y100.900
N44230X13.600Y101.000
N44240G01Z-1.350F30.0
N44250G01X13.500Y101.100F200.0
N44260X13.400Y101.000
N44270X13.500Y100.900
N44280X13.600Y101.000
N44290G01Z-1.375F30.0
N44300G01X13.500Y101.100F200.0
N44310X13.400Y101.000
