( Profile 15 )
( USBCNC Postprocessor )
N20G00G21G17G90G40G49
N30G80
N40G00G43Z20.000H5
N50S8000M03
N60G94
N70X0.000Y0.000F200.0
N80G00X16.863Y22.609Z6.000
N90G01Z-0.025F30.0
N100G01X16.763Y22.709F200.0
N110X16.663Y22.609
N120X16.763Y22.509
N130X16.863Y22.609
N140G01Z-0.050F30.0
N150G01X16.763Y22.709F200.0
N160X16.663Y22.609
N170X16.763Y22.509
N180X16.863Y22.609
N190G01Z-0.075F30.0
N200G01X16.763Y22.709F200.0
N210X16.663Y22.609
N220X16.763Y22.509
N230X16.863Y22.609
N240G01Z-0.100F30.0
N250G01X16.763Y22.709F200.0
N260X16.663Y22.609
N270X16.763Y22.509
N280X16.863Y22.609
N290G01Z-0.125F30.0
N300G01X16.763Y22.709F200.0
N310X16.663Y22.609
N320X16.763Y22.509
N330X16.863Y22.609
N340G01Z-0.150F30.0
N350G01X16.763Y22.709F200.0
N360X16.663Y22.609
N370X16.763Y22.509
N380X16.863Y22.609
N390G01Z-0.175F30.0
N400G01X16.763Y22.709F200.0
N410X16.663Y22.609
N420X16.763Y22.509
N430X16.863Y22.609
N440G01Z-0.200F30.0
N450G01X16.763Y22.709F200.0
N460X16.663Y22.609
N470X16.763Y22.509
N480X16.863Y22.609
N490G01Z-0.225F30.0
N500G01X16.763Y22.709F200.0
N510X16.663Y22.609
N520X16.763Y22.509
N530X16.863Y22.609
N540G01Z-0.250F30.0
N550G01X16.763Y22.709F200.0
N560X16.663Y22.609
N570X16.763Y22.509
N580X16.863Y22.609
N590G01Z-0.275F30.0
N600G01X16.763Y22.709F200.0
N610X16.663Y22.609
N620X16.763Y22.509
N630X16.863Y22.609
N640G01Z-0.300F30.0
N650G01X16.763Y22.709F200.0
N660X16.663Y22.609
N670X16.763Y22.509
N680X16.863Y22.609
N690G01Z-0.325F30.0
N700G01X16.763Y22.709F200.0
N710X16.663Y22.609
N720X16.763Y22.509
N730X16.863Y22.609
N740G01Z-0.350F30.0
N750G01X16.763Y22.709F200.0
N760X16.663Y22.609
N770X16.763Y22.509
N780X16.863Y22.609
N790G01Z-0.375F30.0
N800G01X16.763Y22.709F200.0
N810X16.663Y22.609
N820X16.763Y22.509
N830X16.863Y22.609
N840G01Z-0.400F30.0
N850G01X16.763Y22.709F200.0
N860X16.663Y22.609
N870X16.763Y22.509
N880X16.863Y22.609
N890G01Z-0.425F30.0
N900G01X16.763Y22.709F200.0
N910X16.663Y22.609
N920X16.763Y22.509
N930X16.863Y22.609
N940G01Z-0.450F30.0
N950G01X16.763Y22.709F200.0
N960X16.663Y22.609
N970X16.763Y22.509
N980X16.863Y22.609
N990G01Z-0.475F30.0
N1000G01X16.763Y22.709F200.0
N1010X16.663Y22.609
N1020X16.763Y22.509
N1030X16.863Y22.609
N1040G01Z-0.500F30.0
N1050G01X16.763Y22.709F200.0
N1060X16.663Y22.609
N1070X16.763Y22.509
N1080X16.863Y22.609
N1090G01Z-0.525F30.0
N1100G01X16.763Y22.709F200.0
N1110X16.663Y22.609
N1120X16.763Y22.509
N1130X16.863Y22.609
N1140G01Z-0.550F30.0
N1150G01X16.763Y22.709F200.0
N1160X16.663Y22.609
N1170X16.763Y22.509
N1180X16.863Y22.609
N1190G01Z-0.575F30.0
N1200G01X16.763Y22.709F200.0
N1210X16.663Y22.609
N1220X16.763Y22.509
N1230X16.863Y22.609
N1240G01Z-0.600F30.0
N1250G01X16.763Y22.709F200.0
N1260X16.663Y22.609
N1270X16.763Y22.509
N1280X16.863Y22.609
N1290G01Z-0.625F30.0
N1300G01X16.763Y22.709F200.0
N1310X16.663Y22.609
N1320X16.763Y22.509
N1330X16.863Y22.609
N1340G01Z-0.650F30.0
N1350G01X16.763Y22.709F200.0
N1360X16.663Y22.609
N1370X16.763Y22.509
N1380X16.863Y22.609
N1390G01Z-0.675F30.0
N1400G01X16.763Y22.709F200.0
N1410X16.663Y22.609
N1420X16.763Y22.509
N1430X16.863Y22.609
N1440G01Z-0.700F30.0
N1450G01X16.763Y22.709F200.0
N1460X16.663Y22.609
N1470X16.763Y22.509
N1480X16.863Y22.609
N1490G01Z-0.725F30.0
N1500G01X16.763Y22.709F200.0
N1510X16.663Y22.609
N1520X16.763Y22.509
N1530X16.863Y22.609
N1540G01Z-0.750F30.0
N1550G01X16.763Y22.709F200.0
N1560X16.663Y22.609
N1570X16.763Y22.509
N1580X16.863Y22.609
N1590G01Z-0.775F30.0
N1600G01X16.763Y22.709F200.0
N1610X16.663Y22.609
N1620X16.763Y22.509
N1630X16.863Y22.609
N1640G01Z-0.800F30.0
N1650G01X16.763Y22.709F200.0
N1660X16.663Y22.609
N1670X16.763Y22.509
N1680X16.863Y22.609
N1690G01Z-0.825F30.0
N1700G01X16.763Y22.709F200.0
N1710X16.663Y22.609
N1720X16.763Y22.509
N1730X16.863Y22.609
N1740G01Z-0.850F30.0
N1750G01X16.763Y22.709F200.0
N1760X16.663Y22.609
N1770X16.763Y22.509
N1780X16.863Y22.609
N1790G01Z-0.875F30.0
N1800G01X16.763Y22.709F200.0
N1810X16.663Y22.609
N1820X16.763Y22.509
N1830X16.863Y22.609
N1840G01Z-0.900F30.0
N1850G01X16.763Y22.709F200.0
N1860X16.663Y22.609
N1870X16.763Y22.509
N1880X16.863Y22.609
N1890G01Z-0.925F30.0
N1900G01X16.763Y22.709F200.0
N1910X16.663Y22.609
N1920X16.763Y22.509
N1930X16.863Y22.609
N1940G01Z-0.950F30.0
N1950G01X16.763Y22.709F200.0
N1960X16.663Y22.609
N1970X16.763Y22.509
N1980X16.863Y22.609
N1990G01Z-0.975F30.0
N2000G01X16.763Y22.709F200.0
N2010X16.663Y22.609
N2020X16.763Y22.509
N2030X16.863Y22.609
N2040G01Z-1.000F30.0
N2050G01X16.763Y22.709F200.0
N2060X16.663Y22.609
N2070X16.763Y22.509
N2080X16.863Y22.609
N2090G01Z-1.025F30.0
N2100G01X16.763Y22.709F200.0
N2110X16.663Y22.609
N2120X16.763Y22.509
N2130X16.863Y22.609
N2140G01Z-1.050F30.0
N2150G01X16.763Y22.709F200.0
N2160X16.663Y22.609
N2170X16.763Y22.509
N2180X16.863Y22.609
N2190G01Z-1.075F30.0
N2200G01X16.763Y22.709F200.0
N2210X16.663Y22.609
N2220X16.763Y22.509
N2230X16.863Y22.609
N2240G01Z-1.100F30.0
N2250G01X16.763Y22.709F200.0
N2260X16.663Y22.609
N2270X16.763Y22.509
N2280X16.863Y22.609
N2290G01Z-1.125F30.0
N2300G01X16.763Y22.709F200.0
N2310X16.663Y22.609
N2320X16.763Y22.509
N2330X16.863Y22.609
N2340G01Z-1.150F30.0
N2350G01X16.763Y22.709F200.0
N2360X16.663Y22.609
N2370X16.763Y22.509
N2380X16.863Y22.609
N2390G01Z-1.175F30.0
N2400G01X16.763Y22.709F200.0
N2410X16.663Y22.609
N2420X16.763Y22.509
N2430X16.863Y22.609
N2440G01Z-1.200F30.0
N2450G01X16.763Y22.709F200.0
N2460X16.663Y22.609
N2470X16.763Y22.509
N2480X16.863Y22.609
N2490G01Z-1.225F30.0
N2500G01X16.763Y22.709F200.0
N2510X16.663Y22.609
N2520X16.763Y22.509
N2530X16.863Y22.609
N2540G01Z-1.250F30.0
N2550G01X16.763Y22.709F200.0
N2560X16.663Y22.609
N2570X16.763Y22.509
N2580X16.863Y22.609
N2590G01Z-1.275F30.0
N2600G01X16.763Y22.709F200.0
N2610X16.663Y22.609
N2620X16.763Y22.509
N2630X16.863Y22.609
N2640G01Z-1.300F30.0
N2650G01X16.763Y22.709F200.0
N2660X16.663Y22.609
N2670X16.763Y22.509
N2680X16.863Y22.609
N2690G01Z-1.325F30.0
N2700G01X16.763Y22.709F200.0
N2710X16.663Y22.609
N2720X16.763Y22.509
N2730X16.863Y22.609
N2740G01Z-1.350F30.0
N2750G01X16.763Y22.709F200.0
N2760X16.663Y22.609
N2770X16.763Y22.509
N2780X16.863Y22.609
N2790G01Z-1.375F30.0
N2800G01X16.763Y22.709F200.0
N2810X16.663Y22.609
N2820X16.763Y22.509
N2830X16.863Y22.609
N2840G01Z-1.400F30.0
N2850G01X16.763Y22.709F200.0
N2860X16.663Y22.609
N2870X16.763Y22.509
N2880X16.863Y22.609
N2890G01Z-1.425F30.0
N2900G01X16.763Y22.709F200.0
N2910X16.663Y22.609
N2920X16.763Y22.509
N2930X16.863Y22.609
N2940G01Z-1.450F30.0
N2950G01X16.763Y22.709F200.0
N2960X16.663Y22.609
N2970X16.763Y22.509
N2980X16.863Y22.609
N2990G01Z-1.475F30.0
N3000G01X16.763Y22.709F200.0
N3010X16.663Y22.609
N3020X16.763Y22.509
N3030X16.863Y22.609
N3040G01Z-1.500F30.0
N3050G01X16.763Y22.709F200.0
N3060X16.663Y22.609
N3070X16.763Y22.509
N3080X16.863Y22.609
N3090G01Z-1.525F30.0
N3100G01X16.763Y22.709F200.0
N3110X16.663Y22.609
N3120X16.763Y22.509
N3130X16.863Y22.609
N3140G01Z-1.550F30.0
N3150G01X16.763Y22.709F200.0
N3160X16.663Y22.609
N3170X16.763Y22.509
N3180X16.863Y22.609
N3190G01Z-1.575F30.0
N3200G01X16.763Y22.709F200.0
N3210X16.663Y22.609
N3220X16.763Y22.509
N3230X16.863Y22.609
N3240G01Z-1.600F30.0
N3250G01X16.763Y22.709F200.0
N3260X16.663Y22.609
N3270X16.763Y22.509
N3280X16.863Y22.609
N3290G01Z-1.625F30.0
N3300G01X16.763Y22.709F200.0
N3310X16.663Y22.609
N3320X16.763Y22.509
N3330X16.863Y22.609
N3340G01Z-1.650F30.0
N3350G01X16.763Y22.709F200.0
N3360X16.663Y22.609
N3370X16.763Y22.509
N3380X16.863Y22.609
N3390G01Z-1.675F30.0
N3400G01X16.763Y22.709F200.0
N3410X16.663Y22.609
N3420X16.763Y22.509
N3430X16.863Y22.609
N3440G01Z-1.700F30.0
N3450G01X16.763Y22.709F200.0
N3460X16.663Y22.609
N3470X16.763Y22.509
N3480X16.863Y22.609
N3490G01Z-1.725F30.0
N3500G01X16.763Y22.709F200.0
N3510X16.663Y22.609
N3520X16.763Y22.509
N3530X16.863Y22.609
N3540G01Z-1.750F30.0
N3550G01X16.763Y22.709F200.0
N3560X16.663Y22.609
N3570X16.763Y22.509
N3580X16.863Y22.609
N3590G01Z-1.775F30.0
N3600G01X16.763Y22.709F200.0
N3610X16.663Y22.609
N3620X16.763Y22.509
N3630X16.863Y22.609
N3640G01Z-1.800F30.0
N3650G01X16.763Y22.709F200.0
N3660X16.663Y22.609
N3670X16.763Y22.509
N3680X16.863Y22.609
N3690G01Z-1.825F30.0
N3700G01X16.763Y22.709F200.0
N3710X16.663Y22.609
N3720X16.763Y22.509
N3730X16.863Y22.609
N3740G01Z-1.850F30.0
N3750G01X16.763Y22.709F200.0
N3760X16.663Y22.609
N3770X16.763Y22.509
N3780X16.863Y22.609
N3790G01Z-1.875F30.0
N3800G01X16.763Y22.709F200.0
N3810X16.663Y22.609
N3820X16.763Y22.509
N3830X16.863Y22.609
N3840G01Z-1.900F30.0
N3850G01X16.763Y22.709F200.0
N3860X16.663Y22.609
N3870X16.763Y22.509
N3880X16.863Y22.609
N3890G01Z-1.925F30.0
N3900G01X16.763Y22.709F200.0
N3910X16.663Y22.609
N3920X16.763Y22.509
N3930X16.863Y22.609
N3940G01Z-1.950F30.0
N3950G01X16.763Y22.709F200.0
N3960X16.663Y22.609
N3970X16.763Y22.509
N3980X16.863Y22.609
N3990G01Z-1.975F30.0
N4000G01X16.763Y22.709F200.0
N4010X16.663Y22.609
N4020X16.763Y22.509
N4030X16.863Y22.609
N4040G01Z-2.000F30.0
N4050G01X16.763Y22.709F200.0
N4060X16.663Y22.609
N4070X16.763Y22.509
N4080X16.863Y22.609
N4090G01Z-2.025F30.0
N4100G01X16.763Y22.709F200.0
N4110X16.663Y22.609
N4120X16.763Y22.509
N4130X16.863Y22.609
N4140G01Z-2.050F30.0
N4150G01X16.763Y22.709F200.0
N4160X16.663Y22.609
N4170X16.763Y22.509
N4180X16.863Y22.609
N4190G01Z-2.075F30.0
N4200G01X16.763Y22.709F200.0
N4210X16.663Y22.609
N4220X16.763Y22.509
N4230X16.863Y22.609
N4240G01Z-2.100F30.0
N4250G01X16.763Y22.709F200.0
N4260X16.663Y22.609
N4270X16.763Y22.509
N4280X16.863Y22.609
N4290G01Z-2.125F30.0
N4300G01X16.763Y22.709F200.0
N4310X16.663Y22.609
N4320X16.763Y22.509
N4330X16.863Y22.609
N4340G01Z-2.150F30.0
N4350G01X16.763Y22.709F200.0
N4360X16.663Y22.609
N4370X16.763Y22.509
N4380X16.863Y22.609
N4390G01Z-2.175F30.0
N4400G01X16.763Y22.709F200.0
N4410X16.663Y22.609
N4420X16.763Y22.509
N4430X16.863Y22.609
N4440G01Z-2.200F30.0
N4450G01X16.763Y22.709F200.0
N4460X16.663Y22.609
N4470X16.763Y22.509
N4480X16.863Y22.609
N4490G01Z-2.225F30.0
N4500G01X16.763Y22.709F200.0
N4510X16.663Y22.609
N4520X16.763Y22.509
N4530X16.863Y22.609
N4540G01Z-2.250F30.0
N4550G01X16.763Y22.709F200.0
N4560X16.663Y22.609
N4570X16.763Y22.509
N4580X16.863Y22.609
N4590G01Z-2.275F30.0
N4600G01X16.763Y22.709F200.0
N4610X16.663Y22.609
N4620X16.763Y22.509
N4630X16.863Y22.609
N4640G01Z-2.300F30.0
N4650G01X16.763Y22.709F200.0
N4660X16.663Y22.609
N4670X16.763Y22.509
N4680X16.863Y22.609
N4690G01Z-2.325F30.0
N4700G01X16.763Y22.709F200.0
N4710X16.663Y22.609
N4720X16.763Y22.509
N4730X16.863Y22.609
N4740G01Z-2.350F30.0
N4750G01X16.763Y22.709F200.0
N4760X16.663Y22.609
N4770X16.763Y22.509
N4780X16.863Y22.609
N4790G01Z-2.375F30.0
N4800G01X16.763Y22.709F200.0
N4810X16.663Y22.609
N4820X16.763Y22.509
N4830X16.863Y22.609
N4840G01Z-2.400F30.0
N4850G01X16.763Y22.709F200.0
N4860X16.663Y22.609
N4870X16.763Y22.509
N4880X16.863Y22.609
N4890G01Z-2.425F30.0
N4900G01X16.763Y22.709F200.0
N4910X16.663Y22.609
N4920X16.763Y22.509
N4930X16.863Y22.609
N4940G01Z-2.450F30.0
N4950G01X16.763Y22.709F200.0
N4960X16.663Y22.609
N4970X16.763Y22.509
N4980X16.863Y22.609
N4990G01Z-2.475F30.0
N5000G01X16.763Y22.709F200.0
N5010X16.663Y22.609
N5020X16.763Y22.509
N5030X16.863Y22.609
N5040G01Z-2.500F30.0
N5050G01X16.763Y22.709F200.0
N5060X16.663Y22.609
N5070X16.763Y22.509
N5080X16.863Y22.609
N5090G01Z-2.525F30.0
N5100G01X16.763Y22.709F200.0
N5110X16.663Y22.609
N5120X16.763Y22.509
N5130X16.863Y22.609
N5140G01Z-2.550F30.0
N5150G01X16.763Y22.709F200.0
N5160X16.663Y22.609
N5170X16.763Y22.509
N5180X16.863Y22.609
N5190G01Z-2.575F30.0
N5200G01X16.763Y22.709F200.0
N5210X16.663Y22.609
N5220X16.763Y22.509
N5230X16.863Y22.609
N5240G01Z-2.600F30.0
N5250G01X16.763Y22.709F200.0
N5260X16.663Y22.609
N5270X16.763Y22.509
N5280X16.863Y22.609
N5290G01Z-2.625F30.0
N5300G01X16.763Y22.709F200.0
N5310X16.663Y22.609
N5320X16.763Y22.509
N5330X16.863Y22.609
N5340G01Z-2.650F30.0
N5350G01X16.763Y22.709F200.0
N5360X16.663Y22.609
N5370X16.763Y22.509
N5380X16.863Y22.609
N5390G01Z-2.675F30.0
N5400G01X16.763Y22.709F200.0
N5410X16.663Y22.609
N5420X16.763Y22.509
N5430X16.863Y22.609
N5440G01Z-2.700F30.0
N5450G01X16.763Y22.709F200.0
N5460X16.663Y22.609
N5470X16.763Y22.509
N5480X16.863Y22.609
N5490G01Z-2.725F30.0
N5500G01X16.763Y22.709F200.0
N5510X16.663Y22.609
N5520X16.763Y22.509
N5530X16.863Y22.609
N5540G01Z-2.750F30.0
N5550G01X16.763Y22.709F200.0
N5560X16.663Y22.609
N5570X16.763Y22.509
N5580X16.863Y22.609
N5590G01Z-2.775F30.0
N5600G01X16.763Y22.709F200.0
N5610X16.663Y22.609
N5620X16.763Y22.509
N5630X16.863Y22.609
N5640G01Z-2.800F30.0
N5650G01X16.763Y22.709F200.0
N5660X16.663Y22.609
N5670X16.763Y22.509
N5680X16.863Y22.609
N5690G01Z-2.825F30.0
N5700G01X16.763Y22.709F200.0
N5710X16.663Y22.609
N5720X16.763Y22.509
N5730X16.863Y22.609
N5740G01Z-2.850F30.0
N5750G01X16.763Y22.709F200.0
N5760X16.663Y22.609
N5770X16.763Y22.509
N5780X16.863Y22.609
N5790G01Z-2.875F30.0
N5800G01X16.763Y22.709F200.0
N5810X16.663Y22.609
N5820X16.763Y22.509
N5830X16.863Y22.609
N5840G01Z-2.900F30.0
N5850G01X16.763Y22.709F200.0
N5860X16.663Y22.609
N5870X16.763Y22.509
N5880X16.863Y22.609
N5890G01Z-2.925F30.0
N5900G01X16.763Y22.709F200.0
N5910X16.663Y22.609
N5920X16.763Y22.509
N5930X16.863Y22.609
N5940G01Z-2.950F30.0
N5950G01X16.763Y22.709F200.0
N5960X16.663Y22.609
N5970X16.763Y22.509
N5980X16.863Y22.609
N5990G01Z-2.975F30.0
N6000G01X16.763Y22.709F200.0
N6010X16.663Y22.609
N6020X16.763Y22.509
N6030X16.863Y22.609
N6040G01Z-3.000F30.0
N6050G01X16.763Y22.709F200.0
N6060X16.663Y22.609
N6070X16.763Y22.509
N6080X16.863Y22.609
N6090G01Z-3.025F30.0
N6100G01X16.763Y22.709F200.0
N6110X16.663Y22.609
N6120X16.763Y22.509
N6130X16.863Y22.609
N6140G01Z-3.050F30.0
N6150G01X16.763Y22.709F200.0
N6160X16.663Y22.609
N6170X16.763Y22.509
N6180X16.863Y22.609
N6190G01Z-3.075F30.0
N6200G01X16.763Y22.709F200.0
N6210X16.663Y22.609
N6220X16.763Y22.509
N6230X16.863Y22.609
N6240G01Z-3.100F30.0
N6250G01X16.763Y22.709F200.0
N6260X16.663Y22.609
N6270X16.763Y22.509
N6280X16.863Y22.609
N6290G01Z-3.125F30.0
N6300G01X16.763Y22.709F200.0
N6310X16.663Y22.609
N6320X16.763Y22.509
N6330X16.863Y22.609
N6340G01Z-3.150F30.0
N6350G01X16.763Y22.709F200.0
N6360X16.663Y22.609
N6370X16.763Y22.509
N6380X16.863Y22.609
N6390G01Z-3.175F30.0
N6400G01X16.763Y22.709F200.0
N6410X16.663Y22.609
N6420X16.763Y22.509
N6430X16.863Y22.609
N6440G01Z-3.200F30.0
N6450G01X16.763Y22.709F200.0
N6460X16.663Y22.609
N6470X16.763Y22.509
N6480X16.863Y22.609
N6490G00Z6.000
N6500G00X26.863Y39.929
N6510G01Z-0.025F30.0
N6520G01X26.763Y40.029F200.0
N6530X26.663Y39.929
N6540X26.763Y39.829
N6550X26.863Y39.929
N6560G01Z-0.050F30.0
N6570G01X26.763Y40.029F200.0
N6580X26.663Y39.929
N6590X26.763Y39.829
N6600X26.863Y39.929
N6610G01Z-0.075F30.0
N6620G01X26.763Y40.029F200.0
N6630X26.663Y39.929
N6640X26.763Y39.829
N6650X26.863Y39.929
N6660G01Z-0.100F30.0
N6670G01X26.763Y40.029F200.0
N6680X26.663Y39.929
N6690X26.763Y39.829
N6700X26.863Y39.929
N6710G01Z-0.125F30.0
N6720G01X26.763Y40.029F200.0
N6730X26.663Y39.929
N6740X26.763Y39.829
N6750X26.863Y39.929
N6760G01Z-0.150F30.0
N6770G01X26.763Y40.029F200.0
N6780X26.663Y39.929
N6790X26.763Y39.829
N6800X26.863Y39.929
N6810G01Z-0.175F30.0
N6820G01X26.763Y40.029F200.0
N6830X26.663Y39.929
N6840X26.763Y39.829
N6850X26.863Y39.929
N6860G01Z-0.200F30.0
N6870G01X26.763Y40.029F200.0
N6880X26.663Y39.929
N6890X26.763Y39.829
N6900X26.863Y39.929
N6910G01Z-0.225F30.0
N6920G01X26.763Y40.029F200.0
N6930X26.663Y39.929
N6940X26.763Y39.829
N6950X26.863Y39.929
N6960G01Z-0.250F30.0
N6970G01X26.763Y40.029F200.0
N6980X26.663Y39.929
N6990X26.763Y39.829
N7000X26.863Y39.929
N7010G01Z-0.275F30.0
N7020G01X26.763Y40.029F200.0
N7030X26.663Y39.929
N7040X26.763Y39.829
N7050X26.863Y39.929
N7060G01Z-0.300F30.0
N7070G01X26.763Y40.029F200.0
N7080X26.663Y39.929
N7090X26.763Y39.829
N7100X26.863Y39.929
N7110G01Z-0.325F30.0
N7120G01X26.763Y40.029F200.0
N7130X26.663Y39.929
N7140X26.763Y39.829
N7150X26.863Y39.929
N7160G01Z-0.350F30.0
N7170G01X26.763Y40.029F200.0
N7180X26.663Y39.929
N7190X26.763Y39.829
N7200X26.863Y39.929
N7210G01Z-0.375F30.0
N7220G01X26.763Y40.029F200.0
N7230X26.663Y39.929
N7240X26.763Y39.829
N7250X26.863Y39.929
N7260G01Z-0.400F30.0
N7270G01X26.763Y40.029F200.0
N7280X26.663Y39.929
N7290X26.763Y39.829
N7300X26.863Y39.929
N7310G01Z-0.425F30.0
N7320G01X26.763Y40.029F200.0
N7330X26.663Y39.929
N7340X26.763Y39.829
N7350X26.863Y39.929
N7360G01Z-0.450F30.0
N7370G01X26.763Y40.029F200.0
N7380X26.663Y39.929
N7390X26.763Y39.829
N7400X26.863Y39.929
N7410G01Z-0.475F30.0
N7420G01X26.763Y40.029F200.0
N7430X26.663Y39.929
N7440X26.763Y39.829
N7450X26.863Y39.929
N7460G01Z-0.500F30.0
N7470G01X26.763Y40.029F200.0
N7480X26.663Y39.929
N7490X26.763Y39.829
N7500X26.863Y39.929
N7510G01Z-0.525F30.0
N7520G01X26.763Y40.029F200.0
N7530X26.663Y39.929
N7540X26.763Y39.829
N7550X26.863Y39.929
N7560G01Z-0.550F30.0
N7570G01X26.763Y40.029F200.0
N7580X26.663Y39.929
N7590X26.763Y39.829
N7600X26.863Y39.929
N7610G01Z-0.575F30.0
N7620G01X26.763Y40.029F200.0
N7630X26.663Y39.929
N7640X26.763Y39.829
N7650X26.863Y39.929
N7660G01Z-0.600F30.0
N7670G01X26.763Y40.029F200.0
N7680X26.663Y39.929
N7690X26.763Y39.829
N7700X26.863Y39.929
N7710G01Z-0.625F30.0
N7720G01X26.763Y40.029F200.0
N7730X26.663Y39.929
N7740X26.763Y39.829
N7750X26.863Y39.929
N7760G01Z-0.650F30.0
N7770G01X26.763Y40.029F200.0
N7780X26.663Y39.929
N7790X26.763Y39.829
N7800X26.863Y39.929
N7810G01Z-0.675F30.0
N7820G01X26.763Y40.029F200.0
N7830X26.663Y39.929
N7840X26.763Y39.829
N7850X26.863Y39.929
N7860G01Z-0.700F30.0
N7870G01X26.763Y40.029F200.0
N7880X26.663Y39.929
N7890X26.763Y39.829
N7900X26.863Y39.929
N7910G01Z-0.725F30.0
N7920G01X26.763Y40.029F200.0
N7930X26.663Y39.929
N7940X26.763Y39.829
N7950X26.863Y39.929
N7960G01Z-0.750F30.0
N7970G01X26.763Y40.029F200.0
N7980X26.663Y39.929
N7990X26.763Y39.829
N8000X26.863Y39.929
N8010G01Z-0.775F30.0
N8020G01X26.763Y40.029F200.0
N8030X26.663Y39.929
N8040X26.763Y39.829
N8050X26.863Y39.929
N8060G01Z-0.800F30.0
N8070G01X26.763Y40.029F200.0
N8080X26.663Y39.929
N8090X26.763Y39.829
N8100X26.863Y39.929
N8110G01Z-0.825F30.0
N8120G01X26.763Y40.029F200.0
N8130X26.663Y39.929
N8140X26.763Y39.829
N8150X26.863Y39.929
N8160G01Z-0.850F30.0
N8170G01X26.763Y40.029F200.0
N8180X26.663Y39.929
N8190X26.763Y39.829
N8200X26.863Y39.929
N8210G01Z-0.875F30.0
N8220G01X26.763Y40.029F200.0
N8230X26.663Y39.929
N8240X26.763Y39.829
N8250X26.863Y39.929
N8260G01Z-0.900F30.0
N8270G01X26.763Y40.029F200.0
N8280X26.663Y39.929
N8290X26.763Y39.829
N8300X26.863Y39.929
N8310G01Z-0.925F30.0
N8320G01X26.763Y40.029F200.0
N8330X26.663Y39.929
N8340X26.763Y39.829
N8350X26.863Y39.929
N8360G01Z-0.950F30.0
N8370G01X26.763Y40.029F200.0
N8380X26.663Y39.929
N8390X26.763Y39.829
N8400X26.863Y39.929
N8410G01Z-0.975F30.0
N8420G01X26.763Y40.029F200.0
N8430X26.663Y39.929
N8440X26.763Y39.829
N8450X26.863Y39.929
N8460G01Z-1.000F30.0
N8470G01X26.763Y40.029F200.0
N8480X26.663Y39.929
N8490X26.763Y39.829
N8500X26.863Y39.929
N8510G01Z-1.025F30.0
N8520G01X26.763Y40.029F200.0
N8530X26.663Y39.929
N8540X26.763Y39.829
N8550X26.863Y39.929
N8560G01Z-1.050F30.0
N8570G01X26.763Y40.029F200.0
N8580X26.663Y39.929
N8590X26.763Y39.829
N8600X26.863Y39.929
N8610G01Z-1.075F30.0
N8620G01X26.763Y40.029F200.0
N8630X26.663Y39.929
N8640X26.763Y39.829
N8650X26.863Y39.929
N8660G01Z-1.100F30.0
N8670G01X26.763Y40.029F200.0
N8680X26.663Y39.929
N8690X26.763Y39.829
N8700X26.863Y39.929
N8710G01Z-1.125F30.0
N8720G01X26.763Y40.029F200.0
N8730X26.663Y39.929
N8740X26.763Y39.829
N8750X26.863Y39.929
N8760G01Z-1.150F30.0
N8770G01X26.763Y40.029F200.0
N8780X26.663Y39.929
N8790X26.763Y39.829
N8800X26.863Y39.929
N8810G01Z-1.175F30.0
N8820G01X26.763Y40.029F200.0
N8830X26.663Y39.929
N8840X26.763Y39.829
N8850X26.863Y39.929
N8860G01Z-1.200F30.0
N8870G01X26.763Y40.029F200.0
N8880X26.663Y39.929
N8890X26.763Y39.829
N8900X26.863Y39.929
N8910G01Z-1.225F30.0
N8920G01X26.763Y40.029F200.0
N8930X26.663Y39.929
N8940X26.763Y39.829
N8950X26.863Y39.929
N8960G01Z-1.250F30.0
N8970G01X26.763Y40.029F200.0
N8980X26.663Y39.929
N8990X26.763Y39.829
N9000X26.863Y39.929
N9010G01Z-1.275F30.0
N9020G01X26.763Y40.029F200.0
N9030X26.663Y39.929
N9040X26.763Y39.829
N9050X26.863Y39.929
N9060G01Z-1.300F30.0
N9070G01X26.763Y40.029F200.0
N9080X26.663Y39.929
N9090X26.763Y39.829
N9100X26.863Y39.929
N9110G01Z-1.325F30.0
N9120G01X26.763Y40.029F200.0
N9130X26.663Y39.929
N9140X26.763Y39.829
N9150X26.863Y39.929
N9160G01Z-1.350F30.0
N9170G01X26.763Y40.029F200.0
N9180X26.663Y39.929
N9190X26.763Y39.829
N9200X26.863Y39.929
N9210G01Z-1.375F30.0
N9220G01X26.763Y40.029F200.0
N9230X26.663Y39.929
N9240X26.763Y39.829
N9250X26.863Y39.929
N9260G01Z-1.400F30.0
N9270G01X26.763Y40.029F200.0
N9280X26.663Y39.929
N9290X26.763Y39.829
N9300X26.863Y39.929
N9310G01Z-1.425F30.0
N9320G01X26.763Y40.029F200.0
N9330X26.663Y39.929
N9340X26.763Y39.829
N9350X26.863Y39.929
N9360G01Z-1.450F30.0
N9370G01X26.763Y40.029F200.0
N9380X26.663Y39.929
N9390X26.763Y39.829
N9400X26.863Y39.929
N9410G01Z-1.475F30.0
N9420G01X26.763Y40.029F200.0
N9430X26.663Y39.929
N9440X26.763Y39.829
N9450X26.863Y39.929
N9460G01Z-1.500F30.0
N9470G01X26.763Y40.029F200.0
N9480X26.663Y39.929
N9490X26.763Y39.829
N9500X26.863Y39.929
N9510G01Z-1.525F30.0
N9520G01X26.763Y40.029F200.0
N9530X26.663Y39.929
N9540X26.763Y39.829
N9550X26.863Y39.929
N9560G01Z-1.550F30.0
N9570G01X26.763Y40.029F200.0
N9580X26.663Y39.929
N9590X26.763Y39.829
N9600X26.863Y39.929
N9610G01Z-1.575F30.0
N9620G01X26.763Y40.029F200.0
N9630X26.663Y39.929
N9640X26.763Y39.829
N9650X26.863Y39.929
N9660G01Z-1.600F30.0
N9670G01X26.763Y40.029F200.0
N9680X26.663Y39.929
N9690X26.763Y39.829
N9700X26.863Y39.929
N9710G01Z-1.625F30.0
N9720G01X26.763Y40.029F200.0
N9730X26.663Y39.929
N9740X26.763Y39.829
N9750X26.863Y39.929
N9760G01Z-1.650F30.0
N9770G01X26.763Y40.029F200.0
N9780X26.663Y39.929
N9790X26.763Y39.829
N9800X26.863Y39.929
N9810G01Z-1.675F30.0
N9820G01X26.763Y40.029F200.0
N9830X26.663Y39.929
N9840X26.763Y39.829
N9850X26.863Y39.929
N9860G01Z-1.700F30.0
N9870G01X26.763Y40.029F200.0
N9880X26.663Y39.929
N9890X26.763Y39.829
N9900X26.863Y39.929
N9910G01Z-1.725F30.0
N9920G01X26.763Y40.029F200.0
N9930X26.663Y39.929
N9940X26.763Y39.829
N9950X26.863Y39.929
N9960G01Z-1.750F30.0
N9970G01X26.763Y40.029F200.0
N9980X26.663Y39.929
N9990X26.763Y39.829
N10000X26.863Y39.929
N10010G01Z-1.775F30.0
N10020G01X26.763Y40.029F200.0
N10030X26.663Y39.929
N10040X26.763Y39.829
N10050X26.863Y39.929
N10060G01Z-1.800F30.0
N10070G01X26.763Y40.029F200.0
N10080X26.663Y39.929
N10090X26.763Y39.829
N10100X26.863Y39.929
N10110G01Z-1.825F30.0
N10120G01X26.763Y40.029F200.0
N10130X26.663Y39.929
N10140X26.763Y39.829
N10150X26.863Y39.929
N10160G01Z-1.850F30.0
N10170G01X26.763Y40.029F200.0
N10180X26.663Y39.929
N10190X26.763Y39.829
N10200X26.863Y39.929
N10210G01Z-1.875F30.0
N10220G01X26.763Y40.029F200.0
N10230X26.663Y39.929
N10240X26.763Y39.829
N10250X26.863Y39.929
N10260G01Z-1.900F30.0
N10270G01X26.763Y40.029F200.0
N10280X26.663Y39.929
N10290X26.763Y39.829
N10300X26.863Y39.929
N10310G01Z-1.925F30.0
N10320G01X26.763Y40.029F200.0
N10330X26.663Y39.929
N10340X26.763Y39.829
N10350X26.863Y39.929
N10360G01Z-1.950F30.0
N10370G01X26.763Y40.029F200.0
N10380X26.663Y39.929
N10390X26.763Y39.829
N10400X26.863Y39.929
N10410G01Z-1.975F30.0
N10420G01X26.763Y40.029F200.0
N10430X26.663Y39.929
N10440X26.763Y39.829
N10450X26.863Y39.929
N10460G01Z-2.000F30.0
N10470G01X26.763Y40.029F200.0
N10480X26.663Y39.929
N10490X26.763Y39.829
N10500X26.863Y39.929
N10510G01Z-2.025F30.0
N10520G01X26.763Y40.029F200.0
N10530X26.663Y39.929
N10540X26.763Y39.829
N10550X26.863Y39.929
N10560G01Z-2.050F30.0
N10570G01X26.763Y40.029F200.0
N10580X26.663Y39.929
N10590X26.763Y39.829
N10600X26.863Y39.929
N10610G01Z-2.075F30.0
N10620G01X26.763Y40.029F200.0
N10630X26.663Y39.929
N10640X26.763Y39.829
N10650X26.863Y39.929
N10660G01Z-2.100F30.0
N10670G01X26.763Y40.029F200.0
N10680X26.663Y39.929
N10690X26.763Y39.829
N10700X26.863Y39.929
N10710G01Z-2.125F30.0
N10720G01X26.763Y40.029F200.0
N10730X26.663Y39.929
N10740X26.763Y39.829
N10750X26.863Y39.929
N10760G01Z-2.150F30.0
N10770G01X26.763Y40.029F200.0
N10780X26.663Y39.929
N10790X26.763Y39.829
N10800X26.863Y39.929
N10810G01Z-2.175F30.0
N10820G01X26.763Y40.029F200.0
N10830X26.663Y39.929
N10840X26.763Y39.829
N10850X26.863Y39.929
N10860G01Z-2.200F30.0
N10870G01X26.763Y40.029F200.0
N10880X26.663Y39.929
N10890X26.763Y39.829
N10900X26.863Y39.929
N10910G01Z-2.225F30.0
N10920G01X26.763Y40.029F200.0
N10930X26.663Y39.929
N10940X26.763Y39.829
N10950X26.863Y39.929
N10960G01Z-2.250F30.0
N10970G01X26.763Y40.029F200.0
N10980X26.663Y39.929
N10990X26.763Y39.829
N11000X26.863Y39.929
N11010G01Z-2.275F30.0
N11020G01X26.763Y40.029F200.0
N11030X26.663Y39.929
N11040X26.763Y39.829
N11050X26.863Y39.929
N11060G01Z-2.300F30.0
N11070G01X26.763Y40.029F200.0
N11080X26.663Y39.929
N11090X26.763Y39.829
N11100X26.863Y39.929
N11110G01Z-2.325F30.0
N11120G01X26.763Y40.029F200.0
N11130X26.663Y39.929
N11140X26.763Y39.829
N11150X26.863Y39.929
N11160G01Z-2.350F30.0
N11170G01X26.763Y40.029F200.0
N11180X26.663Y39.929
N11190X26.763Y39.829
N11200X26.863Y39.929
N11210G01Z-2.375F30.0
N11220G01X26.763Y40.029F200.0
N11230X26.663Y39.929
N11240X26.763Y39.829
N11250X26.863Y39.929
N11260G01Z-2.400F30.0
N11270G01X26.763Y40.029F200.0
N11280X26.663Y39.929
N11290X26.763Y39.829
N11300X26.863Y39.929
N11310G01Z-2.425F30.0
N11320G01X26.763Y40.029F200.0
N11330X26.663Y39.929
N11340X26.763Y39.829
N11350X26.863Y39.929
N11360G01Z-2.450F30.0
N11370G01X26.763Y40.029F200.0
N11380X26.663Y39.929
N11390X26.763Y39.829
N11400X26.863Y39.929
N11410G01Z-2.475F30.0
N11420G01X26.763Y40.029F200.0
N11430X26.663Y39.929
N11440X26.763Y39.829
N11450X26.863Y39.929
N11460G01Z-2.500F30.0
N11470G01X26.763Y40.029F200.0
N11480X26.663Y39.929
N11490X26.763Y39.829
N11500X26.863Y39.929
N11510G01Z-2.525F30.0
N11520G01X26.763Y40.029F200.0
N11530X26.663Y39.929
N11540X26.763Y39.829
N11550X26.863Y39.929
N11560G01Z-2.550F30.0
N11570G01X26.763Y40.029F200.0
N11580X26.663Y39.929
N11590X26.763Y39.829
N11600X26.863Y39.929
N11610G01Z-2.575F30.0
N11620G01X26.763Y40.029F200.0
N11630X26.663Y39.929
N11640X26.763Y39.829
N11650X26.863Y39.929
N11660G01Z-2.600F30.0
N11670G01X26.763Y40.029F200.0
N11680X26.663Y39.929
N11690X26.763Y39.829
N11700X26.863Y39.929
N11710G01Z-2.625F30.0
N11720G01X26.763Y40.029F200.0
N11730X26.663Y39.929
N11740X26.763Y39.829
N11750X26.863Y39.929
N11760G01Z-2.650F30.0
N11770G01X26.763Y40.029F200.0
N11780X26.663Y39.929
N11790X26.763Y39.829
N11800X26.863Y39.929
N11810G01Z-2.675F30.0
N11820G01X26.763Y40.029F200.0
N11830X26.663Y39.929
N11840X26.763Y39.829
N11850X26.863Y39.929
N11860G01Z-2.700F30.0
N11870G01X26.763Y40.029F200.0
N11880X26.663Y39.929
N11890X26.763Y39.829
N11900X26.863Y39.929
N11910G01Z-2.725F30.0
N11920G01X26.763Y40.029F200.0
N11930X26.663Y39.929
N11940X26.763Y39.829
N11950X26.863Y39.929
N11960G01Z-2.750F30.0
N11970G01X26.763Y40.029F200.0
N11980X26.663Y39.929
N11990X26.763Y39.829
N12000X26.863Y39.929
N12010G01Z-2.775F30.0
N12020G01X26.763Y40.029F200.0
N12030X26.663Y39.929
N12040X26.763Y39.829
N12050X26.863Y39.929
N12060G01Z-2.800F30.0
N12070G01X26.763Y40.029F200.0
N12080X26.663Y39.929
N12090X26.763Y39.829
N12100X26.863Y39.929
N12110G01Z-2.825F30.0
N12120G01X26.763Y40.029F200.0
N12130X26.663Y39.929
N12140X26.763Y39.829
N12150X26.863Y39.929
N12160G01Z-2.850F30.0
N12170G01X26.763Y40.029F200.0
N12180X26.663Y39.929
N12190X26.763Y39.829
N12200X26.863Y39.929
N12210G01Z-2.875F30.0
N12220G01X26.763Y40.029F200.0
N12230X26.663Y39.929
N12240X26.763Y39.829
N12250X26.863Y39.929
N12260G01Z-2.900F30.0
N12270G01X26.763Y40.029F200.0
N12280X26.663Y39.929
N12290X26.763Y39.829
N12300X26.863Y39.929
N12310G01Z-2.925F30.0
N12320G01X26.763Y40.029F200.0
N12330X26.663Y39.929
N12340X26.763Y39.829
N12350X26.863Y39.929
N12360G01Z-2.950F30.0
N12370G01X26.763Y40.029F200.0
N12380X26.663Y39.929
N12390X26.763Y39.829
N12400X26.863Y39.929
N12410G01Z-2.975F30.0
N12420G01X26.763Y40.029F200.0
N12430X26.663Y39.929
N12440X26.763Y39.829
N12450X26.863Y39.929
N12460G01Z-3.000F30.0
N12470G01X26.763Y40.029F200.0
N12480X26.663Y39.929
N12490X26.763Y39.829
N12500X26.863Y39.929
N12510G01Z-3.025F30.0
N12520G01X26.763Y40.029F200.0
N12530X26.663Y39.929
N12540X26.763Y39.829
N12550X26.863Y39.929
N12560G01Z-3.050F30.0
N12570G01X26.763Y40.029F200.0
N12580X26.663Y39.929
N12590X26.763Y39.829
N12600X26.863Y39.929
N12610G01Z-3.075F30.0
N12620G01X26.763Y40.029F200.0
N12630X26.663Y39.929
N12640X26.763Y39.829
N12650X26.863Y39.929
N12660G01Z-3.100F30.0
N12670G01X26.763Y40.029F200.0
N12680X26.663Y39.929
N12690X26.763Y39.829
N12700X26.863Y39.929
N12710G01Z-3.125F30.0
N12720G01X26.763Y40.029F200.0
N12730X26.663Y39.929
N12740X26.763Y39.829
N12750X26.863Y39.929
N12760G01Z-3.150F30.0
N12770G01X26.763Y40.029F200.0
N12780X26.663Y39.929
N12790X26.763Y39.829
N12800X26.863Y39.929
N12810G01Z-3.175F30.0
N12820G01X26.763Y40.029F200.0
N12830X26.663Y39.929
N12840X26.763Y39.829
N12850X26.863Y39.929
N12860G01Z-3.200F30.0
N12870G01X26.763Y40.029F200.0
N12880X26.663Y39.929
N12890X26.763Y39.829
N12900X26.863Y39.929
N12910G00Z6.000
N12920G00X36.863Y57.250
N12930G01Z-0.025F30.0
N12940G01X36.763Y57.350F200.0
N12950X36.663Y57.250
N12960X36.763Y57.150
N12970X36.863Y57.250
N12980G01Z-0.050F30.0
N12990G01X36.763Y57.350F200.0
N13000X36.663Y57.250
N13010X36.763Y57.150
N13020X36.863Y57.250
N13030G01Z-0.075F30.0
N13040G01X36.763Y57.350F200.0
N13050X36.663Y57.250
N13060X36.763Y57.150
N13070X36.863Y57.250
N13080G01Z-0.100F30.0
N13090G01X36.763Y57.350F200.0
N13100X36.663Y57.250
N13110X36.763Y57.150
N13120X36.863Y57.250
N13130G01Z-0.125F30.0
N13140G01X36.763Y57.350F200.0
N13150X36.663Y57.250
N13160X36.763Y57.150
N13170X36.863Y57.250
N13180G01Z-0.150F30.0
N13190G01X36.763Y57.350F200.0
N13200X36.663Y57.250
N13210X36.763Y57.150
N13220X36.863Y57.250
N13230G01Z-0.175F30.0
N13240G01X36.763Y57.350F200.0
N13250X36.663Y57.250
N13260X36.763Y57.150
N13270X36.863Y57.250
N13280G01Z-0.200F30.0
N13290G01X36.763Y57.350F200.0
N13300X36.663Y57.250
N13310X36.763Y57.150
N13320X36.863Y57.250
N13330G01Z-0.225F30.0
N13340G01X36.763Y57.350F200.0
N13350X36.663Y57.250
N13360X36.763Y57.150
N13370X36.863Y57.250
N13380G01Z-0.250F30.0
N13390G01X36.763Y57.350F200.0
N13400X36.663Y57.250
N13410X36.763Y57.150
N13420X36.863Y57.250
N13430G01Z-0.275F30.0
N13440G01X36.763Y57.350F200.0
N13450X36.663Y57.250
N13460X36.763Y57.150
N13470X36.863Y57.250
N13480G01Z-0.300F30.0
N13490G01X36.763Y57.350F200.0
N13500X36.663Y57.250
N13510X36.763Y57.150
N13520X36.863Y57.250
N13530G01Z-0.325F30.0
N13540G01X36.763Y57.350F200.0
N13550X36.663Y57.250
N13560X36.763Y57.150
N13570X36.863Y57.250
N13580G01Z-0.350F30.0
N13590G01X36.763Y57.350F200.0
N13600X36.663Y57.250
N13610X36.763Y57.150
N13620X36.863Y57.250
N13630G01Z-0.375F30.0
N13640G01X36.763Y57.350F200.0
N13650X36.663Y57.250
N13660X36.763Y57.150
N13670X36.863Y57.250
N13680G01Z-0.400F30.0
N13690G01X36.763Y57.350F200.0
N13700X36.663Y57.250
N13710X36.763Y57.150
N13720X36.863Y57.250
N13730G01Z-0.425F30.0
N13740G01X36.763Y57.350F200.0
N13750X36.663Y57.250
N13760X36.763Y57.150
N13770X36.863Y57.250
N13780G01Z-0.450F30.0
N13790G01X36.763Y57.350F200.0
N13800X36.663Y57.250
N13810X36.763Y57.150
N13820X36.863Y57.250
N13830G01Z-0.475F30.0
N13840G01X36.763Y57.350F200.0
N13850X36.663Y57.250
N13860X36.763Y57.150
N13870X36.863Y57.250
N13880G01Z-0.500F30.0
N13890G01X36.763Y57.350F200.0
N13900X36.663Y57.250
N13910X36.763Y57.150
N13920X36.863Y57.250
N13930G01Z-0.525F30.0
N13940G01X36.763Y57.350F200.0
N13950X36.663Y57.250
N13960X36.763Y57.150
N13970X36.863Y57.250
N13980G01Z-0.550F30.0
N13990G01X36.763Y57.350F200.0
N14000X36.663Y57.250
N14010X36.763Y57.150
N14020X36.863Y57.250
N14030G01Z-0.575F30.0
N14040G01X36.763Y57.350F200.0
N14050X36.663Y57.250
N14060X36.763Y57.150
N14070X36.863Y57.250
N14080G01Z-0.600F30.0
N14090G01X36.763Y57.350F200.0
N14100X36.663Y57.250
N14110X36.763Y57.150
N14120X36.863Y57.250
N14130G01Z-0.625F30.0
N14140G01X36.763Y57.350F200.0
N14150X36.663Y57.250
N14160X36.763Y57.150
N14170X36.863Y57.250
N14180G01Z-0.650F30.0
N14190G01X36.763Y57.350F200.0
N14200X36.663Y57.250
N14210X36.763Y57.150
N14220X36.863Y57.250
N14230G01Z-0.675F30.0
N14240G01X36.763Y57.350F200.0
N14250X36.663Y57.250
N14260X36.763Y57.150
N14270X36.863Y57.250
N14280G01Z-0.700F30.0
N14290G01X36.763Y57.350F200.0
N14300X36.663Y57.250
N14310X36.763Y57.150
N14320X36.863Y57.250
N14330G01Z-0.725F30.0
N14340G01X36.763Y57.350F200.0
N14350X36.663Y57.250
N14360X36.763Y57.150
N14370X36.863Y57.250
N14380G01Z-0.750F30.0
N14390G01X36.763Y57.350F200.0
N14400X36.663Y57.250
N14410X36.763Y57.150
N14420X36.863Y57.250
N14430G01Z-0.775F30.0
N14440G01X36.763Y57.350F200.0
N14450X36.663Y57.250
N14460X36.763Y57.150
N14470X36.863Y57.250
N14480G01Z-0.800F30.0
N14490G01X36.763Y57.350F200.0
N14500X36.663Y57.250
N14510X36.763Y57.150
N14520X36.863Y57.250
N14530G01Z-0.825F30.0
N14540G01X36.763Y57.350F200.0
N14550X36.663Y57.250
N14560X36.763Y57.150
N14570X36.863Y57.250
N14580G01Z-0.850F30.0
N14590G01X36.763Y57.350F200.0
N14600X36.663Y57.250
N14610X36.763Y57.150
N14620X36.863Y57.250
N14630G01Z-0.875F30.0
N14640G01X36.763Y57.350F200.0
N14650X36.663Y57.250
N14660X36.763Y57.150
N14670X36.863Y57.250
N14680G01Z-0.900F30.0
N14690G01X36.763Y57.350F200.0
N14700X36.663Y57.250
N14710X36.763Y57.150
N14720X36.863Y57.250
N14730G01Z-0.925F30.0
N14740G01X36.763Y57.350F200.0
N14750X36.663Y57.250
N14760X36.763Y57.150
N14770X36.863Y57.250
N14780G01Z-0.950F30.0
N14790G01X36.763Y57.350F200.0
N14800X36.663Y57.250
N14810X36.763Y57.150
N14820X36.863Y57.250
N14830G01Z-0.975F30.0
N14840G01X36.763Y57.350F200.0
N14850X36.663Y57.250
N14860X36.763Y57.150
N14870X36.863Y57.250
N14880G01Z-1.000F30.0
N14890G01X36.763Y57.350F200.0
N14900X36.663Y57.250
N14910X36.763Y57.150
N14920X36.863Y57.250
N14930G01Z-1.025F30.0
N14940G01X36.763Y57.350F200.0
N14950X36.663Y57.250
N14960X36.763Y57.150
N14970X36.863Y57.250
N14980G01Z-1.050F30.0
N14990G01X36.763Y57.350F200.0
N15000X36.663Y57.250
N15010X36.763Y57.150
N15020X36.863Y57.250
N15030G01Z-1.075F30.0
N15040G01X36.763Y57.350F200.0
N15050X36.663Y57.250
N15060X36.763Y57.150
N15070X36.863Y57.250
N15080G01Z-1.100F30.0
N15090G01X36.763Y57.350F200.0
N15100X36.663Y57.250
N15110X36.763Y57.150
N15120X36.863Y57.250
N15130G01Z-1.125F30.0
N15140G01X36.763Y57.350F200.0
N15150X36.663Y57.250
N15160X36.763Y57.150
N15170X36.863Y57.250
N15180G01Z-1.150F30.0
N15190G01X36.763Y57.350F200.0
N15200X36.663Y57.250
N15210X36.763Y57.150
N15220X36.863Y57.250
N15230G01Z-1.175F30.0
N15240G01X36.763Y57.350F200.0
N15250X36.663Y57.250
N15260X36.763Y57.150
N15270X36.863Y57.250
N15280G01Z-1.200F30.0
N15290G01X36.763Y57.350F200.0
N15300X36.663Y57.250
N15310X36.763Y57.150
N15320X36.863Y57.250
N15330G01Z-1.225F30.0
N15340G01X36.763Y57.350F200.0
N15350X36.663Y57.250
N15360X36.763Y57.150
N15370X36.863Y57.250
N15380G01Z-1.250F30.0
N15390G01X36.763Y57.350F200.0
N15400X36.663Y57.250
N15410X36.763Y57.150
N15420X36.863Y57.250
N15430G01Z-1.275F30.0
N15440G01X36.763Y57.350F200.0
N15450X36.663Y57.250
N15460X36.763Y57.150
N15470X36.863Y57.250
N15480G01Z-1.300F30.0
N15490G01X36.763Y57.350F200.0
N15500X36.663Y57.250
N15510X36.763Y57.150
N15520X36.863Y57.250
N15530G01Z-1.325F30.0
N15540G01X36.763Y57.350F200.0
N15550X36.663Y57.250
N15560X36.763Y57.150
N15570X36.863Y57.250
N15580G01Z-1.350F30.0
N15590G01X36.763Y57.350F200.0
N15600X36.663Y57.250
N15610X36.763Y57.150
N15620X36.863Y57.250
N15630G01Z-1.375F30.0
N15640G01X36.763Y57.350F200.0
N15650X36.663Y57.250
N15660X36.763Y57.150
N15670X36.863Y57.250
N15680G01Z-1.400F30.0
N15690G01X36.763Y57.350F200.0
N15700X36.663Y57.250
N15710X36.763Y57.150
N15720X36.863Y57.250
N15730G01Z-1.425F30.0
N15740G01X36.763Y57.350F200.0
N15750X36.663Y57.250
N15760X36.763Y57.150
N15770X36.863Y57.250
N15780G01Z-1.450F30.0
N15790G01X36.763Y57.350F200.0
N15800X36.663Y57.250
N15810X36.763Y57.150
N15820X36.863Y57.250
N15830G01Z-1.475F30.0
N15840G01X36.763Y57.350F200.0
N15850X36.663Y57.250
N15860X36.763Y57.150
N15870X36.863Y57.250
N15880G01Z-1.500F30.0
N15890G01X36.763Y57.350F200.0
N15900X36.663Y57.250
N15910X36.763Y57.150
N15920X36.863Y57.250
N15930G01Z-1.525F30.0
N15940G01X36.763Y57.350F200.0
N15950X36.663Y57.250
N15960X36.763Y57.150
N15970X36.863Y57.250
N15980G01Z-1.550F30.0
N15990G01X36.763Y57.350F200.0
N16000X36.663Y57.250
N16010X36.763Y57.150
N16020X36.863Y57.250
N16030G01Z-1.575F30.0
N16040G01X36.763Y57.350F200.0
N16050X36.663Y57.250
N16060X36.763Y57.150
N16070X36.863Y57.250
N16080G01Z-1.600F30.0
N16090G01X36.763Y57.350F200.0
N16100X36.663Y57.250
N16110X36.763Y57.150
N16120X36.863Y57.250
N16130G01Z-1.625F30.0
N16140G01X36.763Y57.350F200.0
N16150X36.663Y57.250
N16160X36.763Y57.150
N16170X36.863Y57.250
N16180G01Z-1.650F30.0
N16190G01X36.763Y57.350F200.0
N16200X36.663Y57.250
N16210X36.763Y57.150
N16220X36.863Y57.250
N16230G01Z-1.675F30.0
N16240G01X36.763Y57.350F200.0
N16250X36.663Y57.250
N16260X36.763Y57.150
N16270X36.863Y57.250
N16280G01Z-1.700F30.0
N16290G01X36.763Y57.350F200.0
N16300X36.663Y57.250
N16310X36.763Y57.150
N16320X36.863Y57.250
N16330G01Z-1.725F30.0
N16340G01X36.763Y57.350F200.0
N16350X36.663Y57.250
N16360X36.763Y57.150
N16370X36.863Y57.250
N16380G01Z-1.750F30.0
N16390G01X36.763Y57.350F200.0
N16400X36.663Y57.250
N16410X36.763Y57.150
N16420X36.863Y57.250
N16430G01Z-1.775F30.0
N16440G01X36.763Y57.350F200.0
N16450X36.663Y57.250
N16460X36.763Y57.150
N16470X36.863Y57.250
N16480G01Z-1.800F30.0
N16490G01X36.763Y57.350F200.0
N16500X36.663Y57.250
N16510X36.763Y57.150
N16520X36.863Y57.250
N16530G01Z-1.825F30.0
N16540G01X36.763Y57.350F200.0
N16550X36.663Y57.250
N16560X36.763Y57.150
N16570X36.863Y57.250
N16580G01Z-1.850F30.0
N16590G01X36.763Y57.350F200.0
N16600X36.663Y57.250
N16610X36.763Y57.150
N16620X36.863Y57.250
N16630G01Z-1.875F30.0
N16640G01X36.763Y57.350F200.0
N16650X36.663Y57.250
N16660X36.763Y57.150
N16670X36.863Y57.250
N16680G01Z-1.900F30.0
N16690G01X36.763Y57.350F200.0
N16700X36.663Y57.250
N16710X36.763Y57.150
N16720X36.863Y57.250
N16730G01Z-1.925F30.0
N16740G01X36.763Y57.350F200.0
N16750X36.663Y57.250
N16760X36.763Y57.150
N16770X36.863Y57.250
N16780G01Z-1.950F30.0
N16790G01X36.763Y57.350F200.0
N16800X36.663Y57.250
N16810X36.763Y57.150
N16820X36.863Y57.250
N16830G01Z-1.975F30.0
N16840G01X36.763Y57.350F200.0
N16850X36.663Y57.250
N16860X36.763Y57.150
N16870X36.863Y57.250
N16880G01Z-2.000F30.0
N16890G01X36.763Y57.350F200.0
N16900X36.663Y57.250
N16910X36.763Y57.150
N16920X36.863Y57.250
N16930G01Z-2.025F30.0
N16940G01X36.763Y57.350F200.0
N16950X36.663Y57.250
N16960X36.763Y57.150
N16970X36.863Y57.250
N16980G01Z-2.050F30.0
N16990G01X36.763Y57.350F200.0
N17000X36.663Y57.250
N17010X36.763Y57.150
N17020X36.863Y57.250
N17030G01Z-2.075F30.0
N17040G01X36.763Y57.350F200.0
N17050X36.663Y57.250
N17060X36.763Y57.150
N17070X36.863Y57.250
N17080G01Z-2.100F30.0
N17090G01X36.763Y57.350F200.0
N17100X36.663Y57.250
N17110X36.763Y57.150
N17120X36.863Y57.250
N17130G01Z-2.125F30.0
N17140G01X36.763Y57.350F200.0
N17150X36.663Y57.250
N17160X36.763Y57.150
N17170X36.863Y57.250
N17180G01Z-2.150F30.0
N17190G01X36.763Y57.350F200.0
N17200X36.663Y57.250
N17210X36.763Y57.150
N17220X36.863Y57.250
N17230G01Z-2.175F30.0
N17240G01X36.763Y57.350F200.0
N17250X36.663Y57.250
N17260X36.763Y57.150
N17270X36.863Y57.250
N17280G01Z-2.200F30.0
N17290G01X36.763Y57.350F200.0
N17300X36.663Y57.250
N17310X36.763Y57.150
N17320X36.863Y57.250
N17330G01Z-2.225F30.0
N17340G01X36.763Y57.350F200.0
N17350X36.663Y57.250
N17360X36.763Y57.150
N17370X36.863Y57.250
N17380G01Z-2.250F30.0
N17390G01X36.763Y57.350F200.0
N17400X36.663Y57.250
N17410X36.763Y57.150
N17420X36.863Y57.250
N17430G01Z-2.275F30.0
N17440G01X36.763Y57.350F200.0
N17450X36.663Y57.250
N17460X36.763Y57.150
N17470X36.863Y57.250
N17480G01Z-2.300F30.0
N17490G01X36.763Y57.350F200.0
N17500X36.663Y57.250
N17510X36.763Y57.150
N17520X36.863Y57.250
N17530G01Z-2.325F30.0
N17540G01X36.763Y57.350F200.0
N17550X36.663Y57.250
N17560X36.763Y57.150
N17570X36.863Y57.250
N17580G01Z-2.350F30.0
N17590G01X36.763Y57.350F200.0
N17600X36.663Y57.250
N17610X36.763Y57.150
N17620X36.863Y57.250
N17630G01Z-2.375F30.0
N17640G01X36.763Y57.350F200.0
N17650X36.663Y57.250
N17660X36.763Y57.150
N17670X36.863Y57.250
N17680G01Z-2.400F30.0
N17690G01X36.763Y57.350F200.0
N17700X36.663Y57.250
N17710X36.763Y57.150
N17720X36.863Y57.250
N17730G01Z-2.425F30.0
N17740G01X36.763Y57.350F200.0
N17750X36.663Y57.250
N17760X36.763Y57.150
N17770X36.863Y57.250
N17780G01Z-2.450F30.0
N17790G01X36.763Y57.350F200.0
N17800X36.663Y57.250
N17810X36.763Y57.150
N17820X36.863Y57.250
N17830G01Z-2.475F30.0
N17840G01X36.763Y57.350F200.0
N17850X36.663Y57.250
N17860X36.763Y57.150
N17870X36.863Y57.250
N17880G01Z-2.500F30.0
N17890G01X36.763Y57.350F200.0
N17900X36.663Y57.250
N17910X36.763Y57.150
N17920X36.863Y57.250
N17930G01Z-2.525F30.0
N17940G01X36.763Y57.350F200.0
N17950X36.663Y57.250
N17960X36.763Y57.150
N17970X36.863Y57.250
N17980G01Z-2.550F30.0
N17990G01X36.763Y57.350F200.0
N18000X36.663Y57.250
N18010X36.763Y57.150
N18020X36.863Y57.250
N18030G01Z-2.575F30.0
N18040G01X36.763Y57.350F200.0
N18050X36.663Y57.250
N18060X36.763Y57.150
N18070X36.863Y57.250
N18080G01Z-2.600F30.0
N18090G01X36.763Y57.350F200.0
N18100X36.663Y57.250
N18110X36.763Y57.150
N18120X36.863Y57.250
N18130G01Z-2.625F30.0
N18140G01X36.763Y57.350F200.0
N18150X36.663Y57.250
N18160X36.763Y57.150
N18170X36.863Y57.250
N18180G01Z-2.650F30.0
N18190G01X36.763Y57.350F200.0
N18200X36.663Y57.250
N18210X36.763Y57.150
N18220X36.863Y57.250
N18230G01Z-2.675F30.0
N18240G01X36.763Y57.350F200.0
N18250X36.663Y57.250
N18260X36.763Y57.150
N18270X36.863Y57.250
N18280G01Z-2.700F30.0
N18290G01X36.763Y57.350F200.0
N18300X36.663Y57.250
N18310X36.763Y57.150
N18320X36.863Y57.250
N18330G01Z-2.725F30.0
N18340G01X36.763Y57.350F200.0
N18350X36.663Y57.250
N18360X36.763Y57.150
N18370X36.863Y57.250
N18380G01Z-2.750F30.0
N18390G01X36.763Y57.350F200.0
N18400X36.663Y57.250
N18410X36.763Y57.150
N18420X36.863Y57.250
N18430G01Z-2.775F30.0
N18440G01X36.763Y57.350F200.0
N18450X36.663Y57.250
N18460X36.763Y57.150
N18470X36.863Y57.250
N18480G01Z-2.800F30.0
N18490G01X36.763Y57.350F200.0
N18500X36.663Y57.250
N18510X36.763Y57.150
N18520X36.863Y57.250
N18530G01Z-2.825F30.0
N18540G01X36.763Y57.350F200.0
N18550X36.663Y57.250
N18560X36.763Y57.150
N18570X36.863Y57.250
N18580G01Z-2.850F30.0
N18590G01X36.763Y57.350F200.0
N18600X36.663Y57.250
N18610X36.763Y57.150
N18620X36.863Y57.250
N18630G01Z-2.875F30.0
N18640G01X36.763Y57.350F200.0
N18650X36.663Y57.250
N18660X36.763Y57.150
N18670X36.863Y57.250
N18680G01Z-2.900F30.0
N18690G01X36.763Y57.350F200.0
N18700X36.663Y57.250
N18710X36.763Y57.150
N18720X36.863Y57.250
N18730G01Z-2.925F30.0
N18740G01X36.763Y57.350F200.0
N18750X36.663Y57.250
N18760X36.763Y57.150
N18770X36.863Y57.250
N18780G01Z-2.950F30.0
N18790G01X36.763Y57.350F200.0
N18800X36.663Y57.250
N18810X36.763Y57.150
N18820X36.863Y57.250
N18830G01Z-2.975F30.0
N18840G01X36.763Y57.350F200.0
N18850X36.663Y57.250
N18860X36.763Y57.150
N18870X36.863Y57.250
N18880G01Z-3.000F30.0
N18890G01X36.763Y57.350F200.0
N18900X36.663Y57.250
N18910X36.763Y57.150
N18920X36.863Y57.250
N18930G01Z-3.025F30.0
N18940G01X36.763Y57.350F200.0
N18950X36.663Y57.250
N18960X36.763Y57.150
N18970X36.863Y57.250
N18980G01Z-3.050F30.0
N18990G01X36.763Y57.350F200.0
N19000X36.663Y57.250
N19010X36.763Y57.150
N19020X36.863Y57.250
N19030G01Z-3.075F30.0
N19040G01X36.763Y57.350F200.0
N19050X36.663Y57.250
N19060X36.763Y57.150
N19070X36.863Y57.250
N19080G01Z-3.100F30.0
N19090G01X36.763Y57.350F200.0
N19100X36.663Y57.250
N19110X36.763Y57.150
N19120X36.863Y57.250
N19130G01Z-3.125F30.0
N19140G01X36.763Y57.350F200.0
N19150X36.663Y57.250
N19160X36.763Y57.150
N19170X36.863Y57.250
N19180G01Z-3.150F30.0
N19190G01X36.763Y57.350F200.0
N19200X36.663Y57.250
N19210X36.763Y57.150
N19220X36.863Y57.250
N19230G01Z-3.175F30.0
N19240G01X36.763Y57.350F200.0
N19250X36.663Y57.250
N19260X36.763Y57.150
N19270X36.863Y57.250
N19280G01Z-3.200F30.0
N19290G01X36.763Y57.350F200.0
N19300X36.663Y57.250
N19310X36.763Y57.150
N19320X36.863Y57.250
N19330G00Z6.000
N19340G00X62.019Y83.500
N19350G01Z-0.025F30.0
N19360G01X61.919Y83.600F200.0
N19370X61.819Y83.500
N19380X61.919Y83.400
N19390X62.019Y83.500
N19400G01Z-0.050F30.0
N19410G01X61.919Y83.600F200.0
N19420X61.819Y83.500
N19430X61.919Y83.400
N19440X62.019Y83.500
N19450G01Z-0.075F30.0
N19460G01X61.919Y83.600F200.0
N19470X61.819Y83.500
N19480X61.919Y83.400
N19490X62.019Y83.500
N19500G01Z-0.100F30.0
N19510G01X61.919Y83.600F200.0
N19520X61.819Y83.500
N19530X61.919Y83.400
N19540X62.019Y83.500
N19550G01Z-0.125F30.0
N19560G01X61.919Y83.600F200.0
N19570X61.819Y83.500
N19580X61.919Y83.400
N19590X62.019Y83.500
N19600G01Z-0.150F30.0
N19610G01X61.919Y83.600F200.0
N19620X61.819Y83.500
N19630X61.919Y83.400
N19640X62.019Y83.500
N19650G01Z-0.175F30.0
N19660G01X61.919Y83.600F200.0
N19670X61.819Y83.500
N19680X61.919Y83.400
N19690X62.019Y83.500
N19700G01Z-0.200F30.0
N19710G01X61.919Y83.600F200.0
N19720X61.819Y83.500
N19730X61.919Y83.400
N19740X62.019Y83.500
N19750G01Z-0.225F30.0
N19760G01X61.919Y83.600F200.0
N19770X61.819Y83.500
N19780X61.919Y83.400
N19790X62.019Y83.500
N19800G01Z-0.250F30.0
N19810G01X61.919Y83.600F200.0
N19820X61.819Y83.500
N19830X61.919Y83.400
N19840X62.019Y83.500
N19850G01Z-0.275F30.0
N19860G01X61.919Y83.600F200.0
N19870X61.819Y83.500
N19880X61.919Y83.400
N19890X62.019Y83.500
N19900G01Z-0.300F30.0
N19910G01X61.919Y83.600F200.0
N19920X61.819Y83.500
N19930X61.919Y83.400
N19940X62.019Y83.500
N19950G01Z-0.325F30.0
N19960G01X61.919Y83.600F200.0
N19970X61.819Y83.500
N19980X61.919Y83.400
N19990X62.019Y83.500
N20000G01Z-0.350F30.0
N20010G01X61.919Y83.600F200.0
N20020X61.819Y83.500
N20030X61.919Y83.400
N20040X62.019Y83.500
N20050G01Z-0.375F30.0
N20060G01X61.919Y83.600F200.0
N20070X61.819Y83.500
N20080X61.919Y83.400
N20090X62.019Y83.500
N20100G01Z-0.400F30.0
N20110G01X61.919Y83.600F200.0
N20120X61.819Y83.500
N20130X61.919Y83.400
N20140X62.019Y83.500
N20150G01Z-0.425F30.0
N20160G01X61.919Y83.600F200.0
N20170X61.819Y83.500
N20180X61.919Y83.400
N20190X62.019Y83.500
N20200G01Z-0.450F30.0
N20210G01X61.919Y83.600F200.0
N20220X61.819Y83.500
N20230X61.919Y83.400
N20240X62.019Y83.500
N20250G01Z-0.475F30.0
N20260G01X61.919Y83.600F200.0
N20270X61.819Y83.500
N20280X61.919Y83.400
N20290X62.019Y83.500
N20300G01Z-0.500F30.0
N20310G01X61.919Y83.600F200.0
N20320X61.819Y83.500
N20330X61.919Y83.400
N20340X62.019Y83.500
N20350G01Z-0.525F30.0
N20360G01X61.919Y83.600F200.0
N20370X61.819Y83.500
N20380X61.919Y83.400
N20390X62.019Y83.500
N20400G01Z-0.550F30.0
N20410G01X61.919Y83.600F200.0
N20420X61.819Y83.500
N20430X61.919Y83.400
N20440X62.019Y83.500
N20450G01Z-0.575F30.0
N20460G01X61.919Y83.600F200.0
N20470X61.819Y83.500
N20480X61.919Y83.400
N20490X62.019Y83.500
N20500G01Z-0.600F30.0
N20510G01X61.919Y83.600F200.0
N20520X61.819Y83.500
N20530X61.919Y83.400
N20540X62.019Y83.500
N20550G01Z-0.625F30.0
N20560G01X61.919Y83.600F200.0
N20570X61.819Y83.500
N20580X61.919Y83.400
N20590X62.019Y83.500
N20600G01Z-0.650F30.0
N20610G01X61.919Y83.600F200.0
N20620X61.819Y83.500
N20630X61.919Y83.400
N20640X62.019Y83.500
N20650G01Z-0.675F30.0
N20660G01X61.919Y83.600F200.0
N20670X61.819Y83.500
N20680X61.919Y83.400
N20690X62.019Y83.500
N20700G01Z-0.700F30.0
N20710G01X61.919Y83.600F200.0
N20720X61.819Y83.500
N20730X61.919Y83.400
N20740X62.019Y83.500
N20750G01Z-0.725F30.0
N20760G01X61.919Y83.600F200.0
N20770X61.819Y83.500
N20780X61.919Y83.400
N20790X62.019Y83.500
N20800G01Z-0.750F30.0
N20810G01X61.919Y83.600F200.0
N20820X61.819Y83.500
N20830X61.919Y83.400
N20840X62.019Y83.500
N20850G01Z-0.775F30.0
N20860G01X61.919Y83.600F200.0
N20870X61.819Y83.500
N20880X61.919Y83.400
N20890X62.019Y83.500
N20900G01Z-0.800F30.0
N20910G01X61.919Y83.600F200.0
N20920X61.819Y83.500
N20930X61.919Y83.400
N20940X62.019Y83.500
N20950G01Z-0.825F30.0
N20960G01X61.919Y83.600F200.0
N20970X61.819Y83.500
N20980X61.919Y83.400
N20990X62.019Y83.500
N21000G01Z-0.850F30.0
N21010G01X61.919Y83.600F200.0
N21020X61.819Y83.500
N21030X61.919Y83.400
N21040X62.019Y83.500
N21050G01Z-0.875F30.0
N21060G01X61.919Y83.600F200.0
N21070X61.819Y83.500
N21080X61.919Y83.400
N21090X62.019Y83.500
N21100G01Z-0.900F30.0
N21110G01X61.919Y83.600F200.0
N21120X61.819Y83.500
N21130X61.919Y83.400
N21140X62.019Y83.500
N21150G01Z-0.925F30.0
N21160G01X61.919Y83.600F200.0
N21170X61.819Y83.500
N21180X61.919Y83.400
N21190X62.019Y83.500
N21200G01Z-0.950F30.0
N21210G01X61.919Y83.600F200.0
N21220X61.819Y83.500
N21230X61.919Y83.400
N21240X62.019Y83.500
N21250G01Z-0.975F30.0
N21260G01X61.919Y83.600F200.0
N21270X61.819Y83.500
N21280X61.919Y83.400
N21290X62.019Y83.500
N21300G01Z-1.000F30.0
N21310G01X61.919Y83.600F200.0
N21320X61.819Y83.500
N21330X61.919Y83.400
N21340X62.019Y83.500
N21350G01Z-1.025F30.0
N21360G01X61.919Y83.600F200.0
N21370X61.819Y83.500
N21380X61.919Y83.400
N21390X62.019Y83.500
N21400G01Z-1.050F30.0
N21410G01X61.919Y83.600F200.0
N21420X61.819Y83.500
N21430X61.919Y83.400
N21440X62.019Y83.500
N21450G01Z-1.075F30.0
N21460G01X61.919Y83.600F200.0
N21470X61.819Y83.500
N21480X61.919Y83.400
N21490X62.019Y83.500
N21500G01Z-1.100F30.0
N21510G01X61.919Y83.600F200.0
N21520X61.819Y83.500
N21530X61.919Y83.400
N21540X62.019Y83.500
N21550G01Z-1.125F30.0
N21560G01X61.919Y83.600F200.0
N21570X61.819Y83.500
N21580X61.919Y83.400
N21590X62.019Y83.500
N21600G01Z-1.150F30.0
N21610G01X61.919Y83.600F200.0
N21620X61.819Y83.500
N21630X61.919Y83.400
N21640X62.019Y83.500
N21650G01Z-1.175F30.0
N21660G01X61.919Y83.600F200.0
N21670X61.819Y83.500
N21680X61.919Y83.400
N21690X62.019Y83.500
N21700G01Z-1.200F30.0
N21710G01X61.919Y83.600F200.0
N21720X61.819Y83.500
N21730X61.919Y83.400
N21740X62.019Y83.500
N21750G01Z-1.225F30.0
N21760G01X61.919Y83.600F200.0
N21770X61.819Y83.500
N21780X61.919Y83.400
N21790X62.019Y83.500
N21800G01Z-1.250F30.0
N21810G01X61.919Y83.600F200.0
N21820X61.819Y83.500
N21830X61.919Y83.400
N21840X62.019Y83.500
N21850G01Z-1.275F30.0
N21860G01X61.919Y83.600F200.0
N21870X61.819Y83.500
N21880X61.919Y83.400
N21890X62.019Y83.500
N21900G01Z-1.300F30.0
N21910G01X61.919Y83.600F200.0
N21920X61.819Y83.500
N21930X61.919Y83.400
N21940X62.019Y83.500
N21950G01Z-1.325F30.0
N21960G01X61.919Y83.600F200.0
N21970X61.819Y83.500
N21980X61.919Y83.400
N21990X62.019Y83.500
N22000G01Z-1.350F30.0
N22010G01X61.919Y83.600F200.0
N22020X61.819Y83.500
N22030X61.919Y83.400
N22040X62.019Y83.500
N22050G01Z-1.375F30.0
N22060G01X61.919Y83.600F200.0
N22070X61.819Y83.500
N22080X61.919Y83.400
N22090X62.019Y83.500
N22100G01Z-1.400F30.0
N22110G01X61.919Y83.600F200.0
N22120X61.819Y83.500
N22130X61.919Y83.400
N22140X62.019Y83.500
N22150G01Z-1.425F30.0
N22160G01X61.919Y83.600F200.0
N22170X61.819Y83.500
N22180X61.919Y83.400
N22190X62.019Y83.500
N22200G01Z-1.450F30.0
N22210G01X61.919Y83.600F200.0
N22220X61.819Y83.500
N22230X61.919Y83.400
N22240X62.019Y83.500
N22250G01Z-1.475F30.0
N22260G01X61.919Y83.600F200.0
N22270X61.819Y83.500
N22280X61.919Y83.400
N22290X62.019Y83.500
N22300G01Z-1.500F30.0
N22310G01X61.919Y83.600F200.0
N22320X61.819Y83.500
N22330X61.919Y83.400
N22340X62.019Y83.500
N22350G01Z-1.525F30.0
N22360G01X61.919Y83.600F200.0
N22370X61.819Y83.500
N22380X61.919Y83.400
N22390X62.019Y83.500
N22400G01Z-1.550F30.0
N22410G01X61.919Y83.600F200.0
N22420X61.819Y83.500
N22430X61.919Y83.400
N22440X62.019Y83.500
N22450G01Z-1.575F30.0
N22460G01X61.919Y83.600F200.0
N22470X61.819Y83.500
N22480X61.919Y83.400
N22490X62.019Y83.500
N22500G01Z-1.600F30.0
N22510G01X61.919Y83.600F200.0
N22520X61.819Y83.500
N22530X61.919Y83.400
N22540X62.019Y83.500
N22550G01Z-1.625F30.0
N22560G01X61.919Y83.600F200.0
N22570X61.819Y83.500
N22580X61.919Y83.400
N22590X62.019Y83.500
N22600G01Z-1.650F30.0
N22610G01X61.919Y83.600F200.0
N22620X61.819Y83.500
N22630X61.919Y83.400
N22640X62.019Y83.500
N22650G01Z-1.675F30.0
N22660G01X61.919Y83.600F200.0
N22670X61.819Y83.500
N22680X61.919Y83.400
N22690X62.019Y83.500
N22700G01Z-1.700F30.0
N22710G01X61.919Y83.600F200.0
N22720X61.819Y83.500
N22730X61.919Y83.400
N22740X62.019Y83.500
N22750G01Z-1.725F30.0
N22760G01X61.919Y83.600F200.0
N22770X61.819Y83.500
N22780X61.919Y83.400
N22790X62.019Y83.500
N22800G01Z-1.750F30.0
N22810G01X61.919Y83.600F200.0
N22820X61.819Y83.500
N22830X61.919Y83.400
N22840X62.019Y83.500
N22850G01Z-1.775F30.0
N22860G01X61.919Y83.600F200.0
N22870X61.819Y83.500
N22880X61.919Y83.400
N22890X62.019Y83.500
N22900G01Z-1.800F30.0
N22910G01X61.919Y83.600F200.0
N22920X61.819Y83.500
N22930X61.919Y83.400
N22940X62.019Y83.500
N22950G01Z-1.825F30.0
N22960G01X61.919Y83.600F200.0
N22970X61.819Y83.500
N22980X61.919Y83.400
N22990X62.019Y83.500
N23000G01Z-1.850F30.0
N23010G01X61.919Y83.600F200.0
N23020X61.819Y83.500
N23030X61.919Y83.400
N23040X62.019Y83.500
N23050G01Z-1.875F30.0
N23060G01X61.919Y83.600F200.0
N23070X61.819Y83.500
N23080X61.919Y83.400
N23090X62.019Y83.500
N23100G01Z-1.900F30.0
N23110G01X61.919Y83.600F200.0
N23120X61.819Y83.500
N23130X61.919Y83.400
N23140X62.019Y83.500
N23150G01Z-1.925F30.0
N23160G01X61.919Y83.600F200.0
N23170X61.819Y83.500
N23180X61.919Y83.400
N23190X62.019Y83.500
N23200G01Z-1.950F30.0
N23210G01X61.919Y83.600F200.0
N23220X61.819Y83.500
N23230X61.919Y83.400
N23240X62.019Y83.500
N23250G01Z-1.975F30.0
N23260G01X61.919Y83.600F200.0
N23270X61.819Y83.500
N23280X61.919Y83.400
N23290X62.019Y83.500
N23300G01Z-2.000F30.0
N23310G01X61.919Y83.600F200.0
N23320X61.819Y83.500
N23330X61.919Y83.400
N23340X62.019Y83.500
N23350G01Z-2.025F30.0
N23360G01X61.919Y83.600F200.0
N23370X61.819Y83.500
N23380X61.919Y83.400
N23390X62.019Y83.500
N23400G01Z-2.050F30.0
N23410G01X61.919Y83.600F200.0
N23420X61.819Y83.500
N23430X61.919Y83.400
N23440X62.019Y83.500
N23450G01Z-2.075F30.0
N23460G01X61.919Y83.600F200.0
N23470X61.819Y83.500
N23480X61.919Y83.400
N23490X62.019Y83.500
N23500G01Z-2.100F30.0
N23510G01X61.919Y83.600F200.0
N23520X61.819Y83.500
N23530X61.919Y83.400
N23540X62.019Y83.500
N23550G01Z-2.125F30.0
N23560G01X61.919Y83.600F200.0
N23570X61.819Y83.500
N23580X61.919Y83.400
N23590X62.019Y83.500
N23600G01Z-2.150F30.0
N23610G01X61.919Y83.600F200.0
N23620X61.819Y83.500
N23630X61.919Y83.400
N23640X62.019Y83.500
N23650G01Z-2.175F30.0
N23660G01X61.919Y83.600F200.0
N23670X61.819Y83.500
N23680X61.919Y83.400
N23690X62.019Y83.500
N23700G01Z-2.200F30.0
N23710G01X61.919Y83.600F200.0
N23720X61.819Y83.500
N23730X61.919Y83.400
N23740X62.019Y83.500
N23750G01Z-2.225F30.0
N23760G01X61.919Y83.600F200.0
N23770X61.819Y83.500
N23780X61.919Y83.400
N23790X62.019Y83.500
N23800G01Z-2.250F30.0
N23810G01X61.919Y83.600F200.0
N23820X61.819Y83.500
N23830X61.919Y83.400
N23840X62.019Y83.500
N23850G01Z-2.275F30.0
N23860G01X61.919Y83.600F200.0
N23870X61.819Y83.500
N23880X61.919Y83.400
N23890X62.019Y83.500
N23900G01Z-2.300F30.0
N23910G01X61.919Y83.600F200.0
N23920X61.819Y83.500
N23930X61.919Y83.400
N23940X62.019Y83.500
N23950G01Z-2.325F30.0
N23960G01X61.919Y83.600F200.0
N23970X61.819Y83.500
N23980X61.919Y83.400
N23990X62.019Y83.500
N24000G01Z-2.350F30.0
N24010G01X61.919Y83.600F200.0
N24020X61.819Y83.500
N24030X61.919Y83.400
N24040X62.019Y83.500
N24050G01Z-2.375F30.0
N24060G01X61.919Y83.600F200.0
N24070X61.819Y83.500
N24080X61.919Y83.400
N24090X62.019Y83.500
N24100G01Z-2.400F30.0
N24110G01X61.919Y83.600F200.0
N24120X61.819Y83.500
N24130X61.919Y83.400
N24140X62.019Y83.500
N24150G01Z-2.425F30.0
N24160G01X61.919Y83.600F200.0
N24170X61.819Y83.500
N24180X61.919Y83.400
N24190X62.019Y83.500
N24200G01Z-2.450F30.0
N24210G01X61.919Y83.600F200.0
N24220X61.819Y83.500
N24230X61.919Y83.400
N24240X62.019Y83.500
N24250G01Z-2.475F30.0
N24260G01X61.919Y83.600F200.0
N24270X61.819Y83.500
N24280X61.919Y83.400
N24290X62.019Y83.500
N24300G01Z-2.500F30.0
N24310G01X61.919Y83.600F200.0
N24320X61.819Y83.500
N24330X61.919Y83.400
N24340X62.019Y83.500
N24350G01Z-2.525F30.0
N24360G01X61.919Y83.600F200.0
N24370X61.819Y83.500
N24380X61.919Y83.400
N24390X62.019Y83.500
N24400G01Z-2.550F30.0
N24410G01X61.919Y83.600F200.0
N24420X61.819Y83.500
N24430X61.919Y83.400
N24440X62.019Y83.500
N24450G01Z-2.575F30.0
N24460G01X61.919Y83.600F200.0
N24470X61.819Y83.500
N24480X61.919Y83.400
N24490X62.019Y83.500
N24500G01Z-2.600F30.0
N24510G01X61.919Y83.600F200.0
N24520X61.819Y83.500
N24530X61.919Y83.400
N24540X62.019Y83.500
N24550G01Z-2.625F30.0
N24560G01X61.919Y83.600F200.0
N24570X61.819Y83.500
N24580X61.919Y83.400
N24590X62.019Y83.500
N24600G01Z-2.650F30.0
N24610G01X61.919Y83.600F200.0
N24620X61.819Y83.500
N24630X61.919Y83.400
N24640X62.019Y83.500
N24650G01Z-2.675F30.0
N24660G01X61.919Y83.600F200.0
N24670X61.819Y83.500
N24680X61.919Y83.400
N24690X62.019Y83.500
N24700G01Z-2.700F30.0
N24710G01X61.919Y83.600F200.0
N24720X61.819Y83.500
N24730X61.919Y83.400
N24740X62.019Y83.500
N24750G01Z-2.725F30.0
N24760G01X61.919Y83.600F200.0
N24770X61.819Y83.500
N24780X61.919Y83.400
N24790X62.019Y83.500
N24800G01Z-2.750F30.0
N24810G01X61.919Y83.600F200.0
N24820X61.819Y83.500
N24830X61.919Y83.400
N24840X62.019Y83.500
N24850G01Z-2.775F30.0
N24860G01X61.919Y83.600F200.0
N24870X61.819Y83.500
N24880X61.919Y83.400
N24890X62.019Y83.500
N24900G01Z-2.800F30.0
N24910G01X61.919Y83.600F200.0
N24920X61.819Y83.500
N24930X61.919Y83.400
N24940X62.019Y83.500
N24950G01Z-2.825F30.0
N24960G01X61.919Y83.600F200.0
N24970X61.819Y83.500
N24980X61.919Y83.400
N24990X62.019Y83.500
N25000G01Z-2.850F30.0
N25010G01X61.919Y83.600F200.0
N25020X61.819Y83.500
N25030X61.919Y83.400
N25040X62.019Y83.500
N25050G01Z-2.875F30.0
N25060G01X61.919Y83.600F200.0
N25070X61.819Y83.500
N25080X61.919Y83.400
N25090X62.019Y83.500
N25100G01Z-2.900F30.0
N25110G01X61.919Y83.600F200.0
N25120X61.819Y83.500
N25130X61.919Y83.400
N25140X62.019Y83.500
N25150G01Z-2.925F30.0
N25160G01X61.919Y83.600F200.0
N25170X61.819Y83.500
N25180X61.919Y83.400
N25190X62.019Y83.500
N25200G01Z-2.950F30.0
N25210G01X61.919Y83.600F200.0
N25220X61.819Y83.500
N25230X61.919Y83.400
N25240X62.019Y83.500
N25250G01Z-2.975F30.0
N25260G01X61.919Y83.600F200.0
N25270X61.819Y83.500
N25280X61.919Y83.400
N25290X62.019Y83.500
N25300G01Z-3.000F30.0
N25310G01X61.919Y83.600F200.0
N25320X61.819Y83.500
N25330X61.919Y83.400
N25340X62.019Y83.500
N25350G01Z-3.025F30.0
N25360G01X61.919Y83.600F200.0
N25370X61.819Y83.500
N25380X61.919Y83.400
N25390X62.019Y83.500
N25400G01Z-3.050F30.0
N25410G01X61.919Y83.600F200.0
N25420X61.819Y83.500
N25430X61.919Y83.400
N25440X62.019Y83.500
N25450G01Z-3.075F30.0
N25460G01X61.919Y83.600F200.0
N25470X61.819Y83.500
N25480X61.919Y83.400
N25490X62.019Y83.500
N25500G01Z-3.100F30.0
N25510G01X61.919Y83.600F200.0
N25520X61.819Y83.500
N25530X61.919Y83.400
N25540X62.019Y83.500
N25550G01Z-3.125F30.0
N25560G01X61.919Y83.600F200.0
N25570X61.819Y83.500
N25580X61.919Y83.400
N25590X62.019Y83.500
N25600G01Z-3.150F30.0
N25610G01X61.919Y83.600F200.0
N25620X61.819Y83.500
N25630X61.919Y83.400
N25640X62.019Y83.500
N25650G01Z-3.175F30.0
N25660G01X61.919Y83.600F200.0
N25670X61.819Y83.500
N25680X61.919Y83.400
N25690X62.019Y83.500
N25700G01Z-3.200F30.0
N25710G01X61.919Y83.600F200.0
N25720X61.819Y83.500
N25730X61.919Y83.400
N25740X62.019Y83.500
N25750G00Z6.000
N25760G00X72.019
N25770G01Z-0.025F30.0
N25780G01X71.919Y83.600F200.0
N25790X71.819Y83.500
N25800X71.919Y83.400
N25810X72.019Y83.500
N25820G01Z-0.050F30.0
N25830G01X71.919Y83.600F200.0
N25840X71.819Y83.500
N25850X71.919Y83.400
N25860X72.019Y83.500
N25870G01Z-0.075F30.0
N25880G01X71.919Y83.600F200.0
N25890X71.819Y83.500
N25900X71.919Y83.400
N25910X72.019Y83.500
N25920G01Z-0.100F30.0
N25930G01X71.919Y83.600F200.0
N25940X71.819Y83.500
N25950X71.919Y83.400
N25960X72.019Y83.500
N25970G01Z-0.125F30.0
N25980G01X71.919Y83.600F200.0
N25990X71.819Y83.500
N26000X71.919Y83.400
N26010X72.019Y83.500
N26020G01Z-0.150F30.0
N26030G01X71.919Y83.600F200.0
N26040X71.819Y83.500
N26050X71.919Y83.400
N26060X72.019Y83.500
N26070G01Z-0.175F30.0
N26080G01X71.919Y83.600F200.0
N26090X71.819Y83.500
N26100X71.919Y83.400
N26110X72.019Y83.500
N26120G01Z-0.200F30.0
N26130G01X71.919Y83.600F200.0
N26140X71.819Y83.500
N26150X71.919Y83.400
N26160X72.019Y83.500
N26170G01Z-0.225F30.0
N26180G01X71.919Y83.600F200.0
N26190X71.819Y83.500
N26200X71.919Y83.400
N26210X72.019Y83.500
N26220G01Z-0.250F30.0
N26230G01X71.919Y83.600F200.0
N26240X71.819Y83.500
N26250X71.919Y83.400
N26260X72.019Y83.500
N26270G01Z-0.275F30.0
N26280G01X71.919Y83.600F200.0
N26290X71.819Y83.500
N26300X71.919Y83.400
N26310X72.019Y83.500
N26320G01Z-0.300F30.0
N26330G01X71.919Y83.600F200.0
N26340X71.819Y83.500
N26350X71.919Y83.400
N26360X72.019Y83.500
N26370G01Z-0.325F30.0
N26380G01X71.919Y83.600F200.0
N26390X71.819Y83.500
N26400X71.919Y83.400
N26410X72.019Y83.500
N26420G01Z-0.350F30.0
N26430G01X71.919Y83.600F200.0
N26440X71.819Y83.500
N26450X71.919Y83.400
N26460X72.019Y83.500
N26470G01Z-0.375F30.0
N26480G01X71.919Y83.600F200.0
N26490X71.819Y83.500
N26500X71.919Y83.400
N26510X72.019Y83.500
N26520G01Z-0.400F30.0
N26530G01X71.919Y83.600F200.0
N26540X71.819Y83.500
N26550X71.919Y83.400
N26560X72.019Y83.500
N26570G01Z-0.425F30.0
N26580G01X71.919Y83.600F200.0
N26590X71.819Y83.500
N26600X71.919Y83.400
N26610X72.019Y83.500
N26620G01Z-0.450F30.0
N26630G01X71.919Y83.600F200.0
N26640X71.819Y83.500
N26650X71.919Y83.400
N26660X72.019Y83.500
N26670G01Z-0.475F30.0
N26680G01X71.919Y83.600F200.0
N26690X71.819Y83.500
N26700X71.919Y83.400
N26710X72.019Y83.500
N26720G01Z-0.500F30.0
N26730G01X71.919Y83.600F200.0
N26740X71.819Y83.500
N26750X71.919Y83.400
N26760X72.019Y83.500
N26770G01Z-0.525F30.0
N26780G01X71.919Y83.600F200.0
N26790X71.819Y83.500
N26800X71.919Y83.400
N26810X72.019Y83.500
N26820G01Z-0.550F30.0
N26830G01X71.919Y83.600F200.0
N26840X71.819Y83.500
N26850X71.919Y83.400
N26860X72.019Y83.500
N26870G01Z-0.575F30.0
N26880G01X71.919Y83.600F200.0
N26890X71.819Y83.500
N26900X71.919Y83.400
N26910X72.019Y83.500
N26920G01Z-0.600F30.0
N26930G01X71.919Y83.600F200.0
N26940X71.819Y83.500
N26950X71.919Y83.400
N26960X72.019Y83.500
N26970G01Z-0.625F30.0
N26980G01X71.919Y83.600F200.0
N26990X71.819Y83.500
N27000X71.919Y83.400
N27010X72.019Y83.500
N27020G01Z-0.650F30.0
N27030G01X71.919Y83.600F200.0
N27040X71.819Y83.500
N27050X71.919Y83.400
N27060X72.019Y83.500
N27070G01Z-0.675F30.0
N27080G01X71.919Y83.600F200.0
N27090X71.819Y83.500
N27100X71.919Y83.400
N27110X72.019Y83.500
N27120G01Z-0.700F30.0
N27130G01X71.919Y83.600F200.0
N27140X71.819Y83.500
N27150X71.919Y83.400
N27160X72.019Y83.500
N27170G01Z-0.725F30.0
N27180G01X71.919Y83.600F200.0
N27190X71.819Y83.500
N27200X71.919Y83.400
N27210X72.019Y83.500
N27220G01Z-0.750F30.0
N27230G01X71.919Y83.600F200.0
N27240X71.819Y83.500
N27250X71.919Y83.400
N27260X72.019Y83.500
N27270G01Z-0.775F30.0
N27280G01X71.919Y83.600F200.0
N27290X71.819Y83.500
N27300X71.919Y83.400
N27310X72.019Y83.500
N27320G01Z-0.800F30.0
N27330G01X71.919Y83.600F200.0
N27340X71.819Y83.500
N27350X71.919Y83.400
N27360X72.019Y83.500
N27370G01Z-0.825F30.0
N27380G01X71.919Y83.600F200.0
N27390X71.819Y83.500
N27400X71.919Y83.400
N27410X72.019Y83.500
N27420G01Z-0.850F30.0
N27430G01X71.919Y83.600F200.0
N27440X71.819Y83.500
N27450X71.919Y83.400
N27460X72.019Y83.500
N27470G01Z-0.875F30.0
N27480G01X71.919Y83.600F200.0
N27490X71.819Y83.500
N27500X71.919Y83.400
N27510X72.019Y83.500
N27520G01Z-0.900F30.0
N27530G01X71.919Y83.600F200.0
N27540X71.819Y83.500
N27550X71.919Y83.400
N27560X72.019Y83.500
N27570G01Z-0.925F30.0
N27580G01X71.919Y83.600F200.0
N27590X71.819Y83.500
N27600X71.919Y83.400
N27610X72.019Y83.500
N27620G01Z-0.950F30.0
N27630G01X71.919Y83.600F200.0
N27640X71.819Y83.500
N27650X71.919Y83.400
N27660X72.019Y83.500
N27670G01Z-0.975F30.0
N27680G01X71.919Y83.600F200.0
N27690X71.819Y83.500
N27700X71.919Y83.400
N27710X72.019Y83.500
N27720G01Z-1.000F30.0
N27730G01X71.919Y83.600F200.0
N27740X71.819Y83.500
N27750X71.919Y83.400
N27760X72.019Y83.500
N27770G01Z-1.025F30.0
N27780G01X71.919Y83.600F200.0
N27790X71.819Y83.500
N27800X71.919Y83.400
N27810X72.019Y83.500
N27820G01Z-1.050F30.0
N27830G01X71.919Y83.600F200.0
N27840X71.819Y83.500
N27850X71.919Y83.400
N27860X72.019Y83.500
N27870G01Z-1.075F30.0
N27880G01X71.919Y83.600F200.0
N27890X71.819Y83.500
N27900X71.919Y83.400
N27910X72.019Y83.500
N27920G01Z-1.100F30.0
N27930G01X71.919Y83.600F200.0
N27940X71.819Y83.500
N27950X71.919Y83.400
N27960X72.019Y83.500
N27970G01Z-1.125F30.0
N27980G01X71.919Y83.600F200.0
N27990X71.819Y83.500
N28000X71.919Y83.400
N28010X72.019Y83.500
N28020G01Z-1.150F30.0
N28030G01X71.919Y83.600F200.0
N28040X71.819Y83.500
N28050X71.919Y83.400
N28060X72.019Y83.500
N28070G01Z-1.175F30.0
N28080G01X71.919Y83.600F200.0
N28090X71.819Y83.500
N28100X71.919Y83.400
N28110X72.019Y83.500
N28120G01Z-1.200F30.0
N28130G01X71.919Y83.600F200.0
N28140X71.819Y83.500
N28150X71.919Y83.400
N28160X72.019Y83.500
N28170G01Z-1.225F30.0
N28180G01X71.919Y83.600F200.0
N28190X71.819Y83.500
N28200X71.919Y83.400
N28210X72.019Y83.500
N28220G01Z-1.250F30.0
N28230G01X71.919Y83.600F200.0
N28240X71.819Y83.500
N28250X71.919Y83.400
N28260X72.019Y83.500
N28270G01Z-1.275F30.0
N28280G01X71.919Y83.600F200.0
N28290X71.819Y83.500
N28300X71.919Y83.400
N28310X72.019Y83.500
N28320G01Z-1.300F30.0
N28330G01X71.919Y83.600F200.0
N28340X71.819Y83.500
N28350X71.919Y83.400
N28360X72.019Y83.500
N28370G01Z-1.325F30.0
N28380G01X71.919Y83.600F200.0
N28390X71.819Y83.500
N28400X71.919Y83.400
N28410X72.019Y83.500
N28420G01Z-1.350F30.0
N28430G01X71.919Y83.600F200.0
N28440X71.819Y83.500
N28450X71.919Y83.400
N28460X72.019Y83.500
N28470G01Z-1.375F30.0
N28480G01X71.919Y83.600F200.0
N28490X71.819Y83.500
N28500X71.919Y83.400
N28510X72.019Y83.500
N28520G01Z-1.400F30.0
N28530G01X71.919Y83.600F200.0
N28540X71.819Y83.500
N28550X71.919Y83.400
N28560X72.019Y83.500
N28570G01Z-1.425F30.0
N28580G01X71.919Y83.600F200.0
N28590X71.819Y83.500
N28600X71.919Y83.400
N28610X72.019Y83.500
N28620G01Z-1.450F30.0
N28630G01X71.919Y83.600F200.0
N28640X71.819Y83.500
N28650X71.919Y83.400
N28660X72.019Y83.500
N28670G01Z-1.475F30.0
N28680G01X71.919Y83.600F200.0
N28690X71.819Y83.500
N28700X71.919Y83.400
N28710X72.019Y83.500
N28720G01Z-1.500F30.0
N28730G01X71.919Y83.600F200.0
N28740X71.819Y83.500
N28750X71.919Y83.400
N28760X72.019Y83.500
N28770G01Z-1.525F30.0
N28780G01X71.919Y83.600F200.0
N28790X71.819Y83.500
N28800X71.919Y83.400
N28810X72.019Y83.500
N28820G01Z-1.550F30.0
N28830G01X71.919Y83.600F200.0
N28840X71.819Y83.500
N28850X71.919Y83.400
N28860X72.019Y83.500
N28870G01Z-1.575F30.0
N28880G01X71.919Y83.600F200.0
N28890X71.819Y83.500
N28900X71.919Y83.400
N28910X72.019Y83.500
N28920G01Z-1.600F30.0
N28930G01X71.919Y83.600F200.0
N28940X71.819Y83.500
N28950X71.919Y83.400
N28960X72.019Y83.500
N28970G01Z-1.625F30.0
N28980G01X71.919Y83.600F200.0
N28990X71.819Y83.500
N29000X71.919Y83.400
N29010X72.019Y83.500
N29020G01Z-1.650F30.0
N29030G01X71.919Y83.600F200.0
N29040X71.819Y83.500
N29050X71.919Y83.400
N29060X72.019Y83.500
N29070G01Z-1.675F30.0
N29080G01X71.919Y83.600F200.0
N29090X71.819Y83.500
N29100X71.919Y83.400
N29110X72.019Y83.500
N29120G01Z-1.700F30.0
N29130G01X71.919Y83.600F200.0
N29140X71.819Y83.500
N29150X71.919Y83.400
N29160X72.019Y83.500
N29170G01Z-1.725F30.0
N29180G01X71.919Y83.600F200.0
N29190X71.819Y83.500
N29200X71.919Y83.400
N29210X72.019Y83.500
N29220G01Z-1.750F30.0
N29230G01X71.919Y83.600F200.0
N29240X71.819Y83.500
N29250X71.919Y83.400
N29260X72.019Y83.500
N29270G01Z-1.775F30.0
N29280G01X71.919Y83.600F200.0
N29290X71.819Y83.500
N29300X71.919Y83.400
N29310X72.019Y83.500
N29320G01Z-1.800F30.0
N29330G01X71.919Y83.600F200.0
N29340X71.819Y83.500
N29350X71.919Y83.400
N29360X72.019Y83.500
N29370G01Z-1.825F30.0
N29380G01X71.919Y83.600F200.0
N29390X71.819Y83.500
N29400X71.919Y83.400
N29410X72.019Y83.500
N29420G01Z-1.850F30.0
N29430G01X71.919Y83.600F200.0
N29440X71.819Y83.500
N29450X71.919Y83.400
N29460X72.019Y83.500
N29470G01Z-1.875F30.0
N29480G01X71.919Y83.600F200.0
N29490X71.819Y83.500
N29500X71.919Y83.400
N29510X72.019Y83.500
N29520G01Z-1.900F30.0
N29530G01X71.919Y83.600F200.0
N29540X71.819Y83.500
N29550X71.919Y83.400
N29560X72.019Y83.500
N29570G01Z-1.925F30.0
N29580G01X71.919Y83.600F200.0
N29590X71.819Y83.500
N29600X71.919Y83.400
N29610X72.019Y83.500
N29620G01Z-1.950F30.0
N29630G01X71.919Y83.600F200.0
N29640X71.819Y83.500
N29650X71.919Y83.400
N29660X72.019Y83.500
N29670G01Z-1.975F30.0
N29680G01X71.919Y83.600F200.0
N29690X71.819Y83.500
N29700X71.919Y83.400
N29710X72.019Y83.500
N29720G01Z-2.000F30.0
N29730G01X71.919Y83.600F200.0
N29740X71.819Y83.500
N29750X71.919Y83.400
N29760X72.019Y83.500
N29770G01Z-2.025F30.0
N29780G01X71.919Y83.600F200.0
N29790X71.819Y83.500
N29800X71.919Y83.400
N29810X72.019Y83.500
N29820G01Z-2.050F30.0
N29830G01X71.919Y83.600F200.0
N29840X71.819Y83.500
N29850X71.919Y83.400
N29860X72.019Y83.500
N29870G01Z-2.075F30.0
N29880G01X71.919Y83.600F200.0
N29890X71.819Y83.500
N29900X71.919Y83.400
N29910X72.019Y83.500
N29920G01Z-2.100F30.0
N29930G01X71.919Y83.600F200.0
N29940X71.819Y83.500
N29950X71.919Y83.400
N29960X72.019Y83.500
N29970G01Z-2.125F30.0
N29980G01X71.919Y83.600F200.0
N29990X71.819Y83.500
N30000X71.919Y83.400
N30010X72.019Y83.500
N30020G01Z-2.150F30.0
N30030G01X71.919Y83.600F200.0
N30040X71.819Y83.500
N30050X71.919Y83.400
N30060X72.019Y83.500
N30070G01Z-2.175F30.0
N30080G01X71.919Y83.600F200.0
N30090X71.819Y83.500
N30100X71.919Y83.400
N30110X72.019Y83.500
N30120G01Z-2.200F30.0
N30130G01X71.919Y83.600F200.0
N30140X71.819Y83.500
N30150X71.919Y83.400
N30160X72.019Y83.500
N30170G01Z-2.225F30.0
N30180G01X71.919Y83.600F200.0
N30190X71.819Y83.500
N30200X71.919Y83.400
N30210X72.019Y83.500
N30220G01Z-2.250F30.0
N30230G01X71.919Y83.600F200.0
N30240X71.819Y83.500
N30250X71.919Y83.400
N30260X72.019Y83.500
N30270G01Z-2.275F30.0
N30280G01X71.919Y83.600F200.0
N30290X71.819Y83.500
N30300X71.919Y83.400
N30310X72.019Y83.500
N30320G01Z-2.300F30.0
N30330G01X71.919Y83.600F200.0
N30340X71.819Y83.500
N30350X71.919Y83.400
N30360X72.019Y83.500
N30370G01Z-2.325F30.0
N30380G01X71.919Y83.600F200.0
N30390X71.819Y83.500
N30400X71.919Y83.400
N30410X72.019Y83.500
N30420G01Z-2.350F30.0
N30430G01X71.919Y83.600F200.0
N30440X71.819Y83.500
N30450X71.919Y83.400
N30460X72.019Y83.500
N30470G01Z-2.375F30.0
N30480G01X71.919Y83.600F200.0
N30490X71.819Y83.500
N30500X71.919Y83.400
N30510X72.019Y83.500
N30520G01Z-2.400F30.0
N30530G01X71.919Y83.600F200.0
N30540X71.819Y83.500
N30550X71.919Y83.400
N30560X72.019Y83.500
N30570G01Z-2.425F30.0
N30580G01X71.919Y83.600F200.0
N30590X71.819Y83.500
N30600X71.919Y83.400
N30610X72.019Y83.500
N30620G01Z-2.450F30.0
N30630G01X71.919Y83.600F200.0
N30640X71.819Y83.500
N30650X71.919Y83.400
N30660X72.019Y83.500
N30670G01Z-2.475F30.0
N30680G01X71.919Y83.600F200.0
N30690X71.819Y83.500
N30700X71.919Y83.400
N30710X72.019Y83.500
N30720G01Z-2.500F30.0
N30730G01X71.919Y83.600F200.0
N30740X71.819Y83.500
N30750X71.919Y83.400
N30760X72.019Y83.500
N30770G01Z-2.525F30.0
N30780G01X71.919Y83.600F200.0
N30790X71.819Y83.500
N30800X71.919Y83.400
N30810X72.019Y83.500
N30820G01Z-2.550F30.0
N30830G01X71.919Y83.600F200.0
N30840X71.819Y83.500
N30850X71.919Y83.400
N30860X72.019Y83.500
N30870G01Z-2.575F30.0
N30880G01X71.919Y83.600F200.0
N30890X71.819Y83.500
N30900X71.919Y83.400
N30910X72.019Y83.500
N30920G01Z-2.600F30.0
N30930G01X71.919Y83.600F200.0
N30940X71.819Y83.500
N30950X71.919Y83.400
N30960X72.019Y83.500
N30970G01Z-2.625F30.0
N30980G01X71.919Y83.600F200.0
N30990X71.819Y83.500
N31000X71.919Y83.400
N31010X72.019Y83.500
N31020G01Z-2.650F30.0
N31030G01X71.919Y83.600F200.0
N31040X71.819Y83.500
N31050X71.919Y83.400
N31060X72.019Y83.500
N31070G01Z-2.675F30.0
N31080G01X71.919Y83.600F200.0
N31090X71.819Y83.500
N31100X71.919Y83.400
N31110X72.019Y83.500
N31120G01Z-2.700F30.0
N31130G01X71.919Y83.600F200.0
N31140X71.819Y83.500
N31150X71.919Y83.400
N31160X72.019Y83.500
N31170G01Z-2.725F30.0
N31180G01X71.919Y83.600F200.0
N31190X71.819Y83.500
N31200X71.919Y83.400
N31210X72.019Y83.500
N31220G01Z-2.750F30.0
N31230G01X71.919Y83.600F200.0
N31240X71.819Y83.500
N31250X71.919Y83.400
N31260X72.019Y83.500
N31270G01Z-2.775F30.0
N31280G01X71.919Y83.600F200.0
N31290X71.819Y83.500
N31300X71.919Y83.400
N31310X72.019Y83.500
N31320G01Z-2.800F30.0
N31330G01X71.919Y83.600F200.0
N31340X71.819Y83.500
N31350X71.919Y83.400
N31360X72.019Y83.500
N31370G01Z-2.825F30.0
N31380G01X71.919Y83.600F200.0
N31390X71.819Y83.500
N31400X71.919Y83.400
N31410X72.019Y83.500
N31420G01Z-2.850F30.0
N31430G01X71.919Y83.600F200.0
N31440X71.819Y83.500
N31450X71.919Y83.400
N31460X72.019Y83.500
N31470G01Z-2.875F30.0
N31480G01X71.919Y83.600F200.0
N31490X71.819Y83.500
N31500X71.919Y83.400
N31510X72.019Y83.500
N31520G01Z-2.900F30.0
N31530G01X71.919Y83.600F200.0
N31540X71.819Y83.500
N31550X71.919Y83.400
N31560X72.019Y83.500
N31570G01Z-2.925F30.0
N31580G01X71.919Y83.600F200.0
N31590X71.819Y83.500
N31600X71.919Y83.400
N31610X72.019Y83.500
N31620G01Z-2.950F30.0
N31630G01X71.919Y83.600F200.0
N31640X71.819Y83.500
N31650X71.919Y83.400
N31660X72.019Y83.500
N31670G01Z-2.975F30.0
N31680G01X71.919Y83.600F200.0
N31690X71.819Y83.500
N31700X71.919Y83.400
N31710X72.019Y83.500
N31720G01Z-3.000F30.0
N31730G01X71.919Y83.600F200.0
N31740X71.819Y83.500
N31750X71.919Y83.400
N31760X72.019Y83.500
N31770G01Z-3.025F30.0
N31780G01X71.919Y83.600F200.0
N31790X71.819Y83.500
N31800X71.919Y83.400
N31810X72.019Y83.500
N31820G01Z-3.050F30.0
N31830G01X71.919Y83.600F200.0
N31840X71.819Y83.500
N31850X71.919Y83.400
N31860X72.019Y83.500
N31870G01Z-3.075F30.0
N31880G01X71.919Y83.600F200.0
N31890X71.819Y83.500
N31900X71.919Y83.400
N31910X72.019Y83.500
N31920G01Z-3.100F30.0
N31930G01X71.919Y83.600F200.0
N31940X71.819Y83.500
N31950X71.919Y83.400
N31960X72.019Y83.500
N31970G01Z-3.125F30.0
N31980G01X71.919Y83.600F200.0
N31990X71.819Y83.500
N32000X71.919Y83.400
N32010X72.019Y83.500
N32020G01Z-3.150F30.0
N32030G01X71.919Y83.600F200.0
N32040X71.819Y83.500
N32050X71.919Y83.400
N32060X72.019Y83.500
N32070G01Z-3.175F30.0
N32080G01X71.919Y83.600F200.0
N32090X71.819Y83.500
N32100X71.919Y83.400
N32110X72.019Y83.500
N32120G01Z-3.200F30.0
N32130G01X71.919Y83.600F200.0
N32140X71.819Y83.500
N32150X71.919Y83.400
N32160X72.019Y83.500
N32170G00Z6.000
N32180G00X71.119Y106.500
N32190G01Z-0.025F30.0
N32200G01X71.019Y106.600F200.0
N32210X70.919Y106.500
N32220X71.019Y106.400
N32230X71.119Y106.500
N32240G01Z-0.050F30.0
N32250G01X71.019Y106.600F200.0
N32260X70.919Y106.500
N32270X71.019Y106.400
N32280X71.119Y106.500
N32290G01Z-0.075F30.0
N32300G01X71.019Y106.600F200.0
N32310X70.919Y106.500
N32320X71.019Y106.400
N32330X71.119Y106.500
N32340G01Z-0.100F30.0
N32350G01X71.019Y106.600F200.0
N32360X70.919Y106.500
N32370X71.019Y106.400
N32380X71.119Y106.500
N32390G01Z-0.125F30.0
N32400G01X71.019Y106.600F200.0
N32410X70.919Y106.500
N32420X71.019Y106.400
N32430X71.119Y106.500
N32440G01Z-0.150F30.0
N32450G01X71.019Y106.600F200.0
N32460X70.919Y106.500
N32470X71.019Y106.400
N32480X71.119Y106.500
N32490G01Z-0.175F30.0
N32500G01X71.019Y106.600F200.0
N32510X70.919Y106.500
N32520X71.019Y106.400
N32530X71.119Y106.500
N32540G01Z-0.200F30.0
N32550G01X71.019Y106.600F200.0
N32560X70.919Y106.500
N32570X71.019Y106.400
N32580X71.119Y106.500
N32590G01Z-0.225F30.0
N32600G01X71.019Y106.600F200.0
N32610X70.919Y106.500
N32620X71.019Y106.400
N32630X71.119Y106.500
N32640G01Z-0.250F30.0
N32650G01X71.019Y106.600F200.0
N32660X70.919Y106.500
N32670X71.019Y106.400
N32680X71.119Y106.500
N32690G01Z-0.275F30.0
N32700G01X71.019Y106.600F200.0
N32710X70.919Y106.500
N32720X71.019Y106.400
N32730X71.119Y106.500
N32740G01Z-0.300F30.0
N32750G01X71.019Y106.600F200.0
N32760X70.919Y106.500
N32770X71.019Y106.400
N32780X71.119Y106.500
N32790G01Z-0.325F30.0
N32800G01X71.019Y106.600F200.0
N32810X70.919Y106.500
N32820X71.019Y106.400
N32830X71.119Y106.500
N32840G01Z-0.350F30.0
N32850G01X71.019Y106.600F200.0
N32860X70.919Y106.500
N32870X71.019Y106.400
N32880X71.119Y106.500
N32890G01Z-0.375F30.0
N32900G01X71.019Y106.600F200.0
N32910X70.919Y106.500
N32920X71.019Y106.400
N32930X71.119Y106.500
N32940G01Z-0.400F30.0
N32950G01X71.019Y106.600F200.0
N32960X70.919Y106.500
N32970X71.019Y106.400
N32980X71.119Y106.500
N32990G01Z-0.425F30.0
N33000G01X71.019Y106.600F200.0
N33010X70.919Y106.500
N33020X71.019Y106.400
N33030X71.119Y106.500
N33040G01Z-0.450F30.0
N33050G01X71.019Y106.600F200.0
N33060X70.919Y106.500
N33070X71.019Y106.400
N33080X71.119Y106.500
N33090G01Z-0.475F30.0
N33100G01X71.019Y106.600F200.0
N33110X70.919Y106.500
N33120X71.019Y106.400
N33130X71.119Y106.500
N33140G01Z-0.500F30.0
N33150G01X71.019Y106.600F200.0
N33160X70.919Y106.500
N33170X71.019Y106.400
N33180X71.119Y106.500
N33190G01Z-0.525F30.0
N33200G01X71.019Y106.600F200.0
N33210X70.919Y106.500
N33220X71.019Y106.400
N33230X71.119Y106.500
N33240G01Z-0.550F30.0
N33250G01X71.019Y106.600F200.0
N33260X70.919Y106.500
N33270X71.019Y106.400
N33280X71.119Y106.500
N33290G01Z-0.575F30.0
N33300G01X71.019Y106.600F200.0
N33310X70.919Y106.500
N33320X71.019Y106.400
N33330X71.119Y106.500
N33340G01Z-0.600F30.0
N33350G01X71.019Y106.600F200.0
N33360X70.919Y106.500
N33370X71.019Y106.400
N33380X71.119Y106.500
N33390G01Z-0.625F30.0
N33400G01X71.019Y106.600F200.0
N33410X70.919Y106.500
N33420X71.019Y106.400
N33430X71.119Y106.500
N33440G01Z-0.650F30.0
N33450G01X71.019Y106.600F200.0
N33460X70.919Y106.500
N33470X71.019Y106.400
N33480X71.119Y106.500
N33490G01Z-0.675F30.0
N33500G01X71.019Y106.600F200.0
N33510X70.919Y106.500
N33520X71.019Y106.400
N33530X71.119Y106.500
N33540G01Z-0.700F30.0
N33550G01X71.019Y106.600F200.0
N33560X70.919Y106.500
N33570X71.019Y106.400
N33580X71.119Y106.500
N33590G01Z-0.725F30.0
N33600G01X71.019Y106.600F200.0
N33610X70.919Y106.500
N33620X71.019Y106.400
N33630X71.119Y106.500
N33640G01Z-0.750F30.0
N33650G01X71.019Y106.600F200.0
N33660X70.919Y106.500
N33670X71.019Y106.400
N33680X71.119Y106.500
N33690G01Z-0.775F30.0
N33700G01X71.019Y106.600F200.0
N33710X70.919Y106.500
N33720X71.019Y106.400
N33730X71.119Y106.500
N33740G01Z-0.800F30.0
N33750G01X71.019Y106.600F200.0
N33760X70.919Y106.500
N33770X71.019Y106.400
N33780X71.119Y106.500
N33790G01Z-0.825F30.0
N33800G01X71.019Y106.600F200.0
N33810X70.919Y106.500
N33820X71.019Y106.400
N33830X71.119Y106.500
N33840G01Z-0.850F30.0
N33850G01X71.019Y106.600F200.0
N33860X70.919Y106.500
N33870X71.019Y106.400
N33880X71.119Y106.500
N33890G01Z-0.875F30.0
N33900G01X71.019Y106.600F200.0
N33910X70.919Y106.500
N33920X71.019Y106.400
N33930X71.119Y106.500
N33940G01Z-0.900F30.0
N33950G01X71.019Y106.600F200.0
N33960X70.919Y106.500
N33970X71.019Y106.400
N33980X71.119Y106.500
N33990G01Z-0.925F30.0
N34000G01X71.019Y106.600F200.0
N34010X70.919Y106.500
N34020X71.019Y106.400
N34030X71.119Y106.500
N34040G01Z-0.950F30.0
N34050G01X71.019Y106.600F200.0
N34060X70.919Y106.500
N34070X71.019Y106.400
N34080X71.119Y106.500
N34090G01Z-0.975F30.0
N34100G01X71.019Y106.600F200.0
N34110X70.919Y106.500
N34120X71.019Y106.400
N34130X71.119Y106.500
N34140G01Z-1.000F30.0
N34150G01X71.019Y106.600F200.0
N34160X70.919Y106.500
N34170X71.019Y106.400
N34180X71.119Y106.500
N34190G01Z-1.025F30.0
N34200G01X71.019Y106.600F200.0
N34210X70.919Y106.500
N34220X71.019Y106.400
N34230X71.119Y106.500
N34240G01Z-1.050F30.0
N34250G01X71.019Y106.600F200.0
N34260X70.919Y106.500
N34270X71.019Y106.400
N34280X71.119Y106.500
N34290G01Z-1.075F30.0
N34300G01X71.019Y106.600F200.0
N34310X70.919Y106.500
N34320X71.019Y106.400
N34330X71.119Y106.500
N34340G01Z-1.100F30.0
N34350G01X71.019Y106.600F200.0
N34360X70.919Y106.500
N34370X71.019Y106.400
N34380X71.119Y106.500
N34390G01Z-1.125F30.0
N34400G01X71.019Y106.600F200.0
N34410X70.919Y106.500
N34420X71.019Y106.400
N34430X71.119Y106.500
N34440G01Z-1.150F30.0
N34450G01X71.019Y106.600F200.0
N34460X70.919Y106.500
N34470X71.019Y106.400
N34480X71.119Y106.500
N34490G01Z-1.175F30.0
N34500G01X71.019Y106.600F200.0
N34510X70.919Y106.500
N34520X71.019Y106.400
N34530X71.119Y106.500
N34540G01Z-1.200F30.0
N34550G01X71.019Y106.600F200.0
N34560X70.919Y106.500
N34570X71.019Y106.400
N34580X71.119Y106.500
N34590G01Z-1.225F30.0
N34600G01X71.019Y106.600F200.0
N34610X70.919Y106.500
N34620X71.019Y106.400
N34630X71.119Y106.500
N34640G01Z-1.250F30.0
N34650G01X71.019Y106.600F200.0
N34660X70.919Y106.500
N34670X71.019Y106.400
N34680X71.119Y106.500
N34690G01Z-1.275F30.0
N34700G01X71.019Y106.600F200.0
N34710X70.919Y106.500
N34720X71.019Y106.400
N34730X71.119Y106.500
N34740G01Z-1.300F30.0
N34750G01X71.019Y106.600F200.0
N34760X70.919Y106.500
N34770X71.019Y106.400
N34780X71.119Y106.500
N34790G01Z-1.325F30.0
N34800G01X71.019Y106.600F200.0
N34810X70.919Y106.500
N34820X71.019Y106.400
N34830X71.119Y106.500
N34840G01Z-1.350F30.0
N34850G01X71.019Y106.600F200.0
N34860X70.919Y106.500
N34870X71.019Y106.400
N34880X71.119Y106.500
N34890G01Z-1.375F30.0
N34900G01X71.019Y106.600F200.0
N34910X70.919Y106.500
N34920X71.019Y106.400
N34930X71.119Y106.500
N34940G01Z-1.400F30.0
N34950G01X71.019Y106.600F200.0
N34960X70.919Y106.500
N34970X71.019Y106.400
N34980X71.119Y106.500
N34990G01Z-1.425F30.0
N35000G01X71.019Y106.600F200.0
N35010X70.919Y106.500
N35020X71.019Y106.400
N35030X71.119Y106.500
N35040G01Z-1.450F30.0
N35050G01X71.019Y106.600F200.0
N35060X70.919Y106.500
N35070X71.019Y106.400
N35080X71.119Y106.500
N35090G01Z-1.475F30.0
N35100G01X71.019Y106.600F200.0
N35110X70.919Y106.500
N35120X71.019Y106.400
N35130X71.119Y106.500
N35140G01Z-1.500F30.0
N35150G01X71.019Y106.600F200.0
N35160X70.919Y106.500
N35170X71.019Y106.400
N35180X71.119Y106.500
N35190G01Z-1.525F30.0
N35200G01X71.019Y106.600F200.0
N35210X70.919Y106.500
N35220X71.019Y106.400
N35230X71.119Y106.500
N35240G01Z-1.550F30.0
N35250G01X71.019Y106.600F200.0
N35260X70.919Y106.500
N35270X71.019Y106.400
N35280X71.119Y106.500
N35290G01Z-1.575F30.0
N35300G01X71.019Y106.600F200.0
N35310X70.919Y106.500
N35320X71.019Y106.400
N35330X71.119Y106.500
N35340G01Z-1.600F30.0
N35350G01X71.019Y106.600F200.0
N35360X70.919Y106.500
N35370X71.019Y106.400
N35380X71.119Y106.500
N35390G01Z-1.625F30.0
N35400G01X71.019Y106.600F200.0
N35410X70.919Y106.500
N35420X71.019Y106.400
N35430X71.119Y106.500
N35440G01Z-1.650F30.0
N35450G01X71.019Y106.600F200.0
N35460X70.919Y106.500
N35470X71.019Y106.400
N35480X71.119Y106.500
N35490G01Z-1.675F30.0
N35500G01X71.019Y106.600F200.0
N35510X70.919Y106.500
N35520X71.019Y106.400
N35530X71.119Y106.500
N35540G01Z-1.700F30.0
N35550G01X71.019Y106.600F200.0
N35560X70.919Y106.500
N35570X71.019Y106.400
N35580X71.119Y106.500
N35590G01Z-1.725F30.0
N35600G01X71.019Y106.600F200.0
N35610X70.919Y106.500
N35620X71.019Y106.400
N35630X71.119Y106.500
N35640G01Z-1.750F30.0
N35650G01X71.019Y106.600F200.0
N35660X70.919Y106.500
N35670X71.019Y106.400
N35680X71.119Y106.500
N35690G01Z-1.775F30.0
N35700G01X71.019Y106.600F200.0
N35710X70.919Y106.500
N35720X71.019Y106.400
N35730X71.119Y106.500
N35740G01Z-1.800F30.0
N35750G01X71.019Y106.600F200.0
N35760X70.919Y106.500
N35770X71.019Y106.400
N35780X71.119Y106.500
N35790G01Z-1.825F30.0
N35800G01X71.019Y106.600F200.0
N35810X70.919Y106.500
N35820X71.019Y106.400
N35830X71.119Y106.500
N35840G01Z-1.850F30.0
N35850G01X71.019Y106.600F200.0
N35860X70.919Y106.500
N35870X71.019Y106.400
N35880X71.119Y106.500
N35890G01Z-1.875F30.0
N35900G01X71.019Y106.600F200.0
N35910X70.919Y106.500
N35920X71.019Y106.400
N35930X71.119Y106.500
N35940G01Z-1.900F30.0
N35950G01X71.019Y106.600F200.0
N35960X70.919Y106.500
N35970X71.019Y106.400
N35980X71.119Y106.500
N35990G01Z-1.925F30.0
N36000G01X71.019Y106.600F200.0
N36010X70.919Y106.500
N36020X71.019Y106.400
N36030X71.119Y106.500
N36040G01Z-1.950F30.0
N36050G01X71.019Y106.600F200.0
N36060X70.919Y106.500
N36070X71.019Y106.400
N36080X71.119Y106.500
N36090G01Z-1.975F30.0
N36100G01X71.019Y106.600F200.0
N36110X70.919Y106.500
N36120X71.019Y106.400
N36130X71.119Y106.500
N36140G01Z-2.000F30.0
N36150G01X71.019Y106.600F200.0
N36160X70.919Y106.500
N36170X71.019Y106.400
N36180X71.119Y106.500
N36190G01Z-2.025F30.0
N36200G01X71.019Y106.600F200.0
N36210X70.919Y106.500
N36220X71.019Y106.400
N36230X71.119Y106.500
N36240G01Z-2.050F30.0
N36250G01X71.019Y106.600F200.0
N36260X70.919Y106.500
N36270X71.019Y106.400
N36280X71.119Y106.500
N36290G01Z-2.075F30.0
N36300G01X71.019Y106.600F200.0
N36310X70.919Y106.500
N36320X71.019Y106.400
N36330X71.119Y106.500
N36340G01Z-2.100F30.0
N36350G01X71.019Y106.600F200.0
N36360X70.919Y106.500
N36370X71.019Y106.400
N36380X71.119Y106.500
N36390G01Z-2.125F30.0
N36400G01X71.019Y106.600F200.0
N36410X70.919Y106.500
N36420X71.019Y106.400
N36430X71.119Y106.500
N36440G01Z-2.150F30.0
N36450G01X71.019Y106.600F200.0
N36460X70.919Y106.500
N36470X71.019Y106.400
N36480X71.119Y106.500
N36490G01Z-2.175F30.0
N36500G01X71.019Y106.600F200.0
N36510X70.919Y106.500
N36520X71.019Y106.400
N36530X71.119Y106.500
N36540G01Z-2.200F30.0
N36550G01X71.019Y106.600F200.0
N36560X70.919Y106.500
N36570X71.019Y106.400
N36580X71.119Y106.500
N36590G01Z-2.225F30.0
N36600G01X71.019Y106.600F200.0
N36610X70.919Y106.500
N36620X71.019Y106.400
N36630X71.119Y106.500
N36640G01Z-2.250F30.0
N36650G01X71.019Y106.600F200.0
N36660X70.919Y106.500
N36670X71.019Y106.400
N36680X71.119Y106.500
N36690G01Z-2.275F30.0
N36700G01X71.019Y106.600F200.0
N36710X70.919Y106.500
N36720X71.019Y106.400
N36730X71.119Y106.500
N36740G01Z-2.300F30.0
N36750G01X71.019Y106.600F200.0
N36760X70.919Y106.500
N36770X71.019Y106.400
N36780X71.119Y106.500
N36790G01Z-2.325F30.0
N36800G01X71.019Y106.600F200.0
N36810X70.919Y106.500
N36820X71.019Y106.400
N36830X71.119Y106.500
N36840G01Z-2.350F30.0
N36850G01X71.019Y106.600F200.0
N36860X70.919Y106.500
N36870X71.019Y106.400
N36880X71.119Y106.500
N36890G01Z-2.375F30.0
N36900G01X71.019Y106.600F200.0
N36910X70.919Y106.500
N36920X71.019Y106.400
N36930X71.119Y106.500
N36940G01Z-2.400F30.0
N36950G01X71.019Y106.600F200.0
N36960X70.919Y106.500
N36970X71.019Y106.400
N36980X71.119Y106.500
N36990G01Z-2.425F30.0
N37000G01X71.019Y106.600F200.0
N37010X70.919Y106.500
N37020X71.019Y106.400
N37030X71.119Y106.500
N37040G01Z-2.450F30.0
N37050G01X71.019Y106.600F200.0
N37060X70.919Y106.500
N37070X71.019Y106.400
N37080X71.119Y106.500
N37090G01Z-2.475F30.0
N37100G01X71.019Y106.600F200.0
N37110X70.919Y106.500
N37120X71.019Y106.400
N37130X71.119Y106.500
N37140G01Z-2.500F30.0
N37150G01X71.019Y106.600F200.0
N37160X70.919Y106.500
N37170X71.019Y106.400
N37180X71.119Y106.500
N37190G01Z-2.525F30.0
N37200G01X71.019Y106.600F200.0
N37210X70.919Y106.500
N37220X71.019Y106.400
N37230X71.119Y106.500
N37240G01Z-2.550F30.0
N37250G01X71.019Y106.600F200.0
N37260X70.919Y106.500
N37270X71.019Y106.400
N37280X71.119Y106.500
N37290G01Z-2.575F30.0
N37300G01X71.019Y106.600F200.0
N37310X70.919Y106.500
N37320X71.019Y106.400
N37330X71.119Y106.500
N37340G01Z-2.600F30.0
N37350G01X71.019Y106.600F200.0
N37360X70.919Y106.500
N37370X71.019Y106.400
N37380X71.119Y106.500
N37390G01Z-2.625F30.0
N37400G01X71.019Y106.600F200.0
N37410X70.919Y106.500
N37420X71.019Y106.400
N37430X71.119Y106.500
N37440G01Z-2.650F30.0
N37450G01X71.019Y106.600F200.0
N37460X70.919Y106.500
N37470X71.019Y106.400
N37480X71.119Y106.500
N37490G01Z-2.675F30.0
N37500G01X71.019Y106.600F200.0
N37510X70.919Y106.500
N37520X71.019Y106.400
N37530X71.119Y106.500
N37540G01Z-2.700F30.0
N37550G01X71.019Y106.600F200.0
N37560X70.919Y106.500
N37570X71.019Y106.400
N37580X71.119Y106.500
N37590G01Z-2.725F30.0
N37600G01X71.019Y106.600F200.0
N37610X70.919Y106.500
N37620X71.019Y106.400
N37630X71.119Y106.500
N37640G01Z-2.750F30.0
N37650G01X71.019Y106.600F200.0
N37660X70.919Y106.500
N37670X71.019Y106.400
N37680X71.119Y106.500
N37690G01Z-2.775F30.0
N37700G01X71.019Y106.600F200.0
N37710X70.919Y106.500
N37720X71.019Y106.400
N37730X71.119Y106.500
N37740G01Z-2.800F30.0
N37750G01X71.019Y106.600F200.0
N37760X70.919Y106.500
N37770X71.019Y106.400
N37780X71.119Y106.500
N37790G01Z-2.825F30.0
N37800G01X71.019Y106.600F200.0
N37810X70.919Y106.500
N37820X71.019Y106.400
N37830X71.119Y106.500
N37840G01Z-2.850F30.0
N37850G01X71.019Y106.600F200.0
N37860X70.919Y106.500
N37870X71.019Y106.400
N37880X71.119Y106.500
N37890G01Z-2.875F30.0
N37900G01X71.019Y106.600F200.0
N37910X70.919Y106.500
N37920X71.019Y106.400
N37930X71.119Y106.500
N37940G01Z-2.900F30.0
N37950G01X71.019Y106.600F200.0
N37960X70.919Y106.500
N37970X71.019Y106.400
N37980X71.119Y106.500
N37990G01Z-2.925F30.0
N38000G01X71.019Y106.600F200.0
N38010X70.919Y106.500
N38020X71.019Y106.400
N38030X71.119Y106.500
N38040G01Z-2.950F30.0
N38050G01X71.019Y106.600F200.0
N38060X70.919Y106.500
N38070X71.019Y106.400
N38080X71.119Y106.500
N38090G01Z-2.975F30.0
N38100G01X71.019Y106.600F200.0
N38110X70.919Y106.500
N38120X71.019Y106.400
N38130X71.119Y106.500
N38140G01Z-3.000F30.0
N38150G01X71.019Y106.600F200.0
N38160X70.919Y106.500
N38170X71.019Y106.400
N38180X71.119Y106.500
N38190G01Z-3.025F30.0
N38200G01X71.019Y106.600F200.0
N38210X70.919Y106.500
N38220X71.019Y106.400
N38230X71.119Y106.500
N38240G01Z-3.050F30.0
N38250G01X71.019Y106.600F200.0
N38260X70.919Y106.500
N38270X71.019Y106.400
N38280X71.119Y106.500
N38290G01Z-3.075F30.0
N38300G01X71.019Y106.600F200.0
N38310X70.919Y106.500
N38320X71.019Y106.400
N38330X71.119Y106.500
N38340G01Z-3.100F30.0
N38350G01X71.019Y106.600F200.0
N38360X70.919Y106.500
N38370X71.019Y106.400
N38380X71.119Y106.500
N38390G01Z-3.125F30.0
N38400G01X71.019Y106.600F200.0
N38410X70.919Y106.500
N38420X71.019Y106.400
N38430X71.119Y106.500
N38440G01Z-3.150F30.0
N38450G01X71.019Y106.600F200.0
N38460X70.919Y106.500
N38470X71.019Y106.400
N38480X71.119Y106.500
N38490G01Z-3.175F30.0
N38500G01X71.019Y106.600F200.0
N38510X70.919Y106.500
N38520X71.019Y106.400
N38530X71.119Y106.500
N38540G01Z-3.200F30.0
N38550G01X71.019Y106.600F200.0
N38560X70.919Y106.500
N38570X71.019Y106.400
N38580X71.119Y106.500
N38590G00Z6.000
N38600G00X81.119
N38610G01Z-0.025F30.0
N38620G01X81.019Y106.600F200.0
N38630X80.919Y106.500
N38640X81.019Y106.400
N38650X81.119Y106.500
N38660G01Z-0.050F30.0
N38670G01X81.019Y106.600F200.0
N38680X80.919Y106.500
N38690X81.019Y106.400
N38700X81.119Y106.500
N38710G01Z-0.075F30.0
N38720G01X81.019Y106.600F200.0
N38730X80.919Y106.500
N38740X81.019Y106.400
N38750X81.119Y106.500
N38760G01Z-0.100F30.0
N38770G01X81.019Y106.600F200.0
N38780X80.919Y106.500
N38790X81.019Y106.400
N38800X81.119Y106.500
N38810G01Z-0.125F30.0
N38820G01X81.019Y106.600F200.0
N38830X80.919Y106.500
N38840X81.019Y106.400
N38850X81.119Y106.500
N38860G01Z-0.150F30.0
N38870G01X81.019Y106.600F200.0
N38880X80.919Y106.500
N38890X81.019Y106.400
N38900X81.119Y106.500
N38910G01Z-0.175F30.0
N38920G01X81.019Y106.600F200.0
N38930X80.919Y106.500
N38940X81.019Y106.400
N38950X81.119Y106.500
N38960G01Z-0.200F30.0
N38970G01X81.019Y106.600F200.0
N38980X80.919Y106.500
N38990X81.019Y106.400
N39000X81.119Y106.500
N39010G01Z-0.225F30.0
N39020G01X81.019Y106.600F200.0
N39030X80.919Y106.500
N39040X81.019Y106.400
N39050X81.119Y106.500
N39060G01Z-0.250F30.0
N39070G01X81.019Y106.600F200.0
N39080X80.919Y106.500
N39090X81.019Y106.400
N39100X81.119Y106.500
N39110G01Z-0.275F30.0
N39120G01X81.019Y106.600F200.0
N39130X80.919Y106.500
N39140X81.019Y106.400
N39150X81.119Y106.500
N39160G01Z-0.300F30.0
N39170G01X81.019Y106.600F200.0
N39180X80.919Y106.500
N39190X81.019Y106.400
N39200X81.119Y106.500
N39210G01Z-0.325F30.0
N39220G01X81.019Y106.600F200.0
N39230X80.919Y106.500
N39240X81.019Y106.400
N39250X81.119Y106.500
N39260G01Z-0.350F30.0
N39270G01X81.019Y106.600F200.0
N39280X80.919Y106.500
N39290X81.019Y106.400
N39300X81.119Y106.500
N39310G01Z-0.375F30.0
N39320G01X81.019Y106.600F200.0
N39330X80.919Y106.500
N39340X81.019Y106.400
N39350X81.119Y106.500
N39360G01Z-0.400F30.0
N39370G01X81.019Y106.600F200.0
N39380X80.919Y106.500
N39390X81.019Y106.400
N39400X81.119Y106.500
N39410G01Z-0.425F30.0
N39420G01X81.019Y106.600F200.0
N39430X80.919Y106.500
N39440X81.019Y106.400
N39450X81.119Y106.500
N39460G01Z-0.450F30.0
N39470G01X81.019Y106.600F200.0
N39480X80.919Y106.500
N39490X81.019Y106.400
N39500X81.119Y106.500
N39510G01Z-0.475F30.0
N39520G01X81.019Y106.600F200.0
N39530X80.919Y106.500
N39540X81.019Y106.400
N39550X81.119Y106.500
N39560G01Z-0.500F30.0
N39570G01X81.019Y106.600F200.0
N39580X80.919Y106.500
N39590X81.019Y106.400
N39600X81.119Y106.500
N39610G01Z-0.525F30.0
N39620G01X81.019Y106.600F200.0
N39630X80.919Y106.500
N39640X81.019Y106.400
N39650X81.119Y106.500
N39660G01Z-0.550F30.0
N39670G01X81.019Y106.600F200.0
N39680X80.919Y106.500
N39690X81.019Y106.400
N39700X81.119Y106.500
N39710G01Z-0.575F30.0
N39720G01X81.019Y106.600F200.0
N39730X80.919Y106.500
N39740X81.019Y106.400
N39750X81.119Y106.500
N39760G01Z-0.600F30.0
N39770G01X81.019Y106.600F200.0
N39780X80.919Y106.500
N39790X81.019Y106.400
N39800X81.119Y106.500
N39810G01Z-0.625F30.0
N39820G01X81.019Y106.600F200.0
N39830X80.919Y106.500
N39840X81.019Y106.400
N39850X81.119Y106.500
N39860G01Z-0.650F30.0
N39870G01X81.019Y106.600F200.0
N39880X80.919Y106.500
N39890X81.019Y106.400
N39900X81.119Y106.500
N39910G01Z-0.675F30.0
N39920G01X81.019Y106.600F200.0
N39930X80.919Y106.500
N39940X81.019Y106.400
N39950X81.119Y106.500
N39960G01Z-0.700F30.0
N39970G01X81.019Y106.600F200.0
N39980X80.919Y106.500
N39990X81.019Y106.400
N40000X81.119Y106.500
N40010G01Z-0.725F30.0
N40020G01X81.019Y106.600F200.0
N40030X80.919Y106.500
N40040X81.019Y106.400
N40050X81.119Y106.500
N40060G01Z-0.750F30.0
N40070G01X81.019Y106.600F200.0
N40080X80.919Y106.500
N40090X81.019Y106.400
N40100X81.119Y106.500
N40110G01Z-0.775F30.0
N40120G01X81.019Y106.600F200.0
N40130X80.919Y106.500
N40140X81.019Y106.400
N40150X81.119Y106.500
N40160G01Z-0.800F30.0
N40170G01X81.019Y106.600F200.0
N40180X80.919Y106.500
N40190X81.019Y106.400
N40200X81.119Y106.500
N40210G01Z-0.825F30.0
N40220G01X81.019Y106.600F200.0
N40230X80.919Y106.500
N40240X81.019Y106.400
N40250X81.119Y106.500
N40260G01Z-0.850F30.0
N40270G01X81.019Y106.600F200.0
N40280X80.919Y106.500
N40290X81.019Y106.400
N40300X81.119Y106.500
N40310G01Z-0.875F30.0
N40320G01X81.019Y106.600F200.0
N40330X80.919Y106.500
N40340X81.019Y106.400
N40350X81.119Y106.500
N40360G01Z-0.900F30.0
N40370G01X81.019Y106.600F200.0
N40380X80.919Y106.500
N40390X81.019Y106.400
N40400X81.119Y106.500
N40410G01Z-0.925F30.0
N40420G01X81.019Y106.600F200.0
N40430X80.919Y106.500
N40440X81.019Y106.400
N40450X81.119Y106.500
N40460G01Z-0.950F30.0
N40470G01X81.019Y106.600F200.0
N40480X80.919Y106.500
N40490X81.019Y106.400
N40500X81.119Y106.500
N40510G01Z-0.975F30.0
N40520G01X81.019Y106.600F200.0
N40530X80.919Y106.500
N40540X81.019Y106.400
N40550X81.119Y106.500
N40560G01Z-1.000F30.0
N40570G01X81.019Y106.600F200.0
N40580X80.919Y106.500
N40590X81.019Y106.400
N40600X81.119Y106.500
N40610G01Z-1.025F30.0
N40620G01X81.019Y106.600F200.0
N40630X80.919Y106.500
N40640X81.019Y106.400
N40650X81.119Y106.500
N40660G01Z-1.050F30.0
N40670G01X81.019Y106.600F200.0
N40680X80.919Y106.500
N40690X81.019Y106.400
N40700X81.119Y106.500
N40710G01Z-1.075F30.0
N40720G01X81.019Y106.600F200.0
N40730X80.919Y106.500
N40740X81.019Y106.400
N40750X81.119Y106.500
N40760G01Z-1.100F30.0
N40770G01X81.019Y106.600F200.0
N40780X80.919Y106.500
N40790X81.019Y106.400
N40800X81.119Y106.500
N40810G01Z-1.125F30.0
N40820G01X81.019Y106.600F200.0
N40830X80.919Y106.500
N40840X81.019Y106.400
N40850X81.119Y106.500
N40860G01Z-1.150F30.0
N40870G01X81.019Y106.600F200.0
N40880X80.919Y106.500
N40890X81.019Y106.400
N40900X81.119Y106.500
N40910G01Z-1.175F30.0
N40920G01X81.019Y106.600F200.0
N40930X80.919Y106.500
N40940X81.019Y106.400
N40950X81.119Y106.500
N40960G01Z-1.200F30.0
N40970G01X81.019Y106.600F200.0
N40980X80.919Y106.500
N40990X81.019Y106.400
N41000X81.119Y106.500
N41010G01Z-1.225F30.0
N41020G01X81.019Y106.600F200.0
N41030X80.919Y106.500
N41040X81.019Y106.400
N41050X81.119Y106.500
N41060G01Z-1.250F30.0
N41070G01X81.019Y106.600F200.0
N41080X80.919Y106.500
N41090X81.019Y106.400
N41100X81.119Y106.500
N41110G01Z-1.275F30.0
N41120G01X81.019Y106.600F200.0
N41130X80.919Y106.500
N41140X81.019Y106.400
N41150X81.119Y106.500
N41160G01Z-1.300F30.0
N41170G01X81.019Y106.600F200.0
N41180X80.919Y106.500
N41190X81.019Y106.400
N41200X81.119Y106.500
N41210G01Z-1.325F30.0
N41220G01X81.019Y106.600F200.0
N41230X80.919Y106.500
N41240X81.019Y106.400
N41250X81.119Y106.500
N41260G01Z-1.350F30.0
N41270G01X81.019Y106.600F200.0
N41280X80.919Y106.500
N41290X81.019Y106.400
N41300X81.119Y106.500
N41310G01Z-1.375F30.0
N41320G01X81.019Y106.600F200.0
N41330X80.919Y106.500
N41340X81.019Y106.400
N41350X81.119Y106.500
N41360G01Z-1.400F30.0
N41370G01X81.019Y106.600F200.0
N41380X80.919Y106.500
N41390X81.019Y106.400
N41400X81.119Y106.500
N41410G01Z-1.425F30.0
N41420G01X81.019Y106.600F200.0
N41430X80.919Y106.500
N41440X81.019Y106.400
N41450X81.119Y106.500
N41460G01Z-1.450F30.0
N41470G01X81.019Y106.600F200.0
N41480X80.919Y106.500
N41490X81.019Y106.400
N41500X81.119Y106.500
N41510G01Z-1.475F30.0
N41520G01X81.019Y106.600F200.0
N41530X80.919Y106.500
N41540X81.019Y106.400
N41550X81.119Y106.500
N41560G01Z-1.500F30.0
N41570G01X81.019Y106.600F200.0
N41580X80.919Y106.500
N41590X81.019Y106.400
N41600X81.119Y106.500
N41610G01Z-1.525F30.0
N41620G01X81.019Y106.600F200.0
N41630X80.919Y106.500
N41640X81.019Y106.400
N41650X81.119Y106.500
N41660G01Z-1.550F30.0
N41670G01X81.019Y106.600F200.0
N41680X80.919Y106.500
N41690X81.019Y106.400
N41700X81.119Y106.500
N41710G01Z-1.575F30.0
N41720G01X81.019Y106.600F200.0
N41730X80.919Y106.500
N41740X81.019Y106.400
N41750X81.119Y106.500
N41760G01Z-1.600F30.0
N41770G01X81.019Y106.600F200.0
N41780X80.919Y106.500
N41790X81.019Y106.400
N41800X81.119Y106.500
N41810G01Z-1.625F30.0
N41820G01X81.019Y106.600F200.0
N41830X80.919Y106.500
N41840X81.019Y106.400
N41850X81.119Y106.500
N41860G01Z-1.650F30.0
N41870G01X81.019Y106.600F200.0
N41880X80.919Y106.500
N41890X81.019Y106.400
N41900X81.119Y106.500
N41910G01Z-1.675F30.0
N41920G01X81.019Y106.600F200.0
N41930X80.919Y106.500
N41940X81.019Y106.400
N41950X81.119Y106.500
N41960G01Z-1.700F30.0
N41970G01X81.019Y106.600F200.0
N41980X80.919Y106.500
N41990X81.019Y106.400
N42000X81.119Y106.500
N42010G01Z-1.725F30.0
N42020G01X81.019Y106.600F200.0
N42030X80.919Y106.500
N42040X81.019Y106.400
N42050X81.119Y106.500
N42060G01Z-1.750F30.0
N42070G01X81.019Y106.600F200.0
N42080X80.919Y106.500
N42090X81.019Y106.400
N42100X81.119Y106.500
N42110G01Z-1.775F30.0
N42120G01X81.019Y106.600F200.0
N42130X80.919Y106.500
N42140X81.019Y106.400
N42150X81.119Y106.500
N42160G01Z-1.800F30.0
N42170G01X81.019Y106.600F200.0
N42180X80.919Y106.500
N42190X81.019Y106.400
N42200X81.119Y106.500
N42210G01Z-1.825F30.0
N42220G01X81.019Y106.600F200.0
N42230X80.919Y106.500
N42240X81.019Y106.400
N42250X81.119Y106.500
N42260G01Z-1.850F30.0
N42270G01X81.019Y106.600F200.0
N42280X80.919Y106.500
N42290X81.019Y106.400
N42300X81.119Y106.500
N42310G01Z-1.875F30.0
N42320G01X81.019Y106.600F200.0
N42330X80.919Y106.500
N42340X81.019Y106.400
N42350X81.119Y106.500
N42360G01Z-1.900F30.0
N42370G01X81.019Y106.600F200.0
N42380X80.919Y106.500
N42390X81.019Y106.400
N42400X81.119Y106.500
N42410G01Z-1.925F30.0
N42420G01X81.019Y106.600F200.0
N42430X80.919Y106.500
N42440X81.019Y106.400
N42450X81.119Y106.500
N42460G01Z-1.950F30.0
N42470G01X81.019Y106.600F200.0
N42480X80.919Y106.500
N42490X81.019Y106.400
N42500X81.119Y106.500
N42510G01Z-1.975F30.0
N42520G01X81.019Y106.600F200.0
N42530X80.919Y106.500
N42540X81.019Y106.400
N42550X81.119Y106.500
N42560G01Z-2.000F30.0
N42570G01X81.019Y106.600F200.0
N42580X80.919Y106.500
N42590X81.019Y106.400
N42600X81.119Y106.500
N42610G01Z-2.025F30.0
N42620G01X81.019Y106.600F200.0
N42630X80.919Y106.500
N42640X81.019Y106.400
N42650X81.119Y106.500
N42660G01Z-2.050F30.0
N42670G01X81.019Y106.600F200.0
N42680X80.919Y106.500
N42690X81.019Y106.400
N42700X81.119Y106.500
N42710G01Z-2.075F30.0
N42720G01X81.019Y106.600F200.0
N42730X80.919Y106.500
N42740X81.019Y106.400
N42750X81.119Y106.500
N42760G01Z-2.100F30.0
N42770G01X81.019Y106.600F200.0
N42780X80.919Y106.500
N42790X81.019Y106.400
N42800X81.119Y106.500
N42810G01Z-2.125F30.0
N42820G01X81.019Y106.600F200.0
N42830X80.919Y106.500
N42840X81.019Y106.400
N42850X81.119Y106.500
N42860G01Z-2.150F30.0
N42870G01X81.019Y106.600F200.0
N42880X80.919Y106.500
N42890X81.019Y106.400
N42900X81.119Y106.500
N42910G01Z-2.175F30.0
N42920G01X81.019Y106.600F200.0
N42930X80.919Y106.500
N42940X81.019Y106.400
N42950X81.119Y106.500
N42960G01Z-2.200F30.0
N42970G01X81.019Y106.600F200.0
N42980X80.919Y106.500
N42990X81.019Y106.400
N43000X81.119Y106.500
N43010G01Z-2.225F30.0
N43020G01X81.019Y106.600F200.0
N43030X80.919Y106.500
N43040X81.019Y106.400
N43050X81.119Y106.500
N43060G01Z-2.250F30.0
N43070G01X81.019Y106.600F200.0
N43080X80.919Y106.500
N43090X81.019Y106.400
N43100X81.119Y106.500
N43110G01Z-2.275F30.0
N43120G01X81.019Y106.600F200.0
N43130X80.919Y106.500
N43140X81.019Y106.400
N43150X81.119Y106.500
N43160G01Z-2.300F30.0
N43170G01X81.019Y106.600F200.0
N43180X80.919Y106.500
N43190X81.019Y106.400
N43200X81.119Y106.500
N43210G01Z-2.325F30.0
N43220G01X81.019Y106.600F200.0
N43230X80.919Y106.500
N43240X81.019Y106.400
N43250X81.119Y106.500
N43260G01Z-2.350F30.0
N43270G01X81.019Y106.600F200.0
N43280X80.919Y106.500
N43290X81.019Y106.400
N43300X81.119Y106.500
N43310G01Z-2.375F30.0
N43320G01X81.019Y106.600F200.0
N43330X80.919Y106.500
N43340X81.019Y106.400
N43350X81.119Y106.500
N43360G01Z-2.400F30.0
N43370G01X81.019Y106.600F200.0
N43380X80.919Y106.500
N43390X81.019Y106.400
N43400X81.119Y106.500
N43410G01Z-2.425F30.0
N43420G01X81.019Y106.600F200.0
N43430X80.919Y106.500
N43440X81.019Y106.400
N43450X81.119Y106.500
N43460G01Z-2.450F30.0
N43470G01X81.019Y106.600F200.0
N43480X80.919Y106.500
N43490X81.019Y106.400
N43500X81.119Y106.500
N43510G01Z-2.475F30.0
N43520G01X81.019Y106.600F200.0
N43530X80.919Y106.500
N43540X81.019Y106.400
N43550X81.119Y106.500
N43560G01Z-2.500F30.0
N43570G01X81.019Y106.600F200.0
N43580X80.919Y106.500
